config/Pocket 3/DJI OSMO Pocket 3 Summer Pro.cube
#Generated by Picture Instruments - Look Converter
LUT_3D_SIZE 5
0.0000 0.0000 0.0000
0.2745 0.0078 0.0118
0.6431 0.0118 0.0431
0.8353 0.0118 0.0471
0.9882 0.0039 0.0471
0.0039 0.2196 0.0039
0.2196 0.2157 0.0039
0.5608 0.1843 0.0196
0.8314 0.1765 0.0431
0.9882 0.1608 0.0510
0.0157 0.5098 0.0157
0.1882 0.5137 0.0039
0.5176 0.5020 0.0078
0.8314 0.4549 0.0157
0.9882 0.3804 0.0392
0.0157 0.8078 0.0235
0.1961 0.8118 0.0157
0.4745 0.8196 0.0039
0.8118 0.8039 0.0000
0.9843 0.7412 0.0000
0.0157 0.9961 0.0118
0.1725 0.9882 0.0078
0.4039 0.9882 0.0157
0.7216 0.9961 0.0157
0.9686 0.9961 0.0157
0.0078 0.0039 0.1686
0.2078 0.0118 0.1608
0.6275 0.0078 0.2000
0.8392 0.0118 0.2118
0.9882 0.0078 0.2078
0.0000 0.2157 0.2275
0.2157 0.2157 0.2157
0.5490 0.1882 0.1922
0.8275 0.1804 0.2039
0.9882 0.1608 0.2078
0.0157 0.5098 0.2314
0.1843 0.5255 0.2196
0.5216 0.5098 0.2078
0.8353 0.4549 0.1765
0.9961 0.3961 0.1961
0.0275 0.8078 0.2392
0.1922 0.8118 0.2392
0.4667 0.8157 0.2118
0.8039 0.8078 0.1647
0.9804 0.7451 0.1569
0.0157 0.9843 0.1961
0.1804 0.9882 0.1922
0.4078 0.9922 0.2000
0.7216 0.9961 0.2039
0.9608 0.9922 0.1843
0.0000 0.0157 0.5412
0.2667 0.0078 0.5020
0.6039 0.0000 0.4314
0.8392 0.0118 0.3843
0.9922 0.0039 0.3608
0.0000 0.2118 0.5255
0.2157 0.2157 0.5059
0.5490 0.1882 0.4745
0.8314 0.1686 0.3843
0.9882 0.1608 0.3647
0.0157 0.5216 0.5451
0.1725 0.5255 0.5294
0.5176 0.5176 0.5176
0.8353 0.4667 0.4275
0.9961 0.4039 0.3608
0.0078 0.8078 0.5373
0.1843 0.8118 0.5373
0.4431 0.8196 0.5373
0.8078 0.8039 0.4824
0.9843 0.7490 0.3843
0.0196 0.9843 0.4902
0.1843 0.9843 0.4745
0.3843 0.9882 0.4667
0.7216 0.9922 0.4667
0.9686 0.9961 0.3882
0.0157 0.0392 0.8157
0.2078 0.0353 0.8157
0.5804 0.0039 0.7725
0.8353 0.0039 0.6471
0.9922 0.0039 0.5529
0.0000 0.2078 0.8118
0.2078 0.2078 0.7961
0.5373 0.1961 0.7804
0.8431 0.1686 0.7098
0.9922 0.1647 0.5725
0.0078 0.5059 0.8078
0.1765 0.5137 0.8000
0.4941 0.5098 0.8000
0.8353 0.4627 0.7804
0.9922 0.4353 0.6745
0.0118 0.7961 0.7961
0.1686 0.7961 0.7961
0.3882 0.8039 0.7882
0.7961 0.7961 0.7961
0.9922 0.7569 0.7373
0.0078 0.9843 0.7765
0.1804 0.9843 0.7647
0.3843 0.9843 0.7490
0.7020 0.9882 0.7451
0.9882 0.9922 0.7373
0.0431 0.0431 0.9843
0.2510 0.0392 0.9843
0.5529 0.0275 0.9922
0.8392 0.0078 0.9451
0.9922 0.0039 0.8275
0.0039 0.2078 0.9922
0.1961 0.2118 0.9882
0.5255 0.2039 0.9843
0.8235 0.1882 0.9490
0.9961 0.1686 0.8863
0.0118 0.4588 0.9765
0.1765 0.4667 0.9765
0.4431 0.4784 0.9804
0.8157 0.4510 0.9961
0.9922 0.4157 0.9529
0.0078 0.7490 0.9608
0.1647 0.7608 0.9647
0.3373 0.7686 0.9569
0.7451 0.7725 0.9843
0.9882 0.7529 0.9765
0.0118 0.9843 0.9529
0.1686 0.9843 0.9529
0.3647 0.9804 0.9490
0.6588 0.9804 0.9647
0.9882 0.9922 0.9882
