config/Pocket 3/DJI OSMO Pocket 3 Autumn Pro.cube
LUT_3D_SIZE 16
-0.040275 0.020953 0.022001
0.102629 0.043801 0.041555
0.200669 0.053792 0.050427
0.305134 0.057907 0.054008
0.384046 0.058254 0.053981
0.481286 0.055313 0.051657
0.564859 0.051033 0.048208
0.635766 0.047045 0.044634
0.699554 0.044892 0.040591
0.766582 0.045786 0.035514
0.812706 0.047171 0.033403
0.861193 0.055873 0.029087
0.903139 0.071449 0.027214
0.939314 0.092054 0.022723
0.968281 0.117455 0.019745
0.989569 0.146158 0.027164
-0.011482 0.033957 0.028755
0.021928 0.039884 0.031842
0.145672 0.064864 0.047685
0.242041 0.075187 0.052735
0.325127 0.077849 0.054159
0.419500 0.081791 0.053151
0.513834 0.085432 0.049915
0.595850 0.086998 0.045615
0.669724 0.084964 0.041178
0.734648 0.084802 0.036930
0.787321 0.086800 0.033101
0.835814 0.092834 0.030050
0.872389 0.095424 0.026761
0.906235 0.103247 0.021402
0.933243 0.115716 0.020615
0.926718 0.103734 0.020705
0.048044 0.070939 0.042527
0.041412 0.071040 0.042569
0.105437 0.082210 0.047591
0.194103 0.102040 0.052679
0.283244 0.109409 0.054509
0.378579 0.112867 0.053573
0.474119 0.112731 0.050949
0.567330 0.118923 0.046469
0.647997 0.124605 0.041229
0.721583 0.125937 0.035712
0.778462 0.118073 0.031937
0.830859 0.111695 0.028359
0.862602 0.106402 0.026593
0.898536 0.110469 0.023277
0.922608 0.117869 0.022253
0.917185 0.100443 0.023021
0.065423 0.102971 0.049105
0.072012 0.104382 0.049321
0.102732 0.107902 0.050628
0.164192 0.125078 0.053496
0.240622 0.137891 0.054763
0.341768 0.149051 0.054002
0.444195 0.156268 0.051234
0.546060 0.160735 0.046809
0.631299 0.166850 0.041108
0.710133 0.168231 0.035091
0.783477 0.172521 0.029162
0.838933 0.171533 0.024122
0.880051 0.172182 0.020263
0.914469 0.170096 0.016362
0.935889 0.165013 0.015131
0.935879 0.156192 0.015716
0.077701 0.133459 0.053022
0.091251 0.135783 0.053166
0.108477 0.141359 0.053571
0.163403 0.149656 0.054411
0.218505 0.159183 0.055199
0.318617 0.179736 0.054165
0.419217 0.192701 0.050783
0.529210 0.203465 0.045723
0.621251 0.206386 0.040429
0.702410 0.210849 0.035081
0.779652 0.215157 0.022933
0.841752 0.220425 0.021961
0.879668 0.220228 0.019146
0.918538 0.221298 0.016580
0.943893 0.225335 0.014253
0.946617 0.240330 0.015468
0.095799 0.171574 0.055521
0.110422 0.172111 0.055411
0.119009 0.174400 0.054976
0.161111 0.185225 0.055087
0.219644 0.198321 0.055761
0.298818 0.216115 0.054647
0.398188 0.232453 0.050344
0.510840 0.251325 0.044142
0.604842 0.260477 0.038374
0.692278 0.266315 0.032425
0.777725 0.271492 0.025205
0.837026 0.273970 0.023394
0.880571 0.276961 0.018488
0.920542 0.281725 0.014888
0.943635 0.285567 0.017176
0.947243 0.302491 0.017505
0.112585 0.215974 0.057748
0.126095 0.211996 0.056759
0.136615 0.213569 0.055811
0.159640 0.224113 0.054325
0.222079 0.239172 0.053825
0.305868 0.260815 0.053668
0.391464 0.274722 0.052111
0.497831 0.293681 0.042988
0.592078 0.309506 0.036109
0.685863 0.319838 0.030035
0.774369 0.330481 0.018339
0.836907 0.333367 0.026089
0.883887 0.339886 0.022729
0.920767 0.342687 0.017131
0.943226 0.343911 0.019180
0.952141 0.353066 0.019656
0.129001 0.259638 0.057820
0.141794 0.253278 0.056376
0.154986 0.258040 0.054999
0.172562 0.264474 0.052507
0.223082 0.280723 0.052081
0.320222 0.308538 0.052265
0.403183 0.321738 0.052676
0.502028 0.345604 0.048706
0.589406 0.360989 0.036614
0.688891 0.374287 0.027314
0.775452 0.389512 0.022238
0.846232 0.395939 0.023028
0.891546 0.399345 0.028960
0.927391 0.403081 0.018341
0.947781 0.405926 0.023664
0.958044 0.413486 0.024485
0.144328 0.301816 0.057307
0.157258 0.293725 0.054691
0.170895 0.300497 0.054361
0.189838 0.303394 0.050939
0.225177 0.321633 0.048706
0.325092 0.350008 0.048913
0.416405 0.370434 0.052186
0.511909 0.395385 0.053908
0.597077 0.411106 0.048153
0.694388 0.426224 0.034418
0.780555 0.440074 0.025768
0.848613 0.448448 0.021894
0.891868 0.453565 0.027635
0.930659 0.458439 0.031605
0.950067 0.457751 0.028840
0.962154 0.463661 0.029671
0.160999 0.343232 0.057338
0.172068 0.333937 0.054801
0.184135 0.341429 0.053397
0.200613 0.346340 0.048807
0.233458 0.361132 0.047515
0.326585 0.391240 0.045804
0.433636 0.422518 0.052465
0.527246 0.443727 0.057536
0.611646 0.462416 0.059042
0.703960 0.478209 0.052357
0.792071 0.493514 0.041959
0.859698 0.497869 0.036287
0.901104 0.505192 0.030443
0.934971 0.508621 0.031857
0.958382 0.507972 0.034804
0.970326 0.509947 0.035459
0.173179 0.379509 0.056290
0.183272 0.371734 0.055156
0.197073 0.380137 0.053805
0.214848 0.385953 0.051133
0.245262 0.403800 0.043526
0.331380 0.434484 0.044647
0.448692 0.470251 0.053362
0.553523 0.499968 0.062778
0.631611 0.522069 0.069395
0.726214 0.538238 0.070246
0.806460 0.555673 0.063858
0.877429 0.564355 0.057210
0.919561 0.568052 0.050892
0.949650 0.571226 0.051623
0.967325 0.567048 0.049435
0.980232 0.562767 0.047877
0.187646 0.415021 0.058333
0.197068 0.406441 0.055811
0.209938 0.414490 0.054682
0.232821 0.426964 0.053421
0.261492 0.442216 0.039172
0.332939 0.481867 0.040777
0.462661 0.519129 0.054600
0.580471 0.561933 0.071177
0.658074 0.573807 0.077541
0.748842 0.595970 0.081884
0.823351 0.607360 0.081403
0.891158 0.617924 0.073108
0.928580 0.622360 0.069703
0.957390 0.619063 0.064733
0.977059 0.617123 0.065545
0.986683 0.601825 0.058476
0.201063 0.445919 0.060805
0.209251 0.436209 0.057936
0.227154 0.448174 0.059774
0.242149 0.463522 0.063428
0.273270 0.476952 0.041915
0.327494 0.514134 0.043395
0.477600 0.560099 0.057775
0.599527 0.602834 0.076238
0.684866 0.623749 0.084980
0.769260 0.643070 0.090477
0.840075 0.656324 0.091950
0.903331 0.660751 0.092038
0.938894 0.658507 0.083949
0.966746 0.661242 0.082480
0.983609 0.652435 0.075908
0.991433 0.643767 0.071952
0.212805 0.478360 0.064965
0.219926 0.466007 0.061672
0.237285 0.478292 0.060926
0.253477 0.490530 0.066105
0.285622 0.510104 0.045790
0.336502 0.549192 0.041533
0.492062 0.596296 0.061446
0.619355 0.643831 0.081296
0.705115 0.666829 0.090547
0.789036 0.686077 0.097824
0.861941 0.696975 0.099108
0.910638 0.699138 0.099381
0.944408 0.694302 0.097994
0.972264 0.698513 0.093696
0.985033 0.689225 0.088604
0.989266 0.689183 0.089372
0.216838 0.494163 0.065800
0.224978 0.483487 0.062817
0.241809 0.497133 0.064479
0.257387 0.509587 0.069150
0.285886 0.529529 0.052777
0.338839 0.568675 0.041331
0.504946 0.622763 0.064467
0.634846 0.670046 0.084182
0.726550 0.700010 0.095398
0.801961 0.712724 0.100744
0.876394 0.724025 0.105175
0.925651 0.724593 0.100134
0.955591 0.721613 0.099215
0.978848 0.722499 0.104709
0.987320 0.713238 0.096348
0.990605 0.717428 0.099789
0.209100 0.496142 0.051943
0.221270 0.504483 0.053810
0.233136 0.528609 0.060264
0.233175 0.545773 0.066765
0.262440 0.576819 0.049658
0.364622 0.636837 0.052998
0.543640 0.694360 0.076009
0.672775 0.744684 0.095203
0.765198 0.771239 0.104316
0.844069 0.790318 0.110449
0.907868 0.799524 0.112161
0.947902 0.804847 0.115494
0.973773 0.807510 0.115573
0.991445 0.809382 0.113577
0.991436 0.807029 0.115111
0.993243 0.810157 0.116615
-0.091743 -0.221699 0.065521
-0.057828 -0.226083 0.060712
0.182744 -0.231076 0.073551
0.307190 -0.240554 0.063237
0.394595 -0.256870 0.057160
0.494377 -0.280428 0.051641
0.571688 -0.305077 0.045506
0.635912 -0.325470 0.036045
0.693828 -0.339281 0.022293
0.759491 -0.348073 -0.019393
0.800250 -0.353148 -0.023630
0.843542 -0.356081 -0.043145
0.889794 -0.357004 -0.044932
0.932438 -0.349169 -0.036512
0.965756 -0.342183 -0.031965
0.991078 -0.333381 0.025768
0.031310 0.049227 0.059983
0.068118 0.059654 0.066343
0.158322 0.064165 0.065119
0.245179 0.073655 0.057745
0.318735 0.079558 0.056514
0.423609 0.086951 0.053397
0.514284 0.084485 0.050255
0.590303 0.078112 0.046575
0.668454 0.058329 0.042018
0.732365 0.045886 0.037752
0.785414 0.054229 0.034269
0.825451 0.068604 0.030384
0.864503 0.076764 0.024497
0.892834 0.084772 0.023457
0.917848 0.096790 0.020596
0.898390 0.067053 0.017485
0.045729 0.072868 0.057355
0.030325 0.073207 0.060990
0.108896 0.097124 0.070455
0.219509 0.105038 0.061934
0.300209 0.112936 0.059053
0.393788 0.120963 0.054295
0.488634 0.122739 0.050769
0.580588 0.121151 0.046507
0.656018 0.120501 0.041983
0.725995 0.122985 0.037027
0.781548 0.111183 0.034128
0.825612 0.099908 0.030122
0.860491 0.092604 0.029984
0.891447 0.090911 0.022184
0.912932 0.099005 0.024414
0.900880 0.061122 0.025422
0.063245 0.108777 0.067407
0.070109 0.108544 0.067509
0.093982 0.124612 0.067674
0.181577 0.139853 0.069313
0.271844 0.150838 0.062275
0.378059 0.159969 0.056342
0.468287 0.162820 0.050870
0.563059 0.163656 0.046114
0.647643 0.166591 0.040824
0.722306 0.171548 0.035385
0.789868 0.173442 0.030570
0.846897 0.172980 0.025043
0.882164 0.171575 0.022818
0.914477 0.170625 0.023632
0.934830 0.161819 0.019708
0.935472 0.185341 0.018440
0.072247 0.139863 0.070878
0.087134 0.141431 0.069165
0.094559 0.146023 0.066391
0.177351 0.168080 0.068843
0.245440 0.176218 0.066241
0.351417 0.193586 0.055572
0.446977 0.202607 0.050553
0.547038 0.207403 0.045277
0.633236 0.210639 0.039848
0.714502 0.214985 0.034131
0.792920 0.220048 0.023482
0.847609 0.222083 0.023712
0.886907 0.220799 0.023010
0.920184 0.224419 0.018431
0.944606 0.227075 0.017425
0.942619 0.252973 0.017303
0.088316 0.178259 0.071180
0.104513 0.179578 0.071952
0.113787 0.181445 0.067735
0.164930 0.204266 0.066920
0.243104 0.217073 0.067926
0.327274 0.230726 0.060233
0.425460 0.243409 0.050427
0.529215 0.258323 0.043932
0.619387 0.266347 0.038151
0.713369 0.273192 0.031454
0.789567 0.276160 0.025310
0.844982 0.279722 0.024876
0.888817 0.283689 0.004593
0.924237 0.289431 0.020127
0.945600 0.293963 0.018205
0.947228 0.307996 0.018565
0.104302 0.221587 0.075265
0.120007 0.221420 0.077455
0.129457 0.221234 0.074848
0.163001 0.241518 0.064008
0.235405 0.253057 0.060364
0.325505 0.270585 0.060196
0.417252 0.286224 0.055248
0.513134 0.300870 0.043773
0.610119 0.315879 0.036436
0.710447 0.329008 0.030027
0.790504 0.336971 0.024948
0.851938 0.343118 0.015080
0.897243 0.346232 0.020705
0.925891 0.351196 0.019420
0.947262 0.355033 0.021646
0.954726 0.368971 0.022501
0.118778 0.264222 0.076596
0.133801 0.262362 0.074889
0.144258 0.266729 0.072831
0.173845 0.278212 0.061917
0.232805 0.291777 0.054571
0.336148 0.316514 0.056718
0.421577 0.330177 0.057858
0.517681 0.352452 0.052737
0.609098 0.368102 0.037869
0.712672 0.382961 0.028171
0.798963 0.398039 0.021386
0.858822 0.401694 0.017291
0.904971 0.404138 0.025315
0.934893 0.411050 0.024950
0.953926 0.414013 0.026954
0.963677 0.428663 0.028434
0.136495 0.307342 0.080168
0.150624 0.304888 0.078235
0.165362 0.310602 0.075026
0.181293 0.314269 0.060006
0.225960 0.326882 0.050601
0.341473 0.358117 0.054294
0.434294 0.382798 0.058619
0.527813 0.404549 0.060549
0.621988 0.422167 0.053507
0.724263 0.440983 0.038779
0.805001 0.451942 0.039358
0.871011 0.460108 0.030624
0.906081 0.466802 0.033080
0.937150 0.468783 0.034696
0.956794 0.469852 0.032975
0.969243 0.478363 0.033903
0.149816 0.348065 0.083083
0.163035 0.344749 0.081913
0.178733 0.352450 0.074615
0.197052 0.355403 0.057095
0.229023 0.365241 0.047176
0.345491 0.403138 0.051638
0.456745 0.438166 0.060581
0.544266 0.453775 0.065243
0.637075 0.476121 0.067075
0.739288 0.496281 0.057593
0.820450 0.509582 0.048451
0.882694 0.514690 0.044523
0.918665 0.521741 0.043527
0.948865 0.522116 0.037566
0.966116 0.523486 0.041879
0.979433 0.530370 0.043441
0.164494 0.386650 0.088053
0.176656 0.381563 0.083442
0.193185 0.383752 0.069256
0.209822 0.386757 0.056538
0.238592 0.400554 0.043089
0.344538 0.442449 0.050637
0.473180 0.484155 0.062235
0.568881 0.510360 0.071966
0.660471 0.533858 0.078465
0.758427 0.553080 0.077931
0.836499 0.568498 0.068356
0.900073 0.577020 0.062420
0.934679 0.579459 0.059810
0.958593 0.580047 0.055239
0.975859 0.578528 0.056609
0.988198 0.583581 0.057619
0.178485 0.421784 0.090253
0.190525 0.412639 0.081008
0.205933 0.415618 0.061160
0.222722 0.425488 0.065046
0.254746 0.442873 0.047061
0.340043 0.485855 0.047211
0.484650 0.530165 0.064563
0.596210 0.568472 0.079708
0.685746 0.586609 0.086640
0.782522 0.608524 0.089806
0.853692 0.621772 0.088776
0.909763 0.625289 0.080613
0.944193 0.627138 0.075987
0.967817 0.624940 0.076621
0.984419 0.619733 0.069393
0.991138 0.623751 0.070955
0.189132 0.449425 0.089763
0.201283 0.436194 0.075259
0.219883 0.443874 0.065169
0.237122 0.460890 0.068971
0.270446 0.478716 0.051660
0.335900 0.520100 0.045857
0.499977 0.569277 0.067291
0.616247 0.611464 0.084976
0.705937 0.629131 0.093018
0.799139 0.652687 0.098171
0.866203 0.662423 0.098463
0.921508 0.667036 0.096738
0.951703 0.664741 0.089849
0.974549 0.667873 0.087153
0.987097 0.655959 0.081167
0.989814 0.661648 0.085172
0.198870 0.477082 0.088116
0.212430 0.458743 0.067692
0.229155 0.473020 0.071418
0.246793 0.489178 0.072847
0.279186 0.506860 0.055906
0.339692 0.551590 0.046782
0.511334 0.603957 0.070356
0.632053 0.648329 0.089315
0.732398 0.677319 0.100417
0.818010 0.693386 0.105248
0.884122 0.701750 0.102993
0.928058 0.699535 0.105008
0.958134 0.698248 0.098419
0.980786 0.702759 0.098856
0.987275 0.699896 0.098037
0.990564 0.704042 0.101384
0.203733 0.490056 0.083393
0.217310 0.475061 0.066430
0.235574 0.492781 0.070081
0.252556 0.510872 0.078359
0.277372 0.525005 0.060518
0.334611 0.567516 0.047786
0.521631 0.630350 0.072743
0.646764 0.674445 0.091446
0.747079 0.703308 0.102315
0.831585 0.718773 0.108062
0.895113 0.726342 0.109955
0.938919 0.727099 0.109593
0.968311 0.729224 0.106637
0.982949 0.728569 0.111862
0.987598 0.729275 0.110141
0.991654 0.732064 0.112142
0.193819 0.507076 0.090190
0.211534 0.512560 0.075910
0.231244 0.524396 0.052539
0.234497 0.549908 0.062752
0.255436 0.575214 0.042144
0.345276 0.634836 0.039514
0.547702 0.706035 0.076805
0.678324 0.759866 0.100030
0.776441 0.790544 0.111103
0.861247 0.812174 0.119248
0.925022 0.821790 0.119757
0.960358 0.818717 0.119206
0.982055 0.823943 0.122381
0.992179 0.824234 0.122913
0.992669 0.826815 0.124826
0.994555 0.827169 0.124898
-0.076883 -0.224268 0.117811
0.041400 -0.227076 0.112875
0.153943 -0.231537 0.117621
0.275548 -0.240451 0.126271
0.373304 -0.256042 0.119216
0.486975 -0.280416 0.103226
0.578230 -0.308241 0.088117
0.639547 -0.331052 0.075257
0.696096 -0.346517 0.062863
0.756490 -0.356210 0.052693
0.801894 -0.360904 0.047563
0.846421 -0.362154 0.049261
0.887246 -0.363799 0.051051
0.926188 -0.363761 0.052547
0.970928 -0.360202 0.041983
0.993492 -0.346543 0.074322
0.049352 0.061615 0.102060
0.069952 0.066919 0.106422
0.133904 0.078507 0.107241
0.234151 0.071302 0.108726
0.319970 0.052503 0.088242
0.419409 0.048359 0.076381
0.508351 0.031011 0.068284
0.592040 -0.012730 0.063645
0.666390 -0.029999 0.065044
0.728450 -0.028522 0.060059
0.782287 -0.016411 0.054596
0.824151 0.021308 0.052385
0.856340 0.022808 0.048768
0.886791 0.019075 0.043574
0.909801 -0.022514 0.033403
0.876923 -0.044934 0.052125
0.055872 0.084770 0.093650
0.062163 0.086281 0.096925
0.083093 0.097661 0.103484
0.210225 0.122076 0.114674
0.297561 0.116478 0.100739
0.397948 0.121910 0.085092
0.488239 0.126082 0.071916
0.581619 0.127158 0.060195
0.658231 0.123025 0.053090
0.726404 0.112974 0.045410
0.780421 0.062868 0.041806
0.824934 -0.021629 0.037690
0.855633 -0.027258 0.033162
0.882537 -0.029685 0.030936
0.905807 0.054987 0.029296
0.888218 -0.076486 0.031325
0.065828 0.114695 0.096877
0.078347 0.114140 0.097057
0.061644 0.119202 0.096803
0.179701 0.152298 0.109198
0.314270 0.162574 0.077332
0.390157 0.168962 0.087471
0.484534 0.171261 0.073152
0.576876 0.174153 0.057231
0.657824 0.175669 0.049164
0.736476 0.176801 0.040609
0.799599 0.175446 0.035108
0.847716 0.170566 0.030705
0.888240 0.163865 0.029457
0.914657 0.162768 0.027085
0.933437 0.159048 0.022697
0.934830 0.174732 0.021947
0.075356 0.146398 0.100589
0.092495 0.149382 0.102051
0.097684 0.149919 0.100806
0.161807 0.177043 0.108215
0.291266 0.193412 0.067076
0.375772 0.206324 0.088738
0.479687 0.213464 0.076038
0.574209 0.216430 0.056808
0.659872 0.216093 0.045406
0.740355 0.216411 0.037078
0.811916 0.213071 0.032233
0.864847 0.213048 0.022218
0.899312 0.212649 0.020636
0.929279 0.216008 0.017713
0.948259 0.222373 0.019113
0.954967 0.242085 0.020073
0.089621 0.185820 0.103196
0.107106 0.186827 0.103986
0.116345 0.186699 0.104730
0.139013 0.205453 0.101338
0.282439 0.235434 0.070207
0.346868 0.246887 0.094879
0.459970 0.262708 0.073212
0.561820 0.269637 0.059194
0.647969 0.272904 0.044213
0.737455 0.272551 0.033873
0.807882 0.274718 0.022299
0.860920 0.276983 0.021960
0.904023 0.277389 0.026679
0.931253 0.287575 0.022894
0.945599 0.297217 0.019925
0.958776 0.313957 0.022411
0.106277 0.229981 0.106906
0.122741 0.229399 0.108799
0.131636 0.230284 0.107044
0.140668 0.240644 0.095293
0.251996 0.272510 0.082774
0.342218 0.287491 0.093327
0.439361 0.301741 0.076072
0.543379 0.315221 0.054281
0.633969 0.322610 0.042136
0.734191 0.329036 0.033536
0.807344 0.335644 0.028862
0.864011 0.342460 0.026502
0.905005 0.349770 0.023275
0.930739 0.354343 0.025996
0.949716 0.359448 0.023624
0.960821 0.378211 0.026082
0.117563 0.271823 0.107505
0.132544 0.271101 0.110189
0.144363 0.278927 0.108967
0.154207 0.279072 0.095795
0.220715 0.310539 0.089128
0.341377 0.331565 0.084040
0.433159 0.344809 0.079356
0.534455 0.358584 0.061544
0.626202 0.370287 0.042287
0.731094 0.385776 0.032574
0.809601 0.398815 0.027444
0.866545 0.404657 0.028150
0.912713 0.411030 0.034264
0.936510 0.417989 0.034277
0.954966 0.422576 0.030297
0.968333 0.437471 0.032850
0.131659 0.314876 0.111952
0.145873 0.312426 0.113469
0.161481 0.321470 0.114212
0.175003 0.326387 0.105815
0.210517 0.340081 0.084464
0.339191 0.371446 0.074124
0.443244 0.393642 0.076405
0.540328 0.409932 0.072977
0.634201 0.427222 0.060688
0.737633 0.446333 0.044345
0.812586 0.457430 0.034866
0.876019 0.463590 0.038534
0.912398 0.472240 0.040496
0.941059 0.473110 0.035585
0.958078 0.477734 0.036622
0.972765 0.485315 0.038108
0.146541 0.355219 0.117534
0.161763 0.355515 0.119751
0.179473 0.359664 0.121109
0.190108 0.372667 0.112197
0.216459 0.380302 0.079850
0.332009 0.414036 0.063208
0.459789 0.445689 0.073482
0.550454 0.458733 0.075610
0.648087 0.482627 0.075715
0.750955 0.503236 0.063583
0.831635 0.515763 0.056376
0.891652 0.524627 0.048361
0.926012 0.530251 0.046642
0.953490 0.531100 0.043718
0.969152 0.533260 0.047981
0.982329 0.539343 0.049577
0.162085 0.393510 0.121464
0.175521 0.390265 0.123036
0.190655 0.401400 0.121483
0.201696 0.409062 0.118885
0.231183 0.415172 0.080302
0.327681 0.445047 0.056011
0.470025 0.488450 0.072281
0.573205 0.515640 0.080321
0.669848 0.541256 0.086371
0.768957 0.561087 0.085654
0.846906 0.575770 0.076010
0.907193 0.584761 0.069457
0.937410 0.587260 0.067524
0.962894 0.586714 0.064503
0.979163 0.587638 0.063989
0.989010 0.588552 0.063611
0.168770 0.430254 0.128765
0.181379 0.423919 0.127278
0.199145 0.432757 0.125953
0.215810 0.446806 0.121350
0.246955 0.449456 0.077101
0.319370 0.485740 0.049354
0.481766 0.534462 0.071748
0.598661 0.572864 0.087525
0.694906 0.593941 0.094868
0.790740 0.616121 0.097495
0.858985 0.624139 0.093468
0.917902 0.631545 0.085869
0.947799 0.634333 0.083968
0.973498 0.632452 0.080183
0.986947 0.627190 0.076532
0.992085 0.633398 0.079486
0.178478 0.458598 0.131442
0.189252 0.451192 0.130331
0.209985 0.465594 0.127010
0.226917 0.479683 0.120050
0.260201 0.486085 0.081375
0.316043 0.519261 0.046725
0.492490 0.571533 0.073028
0.617257 0.615541 0.092365
0.714198 0.637039 0.100496
0.807060 0.659872 0.105313
0.874040 0.668718 0.106305
0.924126 0.670900 0.100958
0.954147 0.669760 0.099352
0.976785 0.677279 0.095044
0.986323 0.669029 0.092465
0.989489 0.676277 0.096759
0.188407 0.487585 0.134945
0.199195 0.479578 0.133398
0.221036 0.496915 0.128949
0.237211 0.505569 0.116115
0.261601 0.509889 0.091480
0.315466 0.542660 0.042350
0.504040 0.606864 0.075363
0.635652 0.653634 0.095977
0.737886 0.681661 0.106812
0.825465 0.699946 0.111710
0.890543 0.705360 0.110545
0.933193 0.705564 0.111031
0.962674 0.710681 0.110492
0.983455 0.713811 0.113191
0.987890 0.710805 0.109254
0.991432 0.714386 0.112719
0.190953 0.501936 0.133403
0.201232 0.495916 0.133313
0.223858 0.510654 0.124447
0.249154 0.522802 0.101637
0.261243 0.528121 0.093183
0.312124 0.558523 0.035276
0.507116 0.628422 0.075013
0.645584 0.678503 0.097060
0.749497 0.709480 0.108442
0.835681 0.728158 0.115432
0.899320 0.736901 0.118543
0.941112 0.736382 0.115155
0.969274 0.740434 0.118181
0.985747 0.739718 0.118921
0.988857 0.741903 0.119789
0.992357 0.743235 0.121054
0.182165 0.528381 0.156318
0.194813 0.538436 0.163949
0.213335 0.562405 0.163286
0.224506 0.588745 0.155324
0.233380 0.609416 0.131879
0.298361 0.638489 -0.044576
0.512956 0.716081 0.060247
0.666765 0.772334 0.093830
0.773682 0.808361 0.112220
0.859531 0.825260 0.120406
0.921748 0.833882 0.123831
0.962686 0.831972 0.121690
0.982440 0.835036 0.122683
0.994855 0.836862 0.128678
0.994660 0.838099 0.126861
0.996699 0.839838 0.128608
-0.050198 -0.233391 0.166102
0.087049 -0.238031 0.163360
0.169416 -0.246223 0.161524
0.264509 -0.256055 0.169949
0.349127 -0.267013 0.175021
0.461007 -0.285635 0.175971
0.550983 -0.312001 0.166323
0.625942 -0.336377 0.152070
0.698714 -0.352838 0.135890
0.760409 -0.362260 0.121941
0.804289 -0.366248 0.113568
0.849914 -0.368025 0.111889
0.890565 -0.368938 0.117763
0.926707 -0.369395 0.122007
0.962509 -0.368167 0.115402
0.991174 -0.363314 0.107615
0.067453 0.073574 0.147231
0.078002 0.073929 0.148837
0.131869 0.084888 0.153535
0.222457 0.086702 0.156474
0.304305 0.083076 0.158471
0.414145 0.064760 0.148450
0.505787 0.049000 0.130924
0.589765 0.040768 0.123609
0.662414 0.035760 0.120993
0.730558 0.033840 0.119189
0.777369 0.032620 0.112196
0.819729 0.034693 0.106020
0.855052 0.029458 0.102981
0.883126 0.029850 0.103071
0.900165 0.020619 0.105424
0.865971 -0.015670 0.135883
0.069373 0.100097 0.140766
0.081488 0.099902 0.137981
0.075266 0.102853 0.142035
0.197216 0.128416 0.155267
0.279334 0.135101 0.161800
0.389420 0.110916 0.135585
0.492697 0.091223 0.113803
0.582752 0.074023 0.097075
0.659929 0.056031 0.082637
0.726560 -0.031692 0.074316
0.782813 -0.063435 0.083502
0.823854 -0.067952 0.093295
0.853860 -0.068008 0.098278
0.878599 -0.069859 0.107092
0.897537 -0.070545 0.115072
0.878755 -0.074242 0.152006
0.076328 0.131912 0.137880
0.092112 0.131379 0.137335
0.087523 0.132043 0.137935
0.165257 0.157759 0.150552
0.268565 0.172188 0.157445
0.379350 0.173482 0.143779
0.476387 0.182970 0.132384
0.571801 0.188250 0.121127
0.658900 0.187680 0.107487
0.737504 0.185486 0.095639
0.804240 0.179524 0.085494
0.853711 0.172526 0.075061
0.889778 0.162022 0.064958
0.916362 0.160019 0.065430
0.935633 0.148493 0.062173
0.942756 0.167902 0.078739
0.081631 0.157362 0.135104
0.098081 0.159619 0.137862
0.105303 0.158249 0.135970
0.122223 0.173369 0.141388
0.248934 0.209525 0.155401
0.412558 0.226478 0.107644
0.474215 0.228662 0.136403
0.577459 0.230685 0.118324
0.666013 0.230583 0.100767
0.752031 0.231956 0.086542
0.821108 0.230029 0.073435
0.870995 0.226941 0.064721
0.911385 0.227173 0.059548
0.937753 0.226983 0.052792
0.954651 0.230042 0.055825
0.968314 0.247111 0.068616
0.092972 0.194609 0.140070
0.111664 0.196326 0.141952
0.125012 0.201323 0.142874
0.128678 0.203973 0.138296
0.224387 0.244170 0.153194
0.403951 0.265611 0.070745
0.473818 0.278190 0.136952
0.578148 0.282637 0.120595
0.672585 0.283013 0.099433
0.763396 0.282995 0.079944
0.834175 0.283243 0.062285
0.887372 0.280725 0.052193
0.926437 0.277823 0.041211
0.954378 0.275879 0.038809
0.970652 0.283252 0.037786
0.984634 0.301057 0.052393
0.109409 0.237857 0.144177
0.125662 0.238030 0.147014
0.136036 0.243147 0.148093
0.149714 0.244572 0.145841
0.195934 0.271655 0.140543
0.395565 0.306703 0.074969
0.455425 0.320966 0.133785
0.567511 0.334638 0.117904
0.668452 0.341176 0.104219
0.768881 0.339515 0.079153
0.840010 0.340093 0.058522
0.896046 0.335032 0.047037
0.934950 0.332038 0.040527
0.959675 0.332437 0.035842
0.974503 0.344042 0.040736
0.988336 0.356581 0.047488
0.121339 0.280734 0.146335
0.136286 0.280608 0.149703
0.151957 0.285564 0.152401
0.163490 0.293268 0.151011
0.182028 0.304733 0.129682
