config/Pocket 3/DJI OSMO Pocket 3 Autumn Pro.cube
LUT_3D_SIZE 6
-0.040275 0.020953 0.022001
0.305134 0.057907 0.054008
0.564859 0.051033 0.048208
0.766582 0.045786 0.035514
0.903139 0.071449 0.027214
0.989569 0.146158 0.027164
0.065423 0.102971 0.049105
0.164192 0.125078 0.053496
0.444195 0.156268 0.051234
0.710133 0.168231 0.035091
0.880051 0.172182 0.020263
0.935879 0.156192 0.015716
0.112585 0.215974 0.057748
0.159640 0.224113 0.054325
0.391464 0.274722 0.052111
0.685863 0.319838 0.030035
0.883887 0.339886 0.022729
0.952141 0.353066 0.019656
0.160999 0.343232 0.057338
0.200613 0.346340 0.048807
0.433636 0.422518 0.052465
0.703960 0.478209 0.052357
0.901104 0.505192 0.030443
0.970326 0.509947 0.035459
0.201063 0.445919 0.060805
0.242149 0.463522 0.063428
0.477600 0.560099 0.057775
0.769260 0.643070 0.090477
0.938894 0.658507 0.083949
0.991433 0.643767 0.071952
0.209100 0.496142 0.051943
0.233175 0.545773 0.066765
0.543640 0.694360 0.076009
0.844069 0.790318 0.110449
0.973773 0.807510 0.115573
0.993243 0.810157 0.116615
-0.050198 -0.233391 0.166102
0.264509 -0.256055 0.169949
0.550983 -0.312001 0.166323
0.760409 -0.362260 0.121941
0.890565 -0.368938 0.117763
0.991174 -0.363314 0.107615
0.076328 0.131912 0.137880
0.165257 0.157759 0.150552
0.476387 0.182970 0.132384
0.737504 0.185486 0.095639
0.889778 0.162022 0.064958
0.942756 0.167902 0.078739
0.109409 0.237857 0.144177
0.149714 0.244572 0.145841
0.455425 0.320966 0.133785
0.768881 0.339515 0.079153
0.934950 0.332038 0.040527
0.988336 0.356581 0.047488
0.147079 0.363437 0.157836
0.196534 0.387668 0.167392
0.459055 0.464343 0.120694
0.771196 0.501400 0.072888
0.940016 0.534478 0.059198
0.990568 0.551611 0.061293
0.176170 0.465641 0.174696
0.228066 0.494654 0.182288
0.459458 0.581373 0.092028
0.813829 0.668442 0.119236
0.956585 0.679471 0.109141
0.994591 0.690222 0.111897
0.185312 0.540054 0.211037
0.235599 0.615560 0.230335
0.426325 0.738728 0.104355
0.866584 0.847979 0.144015
0.989493 0.850838 0.135599
1.002258 0.858682 0.149652
0.066324 -0.240387 0.311671
0.280203 -0.282934 0.314633
0.520225 -0.333951 0.325624
0.696572 -0.396756 0.327187
0.832938 -0.402821 0.315484
0.977079 -0.399356 0.274299
0.108648 0.187411 0.270031
0.140635 0.182359 0.270416
0.430145 0.222166 0.310490
0.721259 0.186161 0.294581
0.896141 0.124371 0.252311
0.957128 0.137145 0.264162
0.126707 0.285297 0.267861
0.171254 0.303644 0.284741
0.409710 0.369344 0.321983
0.732422 0.396435 0.302394
0.942373 0.409677 0.282748
0.994947 0.437623 0.299120
0.156300 0.390775 0.274011
0.209648 0.424883 0.295489
0.328433 0.478427 0.297350
0.791152 0.580769 0.312721
0.994892 0.572457 0.265301
1.021846 0.603644 0.335246
0.185199 0.487948 0.290601
0.245101 0.528748 0.315150
0.329526 0.596016 0.301973
0.808170 0.737320 0.310785
0.997279 0.748525 0.276601
1.022566 0.742829 0.347776
0.195376 0.568293 0.317730
0.262783 0.666648 0.356907
0.326461 0.764340 0.359799
0.827143 0.926538 0.357942
1.019754 0.931828 0.339468
1.041391 0.944148 0.476244
0.106558 -0.231320 0.454864
0.323046 -0.297477 0.469584
0.529804 -0.341333 0.480958
0.685152 -0.411413 0.478566
0.781222 -0.430804 0.475690
0.878920 -0.430101 0.452317
0.136141 0.238086 0.390375
0.182566 0.240170 0.392759
0.391814 0.251020 0.446257
0.661476 0.263052 0.455286
0.858127 0.231473 0.443585
0.937216 0.236737 0.447623
0.150916 0.327113 0.384474
0.200741 0.349794 0.401136
0.271253 0.365466 0.435319
0.693271 0.453008 0.492546
0.927391 0.423918 0.444996
0.990891 0.441461 0.440117
0.170746 0.425165 0.388751
0.224859 0.458651 0.412349
0.301833 0.525231 0.455432
0.747671 0.652481 0.520497
0.987739 0.663175 0.481412
1.023152 0.689152 0.516481
0.193392 0.508825 0.393996
0.250391 0.552902 0.423147
0.315933 0.623880 0.456765
0.746151 0.800466 0.514397
0.999426 0.824066 0.504041
1.036586 0.815524 0.533460
0.203575 0.591863 0.403035
0.271163 0.708132 0.457876
0.306601 0.785724 0.485067
0.732381 0.947072 0.530981
1.020993 1.005385 0.561786
1.074651 1.014841 0.655529
0.121586 -0.254686 0.579352
0.374830 -0.312277 0.601874
0.563920 -0.349545 0.609976
0.700303 -0.411894 0.611384
0.780303 -0.455865 0.605757
0.661276 -0.458610 0.359523
0.160769 0.276248 0.492593
0.205460 0.284240 0.483368
0.277565 0.264421 0.528125
0.614140 0.296473 0.561427
0.817739 0.293096 0.568111
0.907444 0.313700 0.574867
0.170711 0.358318 0.483149
0.218118 0.384448 0.493706
0.271295 0.415073 0.520583
0.654662 0.485893 0.619710
0.889496 0.513662 0.627209
0.980114 0.526360 0.635116
0.192271 0.452156 0.491010
0.240940 0.486324 0.507238
0.298589 0.537143 0.539416
0.672310 0.672425 0.658508
0.966529 0.718362 0.673757
1.007017 0.716966 0.649357
0.208581 0.531457 0.497621
0.266879 0.583948 0.527852
0.330280 0.648573 0.561865
0.606564 0.800129 0.647071
0.992603 0.898829 0.700492
1.041436 0.895007 0.707952
0.223379 0.624277 0.487000
0.284733 0.737629 0.553529
0.297989 0.805922 0.584945
0.518140 0.930733 0.638179
0.998010 1.052119 0.731980
1.083679 1.055955 0.771381
0.155290 -0.174467 0.652132
0.397291 -0.332105 0.691790
0.604871 -0.363422 0.693527
0.717346 -0.409159 0.670861
0.587716 -0.462386 0.454246
0.676069 -0.472878 0.462098
0.169990 0.299203 0.538495
0.208243 0.318848 0.519938
0.249011 0.348974 0.552299
0.569916 0.342663 0.660012
0.790796 0.335875 0.681022
0.914154 0.362929 0.695616
0.182839 0.376087 0.534981
0.233132 0.417487 0.563509
0.279791 0.453594 0.598157
0.585403 0.507993 0.716245
0.850570 0.529335 0.737629
0.970848 0.552698 0.748981
0.198094 0.454089 0.547155
0.258621 0.516238 0.598156
0.311671 0.567985 0.634996
0.492362 0.635457 0.726850
0.910870 0.747633 0.781519
0.999943 0.781222 0.789031
0.216225 0.531927 0.569068
0.286374 0.610913 0.624771
0.340798 0.671616 0.657791
0.477997 0.767916 0.727294
0.954413 0.918954 0.804389
1.037683 0.936001 0.814164
0.231870 0.600654 0.586586
0.304754 0.698423 0.647605
0.367100 0.757994 0.674115
0.532691 0.860079 0.740432
0.838329 0.948955 0.795532
1.043473 0.999912 0.830581
