test_isolated/config/Mavic 4 Pro/Normalization/DJI Mavic 4 Pro D-Log to Rec.709 vivid V1.cube
# DaVinci Resolve Cube (3D LUT).
#
#Generated by LUT Editor.
#Not-Clipped.
#
LUT_3D_SIZE	33
0.0000000000 0.0000000000 0.0000000000
0.0085628105 0.0070243160 0.0070790369
0.0103384513 0.0069935180 0.0071124003
0.0127142761 0.0069523099 0.0071570410
0.0171954472 0.0068745852 0.0072412401
0.0325211319 0.0066565661 0.0074774201
0.0589114801 0.0063004270 0.0078632252
0.1047594758 0.0056122209 0.0089168070
0.1640144566 0.0046380924 0.0101790268
0.2256942607 0.0038166732 0.0112364868
0.2932565116 0.0026834058 0.0124157226
0.3741996098 0.0012812734 0.0139546301
0.4648941176 0.0000000000 0.0158763568
0.5565659726 0.0000000000 0.0180281230
0.6475675506 0.0000000000 0.0206875597
0.7367170194 0.0000000000 0.0246263499
0.8138246646 0.0000000000 0.0286147489
0.8776717727 0.0000000000 0.0341777740
0.9244861453 0.0000000000 0.0419019307
0.9585973514 0.0000000000 0.0518692210
0.9831437678 0.0000000000 0.0639487797
0.9991242853 0.0000000000 0.0792735393
1.0000000000 0.0000000000 0.0932683185
1.0000000000 0.0000000000 0.0940578557
1.0000000000 0.0000000000 0.0953707256
1.0000000000 0.0000000000 0.0967861891
1.0000000000 0.0000000000 0.0980956793
1.0000000000 0.0000000000 0.0991511171
1.0000000000 0.0000000000 0.0999142021
1.0000000000 0.0000000000 0.1004033976
1.0000000000 0.0000000000 0.1007517897
1.0000000000 0.0000000000 0.1011591887
1.0000000000 0.0000000000 0.1013428557
0.0066363519 0.0083275831 0.0069471514
0.0081306667 0.0082340752 0.0069454701
0.0098961475 0.0082017810 0.0069717693
0.0122591126 0.0081609837 0.0070069579
0.0167160285 0.0080840336 0.0070733291
0.0318462035 0.0078681874 0.0072595014
0.0581496287 0.0075153383 0.0075695912
0.1036798733 0.0067988854 0.0085364772
0.1631186287 0.0057711510 0.0098604547
0.2248369387 0.0049487927 0.0109209807
0.2925648133 0.0037747854 0.0121405885
0.3736308022 0.0023398891 0.0136924146
0.4644911440 0.0005860116 0.0156769027
0.5563411233 0.0000000000 0.0178816898
0.6474004835 0.0000000000 0.0205455447
0.7365971003 0.0000000000 0.0244481925
0.8137569330 0.0000000000 0.0284514689
0.8776362650 0.0000000000 0.0340272853
0.9244692660 0.0000000000 0.0417627875
0.9585919397 0.0000000000 0.0517312102
0.9831355667 0.0000000000 0.0638281119
0.9991206294 0.0000000000 0.0791616349
1.0000000000 0.0000000000 0.0931561679
1.0000000000 0.0000000000 0.0939457051
1.0000000000 0.0000000000 0.0952657788
1.0000000000 0.0000000000 0.0966812423
1.0000000000 0.0000000000 0.0979907324
1.0000000000 0.0000000000 0.0990461702
1.0000000000 0.0000000000 0.0998092552
1.0000000000 0.0000000000 0.1002984508
1.0000000000 0.0000000000 0.1006468429
1.0000000000 0.0000000000 0.1010542418
1.0000000000 0.0000000000 0.1012379088
0.0061499146 0.0098271124 0.0068256621
0.0076409721 0.0096809435 0.0067957073
0.0093988885 0.0096238054 0.0068220066
0.0117606595 0.0095790863 0.0068571952
0.0162175754 0.0095021362 0.0069235664
0.0311980680 0.0092862900 0.0071097387
0.0575122585 0.0089337005 0.0074138552
0.1025547034 0.0081941821 0.0081822324
0.1619615535 0.0071850053 0.0093858258
0.2238302514 0.0062781537 0.0105505062
0.2917526052 0.0050563086 0.0118175197
0.3729628952 0.0035829401 0.0133845152
0.4639198855 0.0018018848 0.0153979382
0.5560771000 0.0000000000 0.0177097446
0.6472043094 0.0000000000 0.0203787874
0.7364562884 0.0000000000 0.0242389960
0.8136774009 0.0000000000 0.0282597418
0.8775945711 0.0000000000 0.0338505779
0.9244494459 0.0000000000 0.0415994024
0.9585855851 0.0000000000 0.0515691548
0.9831259368 0.0000000000 0.0636864210
0.9991163366 0.0000000000 0.0790302341
1.0000000000 0.0000000000 0.0930244781
1.0000000000 0.0000000000 0.0938140152
1.0000000000 0.0000000000 0.0951425477
1.0000000000 0.0000000000 0.0965580112
1.0000000000 0.0000000000 0.0978675014
1.0000000000 0.0000000000 0.0989229392
1.0000000000 0.0000000000 0.0996860242
1.0000000000 0.0000000000 0.1001752197
1.0000000000 0.0000000000 0.1005236119
1.0000000000 0.0000000000 0.1009310108
1.0000000000 0.0000000000 0.1011146778
0.0054990568 0.0118334972 0.0066631082
0.0069857561 0.0116168672 0.0065953233
0.0087436724 0.0115597291 0.0066216226
0.0110957816 0.0114832778 0.0066568112
0.0155506403 0.0113995713 0.0067231824
0.0303308564 0.0111837251 0.0069093547
0.0566703245 0.0108311356 0.0072134712
0.1014599159 0.0100665426 0.0079743595
0.1607510332 0.0090812287 0.0089695501
0.2224832939 0.0080568516 0.0100548076
0.2906658628 0.0067709992 0.0113852506
0.3720692290 0.0052461545 0.0129725428
0.4631555361 0.0034287350 0.0150246810
0.5554878580 0.0012067749 0.0173955616
0.6469418266 0.0000000000 0.0201556645
0.7362678808 0.0000000000 0.0239590890
0.8135709862 0.0000000000 0.0280032089
0.8775387843 0.0000000000 0.0336141418
0.9244229265 0.0000000000 0.0413807914
0.9585770826 0.0000000000 0.0513523231
0.9831130520 0.0000000000 0.0634968371
0.9991105927 0.0000000000 0.0788544187
1.0000000000 0.0000000000 0.0928482758
1.0000000000 0.0000000000 0.0936378129
1.0000000000 0.0000000000 0.0949709664
1.0000000000 0.0000000000 0.0963931269
1.0000000000 0.0000000000 0.0977026171
1.0000000000 0.0000000000 0.0987580549
1.0000000000 0.0000000000 0.0995211399
1.0000000000 0.0000000000 0.1000103354
1.0000000000 0.0000000000 0.1003587275
1.0000000000 0.0000000000 0.1007661265
1.0000000000 0.0000000000 0.1009497935
0.0042714388 0.0156178478 0.0063565066
0.0057543969 0.0153407333 0.0062562479
0.0075078341 0.0152111794 0.0062436675
0.0098599433 0.0151347281 0.0062788561
0.0142963832 0.0149905291 0.0063452273
0.0286951618 0.0147625798 0.0065313996
0.0550823074 0.0144099903 0.0068355161
0.0993949783 0.0135981028 0.0075822791
0.1589076936 0.0126662742 0.0085041254
0.2204933246 0.0114650133 0.0095806780
0.2886900280 0.0100401622 0.0107166211
0.3703836371 0.0083832328 0.0121954994
0.4617138555 0.0064972249 0.0143206605
0.5542432558 0.0041641244 0.0167554818
0.6461780331 0.0013770675 0.0196757242
0.7359125151 0.0000000000 0.0234311414
0.8133702717 0.0000000000 0.0275193486
0.8774335617 0.0000000000 0.0331681867
0.9243729067 0.0000000000 0.0409684576
0.9585610456 0.0000000000 0.0509433450
0.9830887492 0.0000000000 0.0631392528
0.9990997589 0.0000000000 0.0785228036
1.0000000000 0.0000000000 0.0925159311
1.0000000000 0.0000000000 0.0933054682
1.0000000000 0.0000000000 0.0946386217
1.0000000000 0.0000000000 0.0960821297
1.0000000000 0.0000000000 0.0973916199
1.0000000000 0.0000000000 0.0984470576
1.0000000000 0.0000000000 0.0992101427
1.0000000000 0.0000000000 0.0996993382
1.0000000000 0.0000000000 0.1000477303
1.0000000000 0.0000000000 0.1004551292
1.0000000000 0.0000000000 0.1006387963
0.0008279501 0.0277430962 0.0054964840
0.0023109083 0.0274579475 0.0053962253
0.0040522321 0.0271231193 0.0052784993
0.0063933965 0.0268570980 0.0052186859
0.0108298365 0.0266890905 0.0052850571
0.0241114664 0.0262053564 0.0054712294
0.0506220878 0.0257099774 0.0057753459
0.0937587524 0.0246330922 0.0064824873
0.1535652776 0.0235758019 0.0071935804
0.2150234358 0.0216114306 0.0084156157
0.2834565923 0.0196195535 0.0095410751
0.3654832365 0.0176507042 0.0109061606
0.4574440464 0.0155166332 0.0127879779
0.5506841643 0.0125899549 0.0150391534
0.6431933557 0.0095559346 0.0181442582
0.7338573731 0.0059035226 0.0217464167
0.8127152136 0.0012769623 0.0258515854
0.8771384107 0.0000000000 0.0319172756
0.9242312561 0.0000000000 0.0397921870
0.9585160616 0.0000000000 0.0497961549
0.9830190420 0.0000000000 0.0621363266
0.9990693700 0.0000000000 0.0775926179
1.0000000000 0.0000000000 0.0915836989
1.0000000000 0.0000000000 0.0923732360
1.0000000000 0.0000000000 0.0937063895
1.0000000000 0.0000000000 0.0952097775
1.0000000000 0.0000000000 0.0965192676
1.0000000000 0.0000000000 0.0975747054
1.0000000000 0.0000000000 0.0983377904
1.0000000000 0.0000000000 0.0988269859
1.0000000000 0.0000000000 0.0991753781
1.0000000000 0.0000000000 0.0995827770
1.0000000000 0.0000000000 0.0997664440
0.0000000000 0.0492730793 0.0036887677
0.0000000000 0.0492432009 0.0037130457
0.0000000000 0.0492081170 0.0037415536
0.0007571261 0.0490313636 0.0037161149
0.0051671563 0.0484393866 0.0035532458
0.0176114430 0.0479765518 0.0037394180
0.0432218882 0.0471418312 0.0040435345
0.0857617506 0.0461164350 0.0046859533
0.1448692270 0.0446870693 0.0053667532
0.2057140539 0.0421095504 0.0065124608
0.2746044113 0.0399398259 0.0076207950
0.3568877930 0.0373811465 0.0089983020
0.4495011645 0.0346574100 0.0108797565
0.5434156812 0.0310221885 0.0131499911
0.6370707172 0.0264077986 0.0161070511
0.7293119358 0.0205684353 0.0195477748
0.8108239337 0.0135723087 0.0208185127
0.8769247820 0.0071476590 0.0269442372
0.9240619996 0.0004748497 0.0375831852
0.9584425791 0.0000000000 0.0479221947
0.9829036602 0.0000000000 0.0604981264
0.9990197290 0.0000000000 0.0759796312
1.0000000000 0.0000000000 0.0900608770
1.0000000000 0.0000000000 0.0908504141
1.0000000000 0.0000000000 0.0921835676
1.0000000000 0.0000000000 0.0936961914
1.0000000000 0.0000000000 0.0950942610
1.0000000000 0.0000000000 0.0961496988
1.0000000000 0.0000000000 0.0969127838
1.0000000000 0.0000000000 0.0974019794
1.0000000000 0.0000000000 0.0977503715
1.0000000000 0.0000000000 0.0981577704
1.0000000000 0.0000000000 0.0983414374
0.0000000000 0.0816931929 0.0007482986
0.0000000000 0.0816633844 0.0007720363
0.0000000000 0.0816283826 0.0007999096
0.0000000000 0.0815815499 0.0008372044
0.0000000000 0.0814932162 0.0009075482
0.0093553506 0.0806094734 0.0009743347
0.0325507387 0.0796545350 0.0012585747
0.0735431848 0.0782298649 0.0016649912
0.1326285227 0.0764687842 0.0022653087
0.1929250900 0.0739163938 0.0032151392
0.2608779014 0.0707961141 0.0042417291
0.3435772540 0.0676642518 0.0055420823
0.4372017322 0.0648953111 0.0075875320
0.5320831346 0.0614595587 0.0101661226
0.6264181167 0.0568066954 0.0131977953
0.7198470602 0.0505306114 0.0167321329
0.8037291845 0.0420119386 0.0173798113
0.8753256695 0.0293528136 0.0185265447
0.9257923677 0.0168679289 0.0254903890
0.9591404458 0.0070059408 0.0408257655
0.9827239762 0.0000000000 0.0578432104
0.9989424231 0.0000000000 0.0734215674
1.0000000000 0.0000000000 0.0876893865
1.0000000000 0.0000000000 0.0884789236
1.0000000000 0.0000000000 0.0898120771
1.0000000000 0.0000000000 0.0913247009
1.0000000000 0.0000000000 0.0927240770
1.0000000000 0.0000000000 0.0938519621
1.0000000000 0.0000000000 0.0946674268
1.0000000000 0.0000000000 0.0951828166
1.0000000000 0.0000000000 0.0955312087
1.0000000000 0.0000000000 0.0959386076
1.0000000000 0.0000000000 0.0961222746
0.0000000000 0.1233510484 0.0000000000
0.0000000000 0.1233230998 0.0000000000
0.0000000000 0.1232902818 0.0000000000
0.0000000000 0.1232463711 0.0000000000
0.0000000000 0.1231635487 0.0000000000
0.0000000000 0.1229312305 0.0000000000
0.0183041129 0.1214598951 0.0000000000
0.0610915649 0.1185474027 0.0000000000
0.1173115701 0.1156643092 0.0000000000
0.1774603157 0.1128570127 0.0000000000
0.2449082414 0.1093160473 0.0004456174
0.3274170615 0.1053670072 0.0017563613
0.4215385196 0.1031053055 0.0035453505
0.5174568701 0.0997553542 0.0059462727
0.6131887468 0.0948205058 0.0090268581
0.7080622513 0.0883221761 0.0125205354
0.7953138272 0.0787404772 0.0118338514
0.8701627509 0.0646965944 0.0110001439
0.9235984642 0.0495258996 0.0169772330
0.9606176319 0.0313953852 0.0259239533
0.9828898600 0.0164704035 0.0441861643
0.9988352995 0.0041019653 0.0642824684
1.0000000000 0.0000000000 0.0844031887
1.0000000000 0.0000000000 0.0851927258
1.0000000000 0.0000000000 0.0865258793
1.0000000000 0.0000000000 0.0880385030
1.0000000000 0.0000000000 0.0894378792
1.0000000000 0.0000000000 0.0905657643
1.0000000000 0.0000000000 0.0913812290
1.0000000000 0.0000000000 0.0919040038
1.0000000000 0.0000000000 0.0922763103
1.0000000000 0.0000000000 0.0927116739
1.0000000000 0.0000000000 0.0929079482
0.0000000000 0.1654066466 0.0000000000
0.0000000000 0.1653817801 0.0000000000
0.0000000000 0.1653525813 0.0000000000
0.0000000000 0.1653135130 0.0000000000
0.0000000000 0.1652398243 0.0000000000
0.0000000000 0.1650331260 0.0000000000
0.0031071389 0.1644630604 0.0000000000
0.0423830563 0.1612416851 0.0000000000
0.1016564251 0.1569111216 0.0000000000
0.1606299464 0.1535861669 0.0000000000
0.2281198978 0.1496540700 0.0000000000
0.3104623360 0.1450868868 0.0000000000
0.4051091469 0.1425289604 0.0000000000
0.5017392189 0.1393793456 0.0013143210
0.5989312132 0.1343573138 0.0042187141
0.6951937587 0.1273050227 0.0077225991
0.7848243226 0.1171441908 0.0090384540
0.8625460128 0.1016573194 0.0074520078
0.9215930965 0.0816262789 0.0077561089
0.9612891540 0.0598707654 0.0131677412
0.9840724931 0.0420870376 0.0278479993
0.9987124317 0.0251632050 0.0471807196
1.0000000000 0.0130798459 0.0648266345
1.0000000000 0.0123954000 0.0657920329
1.0000000000 0.0112416001 0.0674251208
1.0000000000 0.0104251848 0.0700511925
1.0000000000 0.0096698932 0.0724806546
1.0000000000 0.0090611346 0.0744387801
1.0000000000 0.0086210001 0.0758545114
1.0000000000 0.0083388405 0.0767621028
1.0000000000 0.0081378938 0.0774084654
1.0000000000 0.0079029131 0.0781643017
1.0000000000 0.0077969771 0.0785050542
0.0000000000 0.2120115341 0.0000000000
0.0000000000 0.2119890645 0.0000000000
0.0000000000 0.2119626802 0.0000000000
0.0000000000 0.2119273777 0.0000000000
0.0000000000 0.2118607918 0.0000000000
0.0000000000 0.2116740174 0.0000000000
0.0000000000 0.2113689173 0.0000000000
0.0185085996 0.2095147624 0.0000000000
0.0795091312 0.2043539937 0.0000000000
0.1409889591 0.1997553714 0.0000000000
0.2093106322 0.1956617118 0.0000000000
0.2912649648 0.1910031199 0.0000000000
0.3856693151 0.1869593291 0.0000000000
0.4841262743 0.1837615060 0.0000000000
0.5827628151 0.1788255383 0.0000000000
0.6803506899 0.1713531836 0.0025205114
0.7728051586 0.1600935800 0.0054101562
0.8541524649 0.1421030925 0.0053296475
0.9158704087 0.1200001630 0.0047477460
0.9583179813 0.0959869397 0.0073477657
0.9842945811 0.0734387593 0.0149153779
0.9987284211 0.0523494549 0.0286172620
1.0000000000 0.0388925215 0.0420653532
1.0000000000 0.0381441863 0.0428205930
1.0000000000 0.0368981562 0.0440548565
1.0000000000 0.0357442896 0.0458325908
1.0000000000 0.0347628535 0.0477470401
1.0000000000 0.0339630163 0.0492990593
1.0000000000 0.0333847313 0.0504211743
1.0000000000 0.0330140066 0.0511405354
1.0000000000 0.0327499863 0.0516528454
1.0000000000 0.0324412492 0.0522519247
1.0000000000 0.0323020617 0.0525220066
0.0000000000 0.2682604434 0.0000000000
0.0000000000 0.2682409256 0.0000000000
0.0000000000 0.2682180074 0.0000000000
0.0000000000 0.2681873426 0.0000000000
0.0000000000 0.2681295040 0.0000000000
0.0000000000 0.2679672659 0.0000000000
0.0000000000 0.2677014109 0.0000000000
0.0000000000 0.2672761543 0.0000000000
0.0455061129 0.2635997377 0.0000000000
0.1127485183 0.2585729912 0.0000000000
0.1836342198 0.2536153924 0.0000000000
0.2669600247 0.2480425638 0.0000000000
0.3619562329 0.2420879586 0.0000000000
0.4624965390 0.2372964588 0.0000000000
0.5634852670 0.2321508299 0.0000000000
0.6625138450 0.2243663084 0.0000000000
0.7570478051 0.2127288580 0.0000407800
0.8414856718 0.1924607994 0.0033249816
0.9058074480 0.1688441885 0.0047940938
0.9522645828 0.1421432416 0.0048711939
0.9815432717 0.1153926964 0.0072980140
0.9987151619 0.0903401943 0.0133782684
1.0000000000 0.0752727040 0.0228707970
1.0000000000 0.0744472221 0.0233884077
1.0000000000 0.0730533749 0.0242624066
1.0000000000 0.0714718868 0.0252540639
1.0000000000 0.0700088021 0.0261714775
1.0000000000 0.0688295684 0.0269109049
1.0000000000 0.0679939568 0.0274755743
1.0000000000 0.0675405468 0.0279832528
1.0000000000 0.0672200682 0.0283391398
1.0000000000 0.0668514323 0.0287410111
1.0000000000 0.0666852407 0.0289221861
0.0000000000 0.3341507892 0.0000000000
0.0000000000 0.3341331603 0.0000000000
0.0000000000 0.3341124600 0.0000000000
0.0000000000 0.3340847629 0.0000000000
0.0000000000 0.3340325218 0.0000000000
0.0000000000 0.3338859846 0.0000000000
0.0000000000 0.3336466130 0.0000000000
0.0000000000 0.3332738395 0.0000000000
0.0051331259 0.3324493781 0.0000000000
0.0717823916 0.3277099282 0.0000000000
0.1493492599 0.3224074608 0.0000000000
0.2364820875 0.3163610921 0.0000000000
0.3330962702 0.3088632296 0.0000000000
0.4360721630 0.3016749730 0.0000000000
0.5407945285 0.2957534691 0.0000000000
0.6416338637 0.2871238960 0.0000000000
0.7387075533 0.2733685766 0.0000000000
0.8259268736 0.2522872516 0.0000000000
0.8932941772 0.2271470236 0.0023963081
0.9435321262 0.1993797050 0.0050871190
0.9765779060 0.1702608913 0.0053067778
0.9976997560 0.1423469596 0.0079265964
1.0000000000 0.1257814305 0.0129978196
1.0000000000 0.1249348373 0.0133686569
1.0000000000 0.1235053432 0.0139948252
1.0000000000 0.1218834094 0.0147052888
1.0000000000 0.1203553434 0.0153634937
1.0000000000 0.1191214950 0.0158940770
1.0000000000 0.1182294186 0.0162776904
1.0000000000 0.1176575297 0.0165236159
1.0000000000 0.1172502456 0.0166987574
1.0000000000 0.1167739802 0.0169035625
1.0000000000 0.1165592662 0.0169958945
0.0000000000 0.4067357032 0.0000000000
0.0000000000 0.4067209549 0.0000000000
0.0000000000 0.4067036371 0.0000000000
0.0000000000 0.4066804658 0.0000000000
0.0000000000 0.4066367611 0.0000000000
0.0000000000 0.4065141686 0.0000000000
0.0000000000 0.4063139111 0.0000000000
0.0000000000 0.4060020501 0.0000000000
0.0000000000 0.4055699013 0.0000000000
0.0159177739 0.4041954813 0.0000000000
0.1023264090 0.3987090285 0.0000000000
0.1979273794 0.3923496300 0.0000000000
0.2981275552 0.3845575885 0.0000000000
0.4052506530 0.3751349248 0.0000000000
0.5133077572 0.3679638010 0.0000000000
0.6177082372 0.3590488286 0.0000000000
0.7171743153 0.3433477786 0.0000000000
0.8090309792 0.3203687053 0.0000000000
0.8804089442 0.2937150039 0.0000000000
0.9347199107 0.2665216281 0.0016357581
0.9725320081 0.2388933356 0.0057329429
0.9968079520 0.2104072606 0.0093519181
1.0000000000 0.1933767896 0.0138694417
1.0000000000 0.1924656024 0.0139724161
1.0000000000 0.1908993179 0.0141430871
1.0000000000 0.1891215682 0.0143366635
1.0000000000 0.1874769156 0.0145157471
1.0000000000 0.1862399052 0.0150803092
1.0000000000 0.1853507147 0.0155130300
1.0000000000 0.1847806760 0.0157904369
1.0000000000 0.1843747095 0.0159879988
1.0000000000 0.1838999848 0.0162190215
1.0000000000 0.1836859655 0.0163231731
0.0000000000 0.4854130071 0.0000000000
0.0000000000 0.4854012156 0.0000000000
0.0000000000 0.4853873697 0.0000000000
0.0000000000 0.4853688438 0.0000000000
0.0000000000 0.4853339011 0.0000000000
0.0000000000 0.4852358863 0.0000000000
0.0000000000 0.4850757769 0.0000000000
0.0000000000 0.4848224867 0.0000000000
0.0000000000 0.4844686456 0.0000000000
0.0000000000 0.4840627997 0.0000000000
0.0279375853 0.4822287602 0.0000000000
0.1424330701 0.4755912760 0.0000000000
0.2534098096 0.4676198217 0.0000000000
0.3652168372 0.4580036931 0.0000000000
0.4793242132 0.4495881654 0.0000000000
0.5883035817 0.4404552270 0.0000000000
0.6912854807 0.4240364516 0.0000000000
0.7885745912 0.3994843381 0.0000000000
0.8655270303 0.3709704190 0.0000000000
0.9257661195 0.3429401446 0.0000000000
0.9686220977 0.3182056796 0.0003506394
0.9957863679 0.2942872669 0.0085994902
1.0000000000 0.2782335812 0.0152708390
1.0000000000 0.2774148299 0.0156588169
1.0000000000 0.2760323476 0.0163139275
1.0000000000 0.2744637544 0.0170572296
1.0000000000 0.2730125992 0.0177448819
1.0000000000 0.2718467534 0.0182931580
1.0000000000 0.2710095897 0.0186804769
1.0000000000 0.2704729040 0.0189287777
1.0000000000 0.2700906907 0.0191056110
1.0000000000 0.2696437423 0.0193123944
1.0000000000 0.2694422453 0.0194056182
0.0000000000 0.5677270524 0.0000000000
0.0000000000 0.5677177804 0.0000000000
0.0000000000 0.5677068931 0.0000000000
0.0000000000 0.5676923257 0.0000000000
0.0000000000 0.5676648494 0.0000000000
0.0000000000 0.5675877778 0.0000000000
0.0000000000 0.5674618797 0.0000000000
0.0000000000 0.5672658187 0.0000000000
0.0000000000 0.5669941349 0.0000000000
0.0000000000 0.5666824216 0.0000000000
0.0000000000 0.5662828523 0.0000000000
0.0513384783 0.5635620906 0.0000000000
0.1886465936 0.5561005771 0.0000000000
0.3120044281 0.5472678172 0.0000000000
0.4353063778 0.5384791370 0.0000000000
0.5513969263 0.5291970254 0.0000000000
0.6593953120 0.5140324148 0.0000000000
0.7632667939 0.4881472670 0.0000000000
0.8474403211 0.4589645876 0.0000000000
0.9140620563 0.4301468771 0.0000000000
0.9626155425 0.4052519160 0.0000000000
0.9943279307 0.3845853392 0.0000000000
1.0000000000 0.3735997157 0.0064730779
1.0000000000 0.3730902693 0.0069361934
1.0000000000 0.3722300560 0.0077181755
1.0000000000 0.3712540400 0.0086054288
1.0000000000 0.3703510967 0.0094262549
1.0000000000 0.3696233322 0.0100878337
1.0000000000 0.3690937183 0.0105842700
1.0000000000 0.3687387421 0.0109839431
1.0000000000 0.3684859375 0.0112685797
1.0000000000 0.3681903156 0.0116014249
1.0000000000 0.3680570408 0.0117514809
0.0000000000 0.6517275534 0.0000000000
0.0000000000 0.6517199925 0.0000000000
0.0000000000 0.6517111144 0.0000000000
0.0000000000 0.6516992354 0.0000000000
0.0000000000 0.6516768297 0.0000000000
0.0000000000 0.6516139814 0.0000000000
0.0000000000 0.6515113174 0.0000000000
0.0000000000 0.6513514387 0.0000000000
0.0000000000 0.6511298932 0.0000000000
0.0000000000 0.6508757866 0.0000000000
0.0000000000 0.6505561966 0.0000000000
0.0000000000 0.6501189799 0.0000000000
0.0854170631 0.6466298801 0.0000000000
0.2385223775 0.6393957663 0.0000000000
0.3772013084 0.6308916786 0.0000000000
0.5057449381 0.6224849896 0.0000000000
0.6201110552 0.6095424913 0.0000000000
0.7324107174 0.5857508445 0.0000000000
0.8254487922 0.5567326606 0.0000000000
0.9000169472 0.5277559331 0.0000000000
0.9550329773 0.5026435829 0.0000000000
0.9919997514 0.4822677736 0.0000000000
1.0000000000 0.4727498085 0.0000000000
1.0000000000 0.4723824878 0.0000000000
1.0000000000 0.4717622575 0.0000000000
1.0000000000 0.4710585312 0.0000000000
1.0000000000 0.4704074917 0.0000000000
1.0000000000 0.4698827595 0.0000000000
1.0000000000 0.4695033764 0.0000000000
1.0000000000 0.4692601629 0.0000000000
1.0000000000 0.4690869527 0.0000000000
1.0000000000 0.4688844061 0.0000000000
1.0000000000 0.4687930924 0.0000000000
0.0000000000 0.7378036772 0.0000000000
0.0000000000 0.7377983049 0.0000000000
0.0000000000 0.7377919967 0.0000000000
0.0000000000 0.7377835562 0.0000000000
0.0000000000 0.7377676361 0.0000000000
0.0000000000 0.7377229800 0.0000000000
0.0000000000 0.7376500333 0.0000000000
0.0000000000 0.7375364333 0.0000000000
0.0000000000 0.7373790167 0.0000000000
0.0000000000 0.7371984643 0.0000000000
0.0000000000 0.7369713834 0.0000000000
0.0000000000 0.7366607242 0.0000000000
0.0000000000 0.7362489012 0.0000000000
0.1140004267 0.7332285410 0.0000000000
0.2895756000 0.7268545067 0.0000000000
0.4411263819 0.7191644503 0.0000000000
0.5685342135 0.7095741594 0.0000000000
0.6916305945 0.6913548189 0.0000000000
0.7962634313 0.6654644665 0.0000000000
0.8810022665 0.6384762990 0.0000000000
0.9450797659 0.6152895330 0.0000000000
0.9884521230 0.5965094887 0.0000000000
1.0000000000 0.5873911208 0.0000000000
1.0000000000 0.5870830396 0.0000000000
1.0000000000 0.5865627128 0.0000000000
1.0000000000 0.5859723392 0.0000000000
1.0000000000 0.5854261658 0.0000000000
1.0000000000 0.5849859548 0.0000000000
1.0000000000 0.5846676807 0.0000000000
1.0000000000 0.5844636429 0.0000000000
1.0000000000 0.5843183325 0.0000000000
1.0000000000 0.5841484111 0.0000000000
1.0000000000 0.5840718057 0.0000000000
0.0000000000 0.8146693735 0.0000000000
0.0000000000 0.8146656679 0.0000000000
0.0000000000 0.8146613167 0.0000000000
0.0000000000 0.8146554947 0.0000000000
0.0000000000 0.8146445136 0.0000000000
0.0000000000 0.8146137114 0.0000000000
0.0000000000 0.8145633954 0.0000000000
0.0000000000 0.8144850383 0.0000000000
0.0000000000 0.8143764581 0.0000000000
0.0000000000 0.8142519195 0.0000000000
0.0000000000 0.8140952873 0.0000000000
0.0000000000 0.8138810059 0.0000000000
0.0000000000 0.8135987543 0.0000000000
0.0000000000 0.8132379482 0.0000000000
0.1522070042 0.8105689793 0.0000000000
0.3480374786 0.8053492458 0.0000000000
0.5018853574 0.7979367977 0.0000000000
0.6394196405 0.7860421539 0.0000000000
0.7594758991 0.7664010430 0.0000000000
