test_isolated/config/Mavic 4 Pro/Normalization/DJI Mavic 4 Pro D-Log to Rec.709 vivid V1.cube
# DaVinci Resolve Cube (3D LUT).
#
#Generated by LUT Editor.
#Not-Clipped.
#
LUT_3D_SIZE 5
0.0000000000 0.0000000000 0.0000000000
0.1640144566 0.0046380924 0.0101790268
0.8138246646 0.0000000000 0.0286147489
1.0000000000 0.0000000000 0.0953707256
1.0000000000 0.0000000000 0.1013428557
0.0000000000 0.1233510484 0.0000000000
0.1173115701 0.1156643092 0.0000000000
0.7953138272 0.0787404772 0.0118338514
1.0000000000 0.0000000000 0.0865258793
1.0000000000 0.0000000000 0.0929079482
0.0000000000 0.6517275534 0.0000000000
0.0000000000 0.6511298932 0.0000000000
0.6201110552 0.6095424913 0.0000000000
1.0000000000 0.4717622575 0.0000000000
1.0000000000 0.4687930924 0.0000000000
0.0000000000 0.9996261558 0.0000000000
0.0000000000 0.9995943301 0.0000000000
0.0000000000 0.9992678855 0.0000000000
0.9844648304 0.9955177223 0.0000000000
0.9967973956 0.9952675547 0.0000000000
0.0000000000 1.0000000000 0.0000000000
0.0000000000 1.0000000000 0.0000000000
0.0000000000 1.0000000000 0.0000000000
0.9800969900 0.9986087606 0.0000000000
0.9937184811 0.9985519002 0.0000000000
0.0037579458 0.0000000000 0.1151556173
0.1749272767 0.0000000000 0.1370555854
0.8053206905 0.0000000000 0.1330540869
1.0000000000 0.0000000000 0.1645896381
1.0000000000 0.0000000000 0.1698815348
0.0000000000 0.1191416018 0.1066897013
0.1023045132 0.1023033357 0.1023044726
0.7967514464 0.0547675401 0.1132783748
1.0000000000 0.0000000000 0.1574611763
1.0000000000 0.0000000000 0.1626189295
0.0000000000 0.6477858184 0.0000000000
0.0000000000 0.6471881581 0.0000000000
0.6193706978 0.6054606955 0.0006270988
1.0000000000 0.4618935743 0.0461815656
1.0000000000 0.4583769126 0.0506246947
0.0000000000 0.9994162564 0.0000000000
0.0000000000 0.9993846609 0.0000000000
0.0000000000 0.9990625274 0.0000000000
0.9843452987 0.9951985771 0.0000000000
0.9967124324 0.9949482652 0.0000000000
0.0000000000 1.0000000000 0.0000000000
0.0000000000 1.0000000000 0.0000000000
0.0000000000 1.0000000000 0.0000000000
0.9799564118 0.9986093474 0.0000000000
0.9936216895 0.9985523042 0.0000000000
0.0000000000 0.0000000000 0.6016024162
0.1103302197 0.0000000000 0.6075313783
0.7466142148 0.0000000000 0.6141482246
1.0000000000 0.0000000000 0.6221335416
1.0000000000 0.0000000000 0.6244265197
0.0000000000 0.0000000000 0.5984451337
0.0624191188 0.0000000000 0.6020457147
0.7397632468 0.0000000000 0.6115926632
1.0000000000 0.0000000000 0.6189469119
1.0000000000 0.0000000000 0.6212414164
0.0000000000 0.6359893170 0.5769948291
0.0000000000 0.6353507357 0.5776591680
0.5662919549 0.5662873640 0.5662917678
1.0000000000 0.4128160497 0.5177497577
1.0000000000 0.4087383877 0.5210262706
0.0000000000 0.9973111105 0.3641973101
0.0000000000 0.9972770571 0.3650774022
0.0000000000 0.9969322055 0.3741462174
0.9838212038 0.9843742292 0.2156436163
0.9964805482 0.9842773807 0.1880011814
0.0000000000 1.0000000000 0.3427692228
0.0000000000 1.0000000000 0.3436974455
0.0000000000 1.0000000000 0.3532716804
0.9780412157 0.9885647675 0.1912846923
0.9924223387 0.9884648722 0.1582821873
0.0000000000 0.0000000000 0.9918969324
0.0000000000 0.0000000000 0.9919357275
0.6775469251 0.0000000000 0.9921897860
1.0000000000 0.0000000000 0.9940006989
1.0000000000 0.0000000000 0.9941520823
0.0000000000 0.0000000000 0.9916689139
0.0000000000 0.0000000000 0.9917093958
0.6683105542 0.0000000000 0.9919645873
1.0000000000 0.0000000000 0.9937862154
1.0000000000 0.0000000000 0.9939406236
0.0000000000 0.3573348236 0.9902629461
0.0000000000 0.3559271518 0.9903025215
0.5368516649 0.3047840562 0.9918143019
1.0000000000 0.1778776725 0.9907477389
1.0000000000 0.1732465103 0.9909274047
0.0008141320 0.9856225036 0.9725032736
0.0008170310 0.9855713070 0.9725777377
0.0008473338 0.9850361635 0.9733380602
0.9794290672 0.9794277151 0.9794290672
0.9924134980 0.9772810960 0.9787608609
0.0003338480 0.9941042750 0.9704353734
0.0003360706 0.9940650243 0.9705103384
0.0003591242 0.9936578998 0.9712821339
0.9740099886 0.9903966944 0.9778877462
0.9891662674 0.9901922395 0.9786760874
0.0000000000 0.0000000000 0.9989963796
0.0000000000 0.0000000000 0.9990258237
0.6723097497 0.0000000000 0.9993101466
1.0000000000 0.0000000000 1.0000000000
1.0000000000 0.0000000000 1.0000000000
0.0000000000 0.0000000000 0.9988234846
0.0000000000 0.0000000000 0.9988538460
0.6629229402 0.0000000000 0.9991436955
1.0000000000 0.0000000000 1.0000000000
1.0000000000 0.0000000000 1.0000000000
0.0000000000 0.3175441594 0.9972615545
0.0000000000 0.3160594282 0.9972919971
0.5323677422 0.2679513609 0.9978859773
1.0000000000 0.1469335912 0.9985515316
1.0000000000 0.1419146229 0.9987285454
0.0010404090 0.9841664508 0.9853151440
0.0010461363 0.9841118779 0.9853690868
0.0011056325 0.9835438016 0.9859246204
0.9796132786 0.9786279220 0.9896548398
0.9920257527 0.9772403052 0.9896782772
0.0003939417 0.9930430255 0.9838403798
0.0003961643 0.9930037748 0.9838988441
0.0004200866 0.9925813098 0.9845021722
0.9743988052 0.9890214160 0.9886136415
1.0000000000 1.0000000000 1.0000000000
