config/DJI Mavic 3 D-Log to Rec.709 V1 (1).cube
# DaVinci Resolve Cube (3D LUT).
#
# DJI Color Space to Rec709.
# Revision: 20210924
#
#Generated by LUT Editor.
#Not-Clipped.
#
LUT_3D_SIZE 5
0.0066086792 0.0071377726 0.0066040200
0.2084317447 0.0017488264 0.0019082154
0.6980222541 0.0000000000 0.0085438481
0.9952238355 0.0000000000 0.0229973607
1.0000000000 0.0000000000 0.0231080712
0.0028698973 0.1586204640 0.0012741100
0.1518231513 0.1570394022 0.0006947707
0.6907958682 0.0159471308 0.0070438101
0.9951818399 0.0000000000 0.0229951901
1.0000000000 0.0000000000 0.0231080712
0.0025950260 0.6235619071 0.0015584600
0.0025928743 0.6233114363 0.0015568686
0.6422113859 0.6225761128 0.0000000000
0.9941901317 0.5798165455 0.0038586242
1.0000000000 0.0000000000 0.0230806869
0.0906237039 0.9692230883 0.0027269993
0.0906200428 0.9692154165 0.0027272141
0.0905917505 0.9691561298 0.0027288747
0.9889459307 0.9702924742 0.0000000000
1.0000000000 0.9644358202 0.0000000000
0.1068972593 0.9989860613 0.0016077905
0.1068972593 0.9989860613 0.0016077905
0.1068972593 0.9989860613 0.0016077905
0.1068972593 0.9989860613 0.0016077905
1.0000000000 0.9985027965 0.0000000000
0.0171379182 0.0014830000 0.1604606720
0.1940145731 0.0009782062 0.1537787569
0.6927476649 0.0002182434 0.0933398517
0.9952181747 0.0000000000 0.0229972141
1.0000000000 0.0000000000 0.0231080712
0.0052589830 0.1446175391 0.1539293265
0.1569304593 0.1571580857 0.1571785096
0.6856201440 0.0103045289 0.0869220093
0.9951754528 0.0000000000 0.0229954569
1.0000000000 0.0000000000 0.0231080712
0.0025792174 0.6217109847 0.0015467874
0.0025774595 0.6215072185 0.0015454844
0.6410095635 0.6209659235 0.0000000000
0.9941966939 0.5779374569 0.0038634403
1.0000000000 0.0000000000 0.0230918339
0.0906487374 0.9691770106 0.0027282610
0.0906268346 0.9691694804 0.0027284831
0.0905699337 0.9691104128 0.0027301551
0.9889329804 0.9702487955 0.0000000000
1.0000000000 0.9643877578 0.0000000000
0.1068972593 0.9989860613 0.0016077905
0.1068972593 0.9989860613 0.0016077905
0.1068972593 0.9989860613 0.0016077905
0.1068972593 0.9989860613 0.0016077905
1.0000000000 0.9985027965 0.0000000000
0.1188143563 0.0000000000 0.5962664999
0.2044761880 0.0000000000 0.5919462219
0.6844537243 0.0006200171 0.5717646263
0.9928978797 0.0000000000 0.5180703190
1.0000000000 0.0000000000 0.0231080712
0.1185550704 0.0000000000 0.5962756112
0.1614447478 0.0000000000 0.5939385262
0.6780085494 0.0006985090 0.5714481501
0.9928511913 0.0000000000 0.5176768510
1.0000000000 0.0000000000 0.0231080712
0.0894512362 0.5775651968 0.6079754318
0.0911532410 0.5772692956 0.6070659697
0.5888710501 0.5896613547 0.5908766621
0.9892834931 0.5539982716 0.5048820052
1.0000000000 0.0000000000 0.0231077205
0.1477344058 0.9598148408 0.5909488177
0.1479931672 0.9598330733 0.5898646021
0.1500264612 0.9599774198 0.5813551208
0.9867746491 0.9661632058 0.4358838569
1.0000000000 0.9640004007 0.0000000000
0.1068972593 0.9989860613 0.0016077905
0.1068972593 0.9989860613 0.0016077905
0.1068972593 0.9989860613 0.0016077905
0.1068972593 0.9989860613 0.0016077905
1.0000000000 0.9985027965 0.0000000000
0.1891537665 0.0000000000 0.9378476642
0.1891424690 0.0000000000 0.9378215222
0.6217307718 0.0000000000 0.9361399649
0.9781354187 0.0010484264 0.9252057988
0.9846663528 0.0010851434 0.8935811965
0.1891501199 0.0000000000 0.9378392261
0.1891388223 0.0000000000 0.9378130838
0.6125598264 0.0000000000 0.9361885792
0.9780827564 0.0010484869 0.9251983662
0.9846666665 0.0010851497 0.8935615466
0.1331099608 0.3241846933 0.9465622325
0.1337911465 0.3233010248 0.9465389773
0.5061965259 0.3182093606 0.9411907334
0.9783224923 0.2484039947 0.9267148275
0.9846690859 0.0010851983 0.8934100018
0.0000000000 0.9400831304 0.9589261355
0.0000000000 0.9400744838 0.9588983770
0.0000000000 0.9400054825 0.9586848616
0.9447972393 0.9474151715 0.9460989929
0.9876092377 0.9417653207 0.9125948911
0.0000000000 0.9950252916 0.9506956479
0.0000000000 0.9950262206 0.9506638160
0.0000000000 0.9950335712 0.9504119336
0.0000000000 0.9951045039 0.9479812949
0.9904592488 0.9965788237 0.8920420421
0.2043432143 0.0000000000 0.9678002139
0.2043432143 0.0000000000 0.9678002139
0.2043432143 0.0000000000 0.9678002139
0.9705429774 0.0008880660 0.9669525257
0.9837660107 0.0008963525 0.9669565002
0.2043432143 0.0000000000 0.9678002139
0.2043432143 0.0000000000 0.9678002139
0.2043432143 0.0000000000 0.9678002139
0.9704389134 0.0008879981 0.9669523884
0.9837660107 0.0008963525 0.9669565002
0.2043432143 0.0000000000 0.9678002139
0.2043432143 0.0000000000 0.9678002139
0.2043432143 0.0000000000 0.9678002139
0.9695806464 0.0008874387 0.9669512558
0.9837660107 0.0008963525 0.9669565002
0.0011396159 0.8421843389 0.9922367337
0.0011415438 0.8421333171 0.9922371101
0.0011564911 0.8417377410 0.9922400290
0.9079303663 0.8466798407 0.9979572041
0.9999003358 0.7971727585 0.9970330560
0.0000000000 0.9936715831 0.9943058672
0.0000000000 0.9936715831 0.9943058672
0.0000000000 0.9936715831 0.9943058672
0.0000000000 0.9936715831 0.9943058672
1.0000000000 1.0000000000 1.0000000000
