config/DJI Mavic 3 D-Log to Rec.709 V1 (1).cube
# DaVinci Resolve Cube (3D LUT).
#
# DJI Color Space to Rec709.
# Revision: 20210924
#
#Generated by LUT Editor.
#Not-Clipped.
#
LUT_3D_SIZE	33
0.0066086792 0.0071377726 0.0066040200
0.0141975711 0.0071466610 0.0067857759
0.0249789087 0.0066929011 0.0065492503
0.0364003296 0.0046151144 0.0044864228
0.0619092146 0.0034848239 0.0033459489
0.0942338108 0.0030292837 0.0028515431
0.1303459890 0.0027918621 0.0025848414
0.1694943461 0.0024337956 0.0022825372
0.2084317447 0.0017488264 0.0019082154
0.2564424138 0.0010733038 0.0016601436
0.3109946975 0.0008157477 0.0014700127
0.3688604147 0.0023677429 0.0013129977
0.4256835095 0.0220939612 0.0012345138
0.4879837545 0.0265112143 0.0013243649
0.5579367282 0.0130797138 0.0026361339
0.6305648629 0.0003023185 0.0053314682
0.6980222541 0.0000000000 0.0085438481
0.7599722984 0.0000000000 0.0118155383
0.8183741414 0.0000000000 0.0152269117
0.8728480622 0.0000000000 0.0181056775
0.9192126716 0.0000000000 0.0202369937
0.9566579084 0.0000000000 0.0217050953
0.9802502672 0.0000000000 0.0225469294
0.9907178521 0.0000000000 0.0228806863
0.9952238355 0.0000000000 0.0229973607
0.9970662707 0.0000000000 0.0230410142
0.9981414701 0.0000000000 0.0230655903
0.9988267877 0.0000000000 0.0230812548
0.9992385039 0.0000000000 0.0230906655
0.9995815261 0.0000000000 0.0230985060
0.9999043468 0.0000000000 0.0231058848
1.0000000000 0.0000000000 0.0231080712
1.0000000000 0.0000000000 0.0231080712
0.0055941065 0.0140114687 0.0065471304
0.0130477046 0.0140880173 0.0068189583
0.0237459830 0.0141837624 0.0072636001
0.0335711029 0.0104241791 0.0054319411
0.0541684749 0.0072963419 0.0037394377
0.0864432700 0.0062022148 0.0027964515
0.1236808459 0.0057481296 0.0025217763
0.1643668004 0.0051200485 0.0022774495
0.2045222252 0.0038069481 0.0018872408
0.2530230348 0.0023284558 0.0016310220
0.3078944249 0.0017884751 0.0014578145
0.3664526295 0.0031337413 0.0013079983
0.4238889580 0.0218720595 0.0012339712
0.4864393243 0.0266650031 0.0013137924
0.5566360830 0.0134496382 0.0026019167
0.6296264053 0.0003129927 0.0052860218
0.6973814147 0.0000000000 0.0085113174
0.7595101090 0.0000000000 0.0117898725
0.8180450800 0.0000000000 0.0152079433
0.8726180244 0.0000000000 0.0180945778
0.9190690787 0.0000000000 0.0202307684
0.9565714706 0.0000000000 0.0217018585
0.9802128545 0.0000000000 0.0225456185
0.9907102863 0.0000000000 0.0228804904
0.9952200169 0.0000000000 0.0229972618
0.9970652343 0.0000000000 0.0230409905
0.9981409550 0.0000000000 0.0230655786
0.9988265326 0.0000000000 0.0230812490
0.9992383817 0.0000000000 0.0230906627
0.9995814237 0.0000000000 0.0230985037
0.9999043007 0.0000000000 0.0231058838
1.0000000000 0.0000000000 0.0231080712
1.0000000000 0.0000000000 0.0231080712
0.0061297144 0.0227287903 0.0065906654
0.0118665752 0.0227827696 0.0068278673
0.0218576037 0.0228985427 0.0073613411
0.0317827388 0.0186125039 0.0063361283
0.0466871906 0.0123031911 0.0044236304
0.0782239631 0.0101956568 0.0027312745
0.1167581808 0.0094298320 0.0024555639
0.1589585761 0.0084928260 0.0022641068
0.2004678012 0.0064360962 0.0018556716
0.2496398538 0.0038509769 0.0015915962
0.3048044880 0.0029268655 0.0014411084
0.3640247461 0.0040021661 0.0013010409
0.4220789835 0.0217372989 0.0012325981
0.4848896128 0.0268440263 0.0013027896
0.5553309275 0.0138244592 0.0025672891
0.6286849098 0.0003234685 0.0052403153
0.6967440310 0.0000000000 0.0084778162
0.7590494722 0.0000000000 0.0117624745
0.8177155193 0.0000000000 0.0151880442
0.8723871861 0.0000000000 0.0180834396
0.9189254596 0.0000000000 0.0202245420
0.9564850241 0.0000000000 0.0216986215
0.9801754396 0.0000000000 0.0225443075
0.9907027202 0.0000000000 0.0228802945
0.9952161982 0.0000000000 0.0229971629
0.9970641979 0.0000000000 0.0230409669
0.9981403156 0.0000000000 0.0230655639
0.9988262774 0.0000000000 0.0230812431
0.9992383313 0.0000000000 0.0230906616
0.9995813213 0.0000000000 0.0230985014
0.9999042546 0.0000000000 0.0231058827
1.0000000000 0.0000000000 0.0231080712
1.0000000000 0.0000000000 0.0231080712
0.0058939651 0.0308033861 0.0057344529
0.0088853350 0.0309374630 0.0058742853
0.0161737509 0.0313050302 0.0064366403
0.0271636165 0.0292821213 0.0063910531
0.0393859669 0.0233914217 0.0050997675
0.0697517845 0.0203920752 0.0030473157
0.1089729713 0.0187892663 0.0023798399
0.1528885420 0.0175074870 0.0022043921
0.1965581107 0.0132609925 0.0017752868
0.2468576028 0.0079868422 0.0014944357
0.3017827320 0.0060343861 0.0013843626
0.3615312976 0.0068113477 0.0012730558
0.4202374023 0.0227185744 0.0012213715
0.4833097784 0.0272930959 0.0012869328
0.5540146557 0.0142273816 0.0025305042
0.6277450982 0.0003336947 0.0051945884
0.6961076789 0.0000000000 0.0084439469
0.7585891402 0.0000000000 0.0117348560
0.8173879240 0.0000000000 0.0151674898
0.8721602256 0.0000000000 0.0180711188
0.9187827570 0.0000000000 0.0202180553
0.9563985689 0.0000000000 0.0216953841
0.9801380226 0.0000000000 0.0225429965
0.9906951912 0.0000000000 0.0228800995
0.9952123795 0.0000000000 0.0229970640
0.9970631614 0.0000000000 0.0230409432
0.9981396762 0.0000000000 0.0230655493
0.9988260222 0.0000000000 0.0230812373
0.9992383291 0.0000000000 0.0230906615
0.9995812190 0.0000000000 0.0230984990
0.9999042085 0.0000000000 0.0231058817
1.0000000000 0.0000000000 0.0231080712
1.0000000000 0.0000000000 0.0231080712
0.0051583160 0.0389529641 0.0042891218
0.0058734094 0.0389745084 0.0042893624
0.0104314040 0.0396665864 0.0049547119
0.0185434082 0.0400856762 0.0056160166
0.0335289017 0.0384009980 0.0052495113
0.0604410140 0.0353944751 0.0035158758
0.1008215727 0.0327512240 0.0022892274
0.1458085079 0.0311862206 0.0020871747
0.1926558036 0.0241696334 0.0016582130
0.2445987320 0.0149191999 0.0013534209
0.2989100990 0.0111407782 0.0012868462
0.3589590002 0.0118085039 0.0012202843
0.4183522921 0.0253828675 0.0011960816
0.4816625029 0.0283226427 0.0012614301
0.5526378777 0.0147604130 0.0024841994
0.6267638811 0.0003563867 0.0051400433
0.6954590644 0.0000000873 0.0084011588
0.7581273387 0.0000000007 0.0117025254
0.8170622430 0.0000000000 0.0151462492
0.8719336410 0.0000000000 0.0180586615
0.9186426440 0.0000000000 0.0202108471
0.9563130921 0.0000000000 0.0216918970
0.9801006034 0.0000000000 0.0225416854
0.9906876671 0.0000000000 0.0228799047
0.9952085607 0.0000000000 0.0229969651
0.9970621250 0.0000000000 0.0230409195
0.9981390368 0.0000000000 0.0230655347
0.9988257670 0.0000000000 0.0230812315
0.9992383269 0.0000000000 0.0230906615
0.9995811166 0.0000000000 0.0230984967
0.9999041624 0.0000000000 0.0231058806
1.0000000000 0.0000000000 0.0231080712
1.0000000000 0.0000000000 0.0231080712
0.0045959095 0.0582997864 0.0033642547
0.0045876862 0.0580545250 0.0032517499
0.0074273462 0.0582640726 0.0035429035
0.0115949049 0.0586575930 0.0039989997
0.0257507168 0.0583364318 0.0039391325
0.0510513441 0.0570726112 0.0032478788
0.0927792978 0.0546705175 0.0021561808
0.1383384322 0.0527962993 0.0019293981
0.1883490251 0.0446296842 0.0014983628
0.2425945581 0.0326359531 0.0011756947
0.2967505844 0.0281504861 0.0011308778
0.3564591398 0.0288807404 0.0011333474
0.4167208207 0.0362709246 0.0011394045
0.4799316533 0.0324711941 0.0012134708
0.5511356149 0.0157564731 0.0024209203
0.6257197468 0.0003890179 0.0050789699
0.6947717186 0.0000002435 0.0083500030
0.7576376871 0.0000000026 0.0116617954
0.8167179696 0.0000000000 0.0151175208
0.8716976294 0.0000000000 0.0180430563
0.9184969949 0.0000000000 0.0202029964
0.9562259576 0.0000000000 0.0216876439
0.9800616709 0.0000000000 0.0225402591
0.9906797883 0.0000000000 0.0228797007
0.9952041431 0.0000000000 0.0229968508
0.9970609599 0.0000000000 0.0230408928
0.9981383672 0.0000000000 0.0230655194
0.9988255069 0.0000000000 0.0230812255
0.9992383245 0.0000000000 0.0230906614
0.9995810094 0.0000000000 0.0230984942
0.9999041141 0.0000000000 0.0231058795
1.0000000000 0.0000000000 0.0231080712
1.0000000000 0.0000000000 0.0231080712
0.0040954752 0.0886873052 0.0026130137
0.0040984584 0.0884781417 0.0025230058
0.0054829624 0.0882339008 0.0024272994
0.0082699081 0.0879548966 0.0023263454
0.0181715277 0.0875810132 0.0022125453
0.0380968755 0.0870861927 0.0020757695
0.0830132657 0.0862708120 0.0019456360
0.1293992433 0.0847125238 0.0016758494
0.1813628386 0.0776957495 0.0012602118
0.2389256932 0.0654559409 0.0009570798
0.2944018457 0.0630384735 0.0008953006
0.3532836099 0.0673508148 0.0011093529
0.4154831923 0.0659421008 0.0010665906
0.4778292373 0.0473133184 0.0011022906
0.5489754098 0.0192798722 0.0022786763
0.6241639550 0.0006743870 0.0049506365
0.6937801294 0.0000038743 0.0082307020
0.7569686756 0.0000000655 0.0115747918
0.8162643487 0.0000000000 0.0150644685
0.8713922050 0.0000000000 0.0180187769
0.9183094060 0.0000000000 0.0201897414
0.9561151732 0.0000000000 0.0216814470
0.9800137714 0.0000000000 0.0225374867
0.9906696128 0.0000000000 0.0228794372
0.9951984136 0.0000000000 0.0229967024
0.9970594462 0.0000000000 0.0230408582
0.9981375191 0.0000000000 0.0230655000
0.9988251754 0.0000000000 0.0230812180
0.9992383215 0.0000000000 0.0230906613
0.9995808709 0.0000000000 0.0230984911
0.9999040517 0.0000000000 0.0231058781
1.0000000000 0.0000000000 0.0231080712
1.0000000000 0.0000000000 0.0231080712
0.0037704966 0.1219916972 0.0019626327
0.0037715958 0.1218273169 0.0018944492
0.0039634531 0.1216510278 0.0018258776
0.0062783324 0.1213433076 0.0017557376
0.0109571294 0.1209500977 0.0016861292
0.0259740305 0.1203258770 0.0016595479
0.0679930593 0.1193646632 0.0016163263
0.1175844343 0.1185485911 0.0013161055
0.1698655672 0.1153435423 0.0009252232
0.2289767341 0.1065831180 0.0007870784
0.2877304044 0.1063221275 0.0006914763
0.3470726131 0.1148168883 0.0016548544
0.4148265996 0.1101022385 0.0015362057
0.4777718945 0.0936575333 0.0009031255
0.5472384309 0.0572594195 0.0017188049
0.6220195877 0.0070307383 0.0045142137
0.6922370826 0.0002221400 0.0079443177
0.7559570421 0.0000072427 0.0113701433
0.8155952245 0.0000000616 0.0149257019
0.8709564903 0.0000000000 0.0179426151
0.9180513886 0.0000000000 0.0201511972
0.9559708136 0.0000000000 0.0216698033
0.9799520060 0.0000000000 0.0225325285
0.9906574072 0.0000000000 0.0228780347
0.9951908298 0.0000000000 0.0229965060
0.9970574427 0.0000000000 0.0230408125
0.9981366366 0.0000000000 0.0230654799
0.9988247366 0.0000000000 0.0230812079
0.9992381489 0.0000000000 0.0230906574
0.9995806875 0.0000000000 0.0230984869
0.9999039691 0.0000000000 0.0231058762
1.0000000000 0.0000000000 0.0231080712
1.0000000000 0.0000000000 0.0231080712
0.0028698973 0.1586204640 0.0012741100
0.0028797974 0.1584657114 0.0012279024
0.0028897103 0.1583108477 0.0011815640
0.0037086156 0.1581299209 0.0011337995
0.0055181163 0.1579154606 0.0010965912
0.0119297634 0.1576864894 0.0010956294
0.0351240036 0.1575030036 0.0010946140
0.0916523403 0.1575740415 0.0010113718
0.1518231513 0.1570394022 0.0006947707
0.2115758725 0.1541102243 0.0005483546
0.2752501712 0.1547228256 0.0005536334
0.3371422512 0.1627566592 0.0011496343
0.4091455410 0.1585349597 0.0016301451
0.4816611108 0.1426656424 0.0007804624
0.5473503137 0.1191950254 0.0010317027
0.6206662996 0.0777001150 0.0033498763
0.6907958682 0.0159471308 0.0070438101
0.7546313635 0.0013128994 0.0107369618
0.8145720759 0.0000491942 0.0145118636
0.8702513660 0.0000005367 0.0177116265
0.9176445685 0.0000000000 0.0200273378
0.9557410615 0.0000000000 0.0215982430
0.9798666791 0.0000000000 0.0225089460
0.9906425764 0.0000000000 0.0228740730
0.9951818399 0.0000000000 0.0229951901
0.9970548751 0.0000000000 0.0230407538
0.9981354684 0.0000000000 0.0230654532
0.9988242462 0.0000000000 0.0230811967
0.9992378479 0.0000000000 0.0230906505
0.9995804448 0.0000000000 0.0230984813
0.9999038596 0.0000000000 0.0231058737
1.0000000000 0.0000000000 0.0231080712
1.0000000000 0.0000000000 0.0231080712
0.0011617846 0.2027824894 0.0008296530
0.0011667887 0.2026362733 0.0007983665
0.0011717995 0.2024899531 0.0007669881
0.0011766385 0.2023420550 0.0007440983
0.0016249597 0.2022009313 0.0007428093
0.0024659360 0.2020620862 0.0007395147
0.0069910344 0.2019645452 0.0007289936
0.0454625814 0.2021185527 0.0007095953
0.1185050076 0.2024490973 0.0006418345
0.1878471837 0.2022962710 0.0004746539
0.2582220898 0.2047380551 0.0004248056
0.3265665276 0.2097347306 0.0002722167
0.3996739430 0.2079681182 0.0002743314
0.4815811451 0.1933439255 0.0006591254
0.5518177506 0.1755508782 0.0006157321
0.6194202819 0.1509858183 0.0012356501
0.6898182728 0.1161472032 0.0054762023
0.7544038872 0.0724930457 0.0101615584
0.8141355234 0.0196717667 0.0137652051
0.8695577662 0.0013405171 0.0167443879
0.9170172066 0.0001095476 0.0193698232
0.9553059154 0.0000008410 0.0213724012
0.9796923508 0.0000000000 0.0223857240
0.9906132894 0.0000000000 0.0228213637
0.9951719202 0.0000000000 0.0229875038
0.9970522277 0.0000000000 0.0230395413
0.9981338825 0.0000000000 0.0230654169
0.9988238390 0.0000000000 0.0230811874
0.9992374564 0.0000000000 0.0230906416
0.9995801234 0.0000000000 0.0230984740
0.9999037147 0.0000000000 0.0231058704
1.0000000000 0.0000000000 0.0231080712
1.0000000000 0.0000000000 0.0231080712
0.0011652411 0.2636514869 0.0009744987
0.0011604714 0.2635251651 0.0009561752
0.0011554227 0.2633952498 0.0009470495
0.0011501889 0.2632629426 0.0009440056
0.0011449529 0.2631305835 0.0009409605
0.0013098133 0.2630011302 0.0009367877
0.0018294841 0.2628497374 0.0009299385
0.0094326978 0.2628158128 0.0009188195
0.0761985526 0.2632364709 0.0009426094
0.1551178250 0.2634329035 0.0009156209
0.2334670056 0.2622671309 0.0006792848
0.3123975441 0.2624989515 0.0002521840
0.3891185934 0.2620926862 0.0000682481
0.4737638222 0.2515947058 0.0002129678
0.5541323380 0.2367407916 0.0006663338
0.6222260470 0.2231655232 0.0003829624
0.6884062153 0.2027359148 0.0014279756
0.7537876844 0.1772077592 0.0069862015
0.8145111725 0.1493081834 0.0121773212
0.8702108649 0.1155186931 0.0155361260
0.9174961588 0.0698028207 0.0178769871
0.9553943437 0.0207240738 0.0197189589
0.9795128223 0.0030920632 0.0213514668
0.9905130575 0.0000000000 0.0224317957
0.9951400313 0.0000000000 0.0228737227
0.9970498351 0.0000000000 0.0230192336
0.9981322188 0.0000000000 0.0230640250
0.9988229704 0.0000000000 0.0230811676
0.9992369487 0.0000000000 0.0230906300
0.9995796978 0.0000000000 0.0230984643
0.9999035226 0.0000000000 0.0231058660
1.0000000000 0.0000000000 0.0231080712
1.0000000000 0.0000000000 0.0231080712
0.0026341266 0.3247154276 0.0013479768
0.0026339431 0.3246141162 0.0013478903
0.0026337596 0.3245127761 0.0013478038
0.0026335760 0.3244114069 0.0013477173
0.0026333924 0.3243100087 0.0013476307
0.0026332001 0.3242038019 0.0013475401
0.0026430043 0.3240709947 0.0013470779
0.0027163390 0.3239191795 0.0013450650
0.0057034127 0.3240140474 0.0013318663
0.1023375209 0.3250886630 0.0013483681
0.1925527823 0.3258307018 0.0013944094
0.2870619575 0.3241592814 0.0012674397
0.3766666329 0.3206476322 0.0001730980
0.4614077246 0.3146217551 0.0000614060
0.5473519031 0.3018472854 0.0006217496
0.6206328245 0.2922656184 0.0009304495
0.6872555540 0.2842988594 0.0014580988
0.7518016075 0.2702961051 0.0018414128
0.8131819885 0.2511074937 0.0032073565
0.8699718694 0.2295315680 0.0067090126
0.9181117270 0.2064202230 0.0109615835
0.9564858809 0.1788753519 0.0148137524
0.9802673823 0.1416745588 0.0175620922
0.9908368037 0.0876172227 0.0197087749
0.9951421454 0.0023267849 0.0210365171
0.9970181371 0.0000000000 0.0226461677
0.9981287620 0.0000000000 0.0230054244
0.9988219585 0.0000000000 0.0230795101
0.9992362511 0.0000000000 0.0230906140
0.9995791341 0.0000000000 0.0230984514
0.9999032681 0.0000000000 0.0231058602
1.0000000000 0.0000000000 0.0231080712
1.0000000000 0.0000000000 0.0231080712
0.0020307363 0.3854018727 0.0011978201
0.0020324099 0.3853243606 0.0011982676
0.0020340839 0.3852468335 0.0011987151
0.0020357582 0.3851692913 0.0011991627
0.0020374328 0.3850917339 0.0011996105
0.0020391867 0.3850105061 0.0012000794
0.0020414522 0.3849055799 0.0012006851
0.0020492898 0.3847679037 0.0012013043
0.0021329993 0.3846033056 0.0012007201
0.0331842306 0.3849282578 0.0012815509
0.1531423308 0.3863796887 0.0016557777
0.2531014007 0.3872981345 0.0017758527
0.3559293842 0.3850684786 0.0019058463
0.4498676853 0.3818406898 0.0019163205
0.5333267771 0.3732754067 0.0014941315
0.6117354609 0.3631756893 0.0013882866
0.6819790474 0.3568981914 0.0019686462
0.7479877217 0.3490055102 0.0022402510
0.8100578198 0.3380800893 0.0023029996
0.8674338218 0.3250077499 0.0023438362
0.9165081409 0.3101623563 0.0023574822
0.9557810106 0.2932930997 0.0024292533
0.9803103886 0.2713040621 0.0042191061
0.9911569880 0.2432701150 0.0073086945
0.9954127058 0.2035327517 0.0125030402
0.9971726499 0.1392796831 0.0180206552
0.9981367040 0.0115631171 0.0209565522
0.9988156933 0.0000000000 0.0229438725
0.9992359028 0.0000000000 0.0230885384
0.9995783873 0.0000000000 0.0230984343
0.9999029308 0.0000000000 0.0231058525
1.0000000000 0.0000000000 0.0231080712
1.0000000000 0.0000000000 0.0231080712
0.0011900510 0.4460147189 0.0008714428
0.0011896978 0.4459567747 0.0008713935
0.0011893445 0.4458988230 0.0008713441
0.0011889912 0.4458408639 0.0008712948
0.0011886378 0.4457828974 0.0008712454
0.0011882678 0.4457221915 0.0008711937
0.0011877898 0.4456437811 0.0008711270
0.0011871570 0.4455399783 0.0008710386
0.0011884519 0.4454029144 0.0008708698
0.0013244867 0.4452313269 0.0008700593
0.0989044223 0.4452541912 0.0010387491
0.2241224101 0.4460664373 0.0019268910
0.3341335987 0.4460243764 0.0024268305
0.4367510748 0.4456495025 0.0042132157
0.5210009546 0.4437419361 0.0043636052
0.5988740843 0.4367609464 0.0027156648
0.6727355237 0.4272561837 0.0023072519
0.7424142202 0.4193139978 0.0026478752
0.8066193509 0.4114998399 0.0026940325
0.8647543076 0.4026187237 0.0027485287
0.9143373782 0.3927599080 0.0027966355
0.9539780422 0.3817701011 0.0028255037
0.9793706519 0.3685720728 0.0028211361
0.9908315631 0.3521786100 0.0027717086
0.9952960999 0.3307521419 0.0026802448
0.9971959394 0.2987421925 0.0028446198
0.9982462302 0.2467025256 0.0071934981
0.9988783488 0.1510131468 0.0175554657
0.9992289672 0.0001245615 0.0224700453
0.9995776088 0.0000000000 0.0230957671
0.9999024833 0.0000000000 0.0231058422
1.0000000000 0.0000000000 0.0231080712
1.0000000000 0.0000000000 0.0231080712
0.0018591102 0.5069884075 0.0011295651
0.0018588254 0.5069448328 0.0011294798
0.0018585407 0.5069012545 0.0011293945
0.0018582559 0.5068576723 0.0011293092
0.0018579711 0.5068140863 0.0011292239
0.0018576728 0.5067684427 0.0011291345
0.0018572876 0.5067094900 0.0011290192
0.0018567769 0.5066313301 0.0011288662
0.0018560879 0.5065258961 0.0011286598
0.0018552468 0.5063869518 0.0011283865
0.0018997083 0.5062258859 0.0011280332
0.1531256825 0.5055760495 0.0012554384
0.3028760933 0.5050233405 0.0026163317
0.4212087600 0.5050417329 0.0047928731
0.5103290555 0.5051817592 0.0047557400
0.5877497192 0.5040967784 0.0029406022
0.6614625764 0.4983770463 0.0000346199
0.7327425170 0.4889792754 0.0013673440
0.7998108920 0.4807855057 0.0029178691
0.8603418165 0.4738799974 0.0031577354
0.9115228374 0.4664857569 0.0032179700
0.9519917702 0.4585034801 0.0032506669
0.9783587200 0.4493385553 0.0032519052
0.9904654497 0.4383166174 0.0032163721
0.9950981353 0.4243703908 0.0031485617
0.9970842034 0.4056937890 0.0030504848
0.9981757457 0.3782476069 0.0029173202
0.9988690465 0.3353720568 0.0027112225
0.9992837333 0.2565773889 0.0059974768
0.9995851423 0.0585631385 0.0203888996
0.9999019559 0.0000000000 0.0231022549
1.0000000000 0.0000000000 0.0231080712
1.0000000000 0.0000000000 0.0231080712
0.0021770791 0.5661908193 0.0012688500
0.0021768887 0.5661589888 0.0012687343
0.0021766982 0.5661271563 0.0012686186
0.0021765077 0.5660953220 0.0012685028
0.0021763172 0.5660634858 0.0012683871
0.0021761177 0.5660301474 0.0012682659
0.0021758601 0.5659870896 0.0012681094
0.0021755190 0.5659300941 0.0012679022
0.0021750676 0.5658546438 0.0012676279
0.0021744699 0.5657547645 0.0012672648
0.0021736804 0.5656228208 0.0012667851
0.0021731521 0.5655335689 0.0012664699
0.2208047201 0.5647565482 0.0015140239
0.3820980181 0.5650012682 0.0020310329
0.4936524713 0.5640599292 0.0022912357
0.5778595986 0.5642275109 0.0010365817
0.6515998556 0.5629238316 0.0000015126
0.7215578410 0.5591896512 0.0000000000
0.7899553716 0.5516812522 0.0000998033
0.8529469724 0.5433142637 0.0017729284
0.9064667643 0.5364891532 0.0031724149
0.9485065708 0.5300755997 0.0036293595
0.9765612368 0.5231197674 0.0037024831
0.9898198164 0.5151383000 0.0036842143
0.9947729940 0.5053287800 0.0036332844
0.9969271063 0.4926760430 0.0035581010
0.9980893728 0.4751388543 0.0034520557
0.9988186889 0.4497586456 0.0033008824
0.9992492351 0.4107912488 0.0030827755
0.9995926849 0.3435670715 0.0027525678
0.9999071511 0.1866534352 0.0146621017
1.0000000000 0.0000000000 0.0230982229
1.0000000000 0.0000000000 0.0231080712
0.0025950260 0.6235619071 0.0015584600
0.0025948223 0.6235381894 0.0015583093
0.0025946185 0.6235144706 0.0015581586
0.0025944147 0.6234907509 0.0015580079
0.0025942110 0.6234670303 0.0015578572
0.0025939976 0.6234421909 0.0015576994
0.0025937220 0.6234101104 0.0015574955
0.0025933572 0.6233676470 0.0015572258
0.0025928743 0.6233114363 0.0015568686
0.0025922351 0.6232370296 0.0015563959
0.0025913888 0.6231385277 0.0015557701
0.0025902686 0.6230081265 0.0015549416
0.0705630477 0.6230093764 0.0015610885
0.2971678587 0.6227106890 0.0016204869
0.4515558162 0.6246661096 0.0006630466
0.5589580716 0.6235438894 0.0000000000
0.6422113859 0.6225761128 0.0000000000
0.7132137965 0.6209611815 0.0000000000
0.7807626179 0.6180902172 0.0000000000
0.8457535819 0.6126136369 0.0000201101
0.9012810158 0.6059566908 0.0002328695
0.9442420315 0.5994118408 0.0016368980
0.9738777665 0.5932910866 0.0031589139
0.9886958378 0.5870437124 0.0037329051
0.9941901317 0.5798165455 0.0038586242
0.9966179116 0.5708055007 0.0039081209
0.9979047359 0.5587274010 0.0039296323
0.9987138724 0.5419162048 0.0038616922
0.9991945357 0.5174905420 0.0037199992
0.9995671106 0.4803284593 0.0034864829
0.9999020242 0.4181482091 0.0031253614
1.0000000000 0.2863891768 0.0030100650
1.0000000000 0.0000000000 0.0230806869
0.0031550021 0.6800369977 0.0019514359
0.0031547375 0.6800192431 0.0019512988
0.0031544730 0.6800014880 0.0019511618
0.0031542084 0.6799837324 0.0019510247
0.0031539438 0.6799659763 0.0019508876
0.0031536667 0.6799473830 0.0019507441
0.0031533089 0.6799233698 0.0019505587
0.0031528352 0.6798915853 0.0019503134
0.0031522083 0.6798495119 0.0019499886
0.0031513784 0.6797938209 0.0019495587
0.0031502798 0.6797200988 0.0019489896
0.0031488256 0.6796225081 0.0019482363
0.0031469004 0.6794933127 0.0019472390
0.1573117858 0.6795819479 0.0019694533
0.3741158489 0.6817313175 0.0017378051
0.5156299290 0.6829864403 0.0015590834
0.6222983320 0.6815698440 0.0000134919
0.7031998464 0.6800184796 0.0000000000
0.7737833462 0.6784415845 0.0000000000
0.8393834306 0.6751279912 0.0003688419
0.8967422370 0.6709488255 0.0050503700
0.9416246273 0.6665178825 0.0081147335
0.9726200004 0.6617175909 0.0077697277
0.9883074183 0.6566652943 0.0066243112
0.9939270277 0.6510677311 0.0056348254
0.9964701870 0.6443322122 0.0048344611
0.9977828379 0.6355407250 0.0039695471
0.9986132149 0.6236351468 0.0031473379
0.9991115335 0.6071007996 0.0035524289
0.9995113480 0.5830535824 0.0039434520
0.9998901406 0.5470133956 0.0038957543
1.0000000000 0.4875290225 0.0035324187
1.0000000000 0.3682392552 0.0028728054
0.0042601590 0.7354317592 0.0023829117
0.0042598395 0.7354186307 0.0023828086
0.0042595199 0.7354055019 0.0023827056
0.0042592003 0.7353923729 0.0023826025
0.0042588807 0.7353792436 0.0023824995
0.0042585461 0.7353654954 0.0023823915
0.0042581139 0.7353477399 0.0023822522
0.0042575418 0.7353242385 0.0023820677
0.0042567846 0.7352931301 0.0023818235
0.0042557823 0.7352519540 0.0023815003
0.0042544556 0.7351974481 0.0023810724
0.0042526994 0.7351252983 0.0023805060
0.0042503745 0.7350297882 0.0023797563
0.0042472968 0.7349033508 0.0023787638
0.2262774338 0.7352237450 0.0022816211
0.4439468463 0.7390988412 0.0023679291
0.5783612957 0.7390403797 0.0014523301
