test_isolated/config/Action 6/Normalization/DJI OSMO Action 6 D-LogM to Rec.709 LUT-11.17.cube
LUT_3D_SIZE 33
0 0 0
0.00807202 0 0
0.0187533 0 0
0.0345922 0 0
0.0561074 0 0
0.0822309 0 0
0.11223 0 0
0.144793 0 0
0.179919 0 0
0.217288 0 0
0.257008 0 0
0.298085 0 0
0.339544 0 0
0.381872 0 0
0.422538 0 0
0.459113 0 0
0.492454 0 0
0.524514 0 0
0.557305 0 0
0.59144 0 0
0.626261 0 0
0.661585 0 0
0.697444 0 0
0.733425 0 0
0.769909 0 0
0.807294 0 0
0.84506 0 0
0.881788 0 0
0.916259 0 0
0.948669 0 0
0.980423 0 0
1 0 0
1 0 0
0 0.00604257 0
0.00334173 0.00477607 0
0.0153048 0.00184634 0
0.0312505 0 0
0.0526741 0 0
0.0788128 0 0
0.108766 0 0
0.141558 0 0
0.176822 0 0
0.215976 0 0
0.257847 0 0
0.301076 0 0
0.343618 0 0
0.387839 0 0
0.428885 0 0
0.465721 0 0
0.499748 0 0
0.532464 0 0
0.565988 0 0
0.601221 0 0
0.636881 0 0
0.672663 0 0
0.708705 0 0
0.744732 0 0
0.781857 0 0
0.819654 0 0
0.857145 0 0
0.893233 0 0
0.927443 0 0
0.960235 0 0
0.991516 0 0
1 0 0
1 0 0
0 0.0145113 0
0 0.0137789 0
0.0110475 0.0125429 0
0.0286564 0.00796521 0
0.0507362 0.00146487 0
0.0778668 0 0
0.109453 0 0
0.143755 0 0
0.181109 0 0
0.221302 0 0
0.263996 0 0
0.308125 0 0
0.351995 0 0
0.395911 0 0
0.437034 0 0
0.473594 0 0
0.50753 0 0
0.540719 0 0
0.574823 0 0
0.61001 0 0
0.645884 0 0
0.682155 0 0
0.718242 0 0
0.754437 0 0
0.79115 0 0
0.83241 0 0
0.870253 0 0
0.906447 0 0
0.94081 0 0
0.973541 0 0
1 0 0
1 0 0
1 0 0
0 0.0256809 0
0 0.0254978 0
0.00137331 0.0259556 0
0.023682 0.0250553 0
0.0489967 0.0198825 0
0.0779278 0.0131228 0
0.110643 0.00477607 0
0.146502 0 0
0.184649 0 0
0.225818 0 0
0.268864 0 0
0.313313 0 0
0.357885 0 0
0.402426 0 0
0.443473 0 0
0.480034 0 0
0.514214 0 0
0.548043 0 0
0.582498 0 0
0.618097 0 0
0.654169 0 0
0.690593 0 0
0.727321 0 0
0.763928 0 0
0.801343 0 0
0.839475 0 0
0.877226 0 0
0.913741 0 0
0.948257 0 0
0.98056 0 0
1 0 0
1 0 0
1 0 0
0 0.042771 0
0 0.0443122 0
0 0.0458686 0
0.0129549 0.0466468 0
0.0436103 0.0447852 0
0.0747845 0.0387121 0
0.108751 0.0310521 0
0.145647 0.0226291 0
0.184787 0.0133364 0
0.227207 0.00321965 0
0.272068 0 0
0.317235 0 0
0.362203 0 0
0.406683 0 0
0.448127 0 0
0.485039 0 0
0.519142 0 0
0.552743 0 0
0.587381 0 0
0.62295 0 0
0.659251 0 0
0.69546 0 0
0.731838 0 0
0.768338 0 0
0.805753 0 0
0.844297 0 0
0.882139 0 0
0.918395 0 0
0.952758 0 0
0.98526 0 0
1 0 0
1 0 0
1 0 0
0 0.0648814 0
0 0.0673838 0
0 0.0697642 0
0.00273136 0.0715496 0
0.0306554 0.0717327 0
0.0687419 0.0696269 0
0.10486 0.0628367 0
0.143236 0.0548562 0
0.183581 0.0464027 0
0.226688 0.0369268 0
0.272343 0.026566 0
0.318914 0.0160678 0
0.364889 0.00622568 0
0.410285 0 0
0.452308 0 0
0.489174 0 0
0.523293 0 0
0.556939 0 0
0.591562 0 0
0.627298 0 0
0.663142 0 0
0.699168 0 0
0.735653 0 0
0.772274 0 0
0.809964 0 0
0.848188 0 0
0.886015 0 0
0.922316 0 0
0.956939 0 0
0.989593 0 0
1 0 0
1 0 0
1 0 0
0 0.0913405 0
0 0.094255 0
0 0.0977798 0
0 0.10042 0
0.0196384 0.102052 0
0.0540322 0.101915 0
0.098436 0.0991684 0
0.138811 0.0922713 0
0.180499 0.0840772 0
0.224567 0.0749523 0
0.270527 0.0651102 0
0.31722 0.0551614 0
0.363958 0.0457313 0
0.409735 0.0364996 0
0.45275 0.0289464 0
0.490394 0.0235904 0
0.525154 0.0196841 0
0.559319 0.0166934 0
0.594263 0.0131838 0
0.630137 0.00955215 0
0.666331 0.00587472 0
0.702724 0.00222782 0
0.73933 0 0
0.776272 0 0
0.814038 0 0
0.852445 0 0
0.890517 0 0
0.927062 0 0
0.962386 0 0
0.995331 0 0
1 0 0
1 0 0
1 0 0
0 0.121447 0
0 0.125231 0
0 0.129396 0
0 0.13283 0
0.00939956 0.135058 0
0.0419928 0.136645 0
0.08336 0.135851 0
0.132082 0.132921 0
0.175311 0.125307 0
0.220188 0.116487 0
0.267475 0.106935 0
0.314733 0.0974441 0
0.361318 0.0881971 0
0.407431 0.0793164 0
0.450568 0.0720226 0
0.488975 0.0671244 0
0.524681 0.0640269 0
0.559289 0.0610513 0
0.594949 0.0578012 0
0.631601 0.0544289 0
0.668727 0.0511482 0
0.706203 0.0481727 0
0.743603 0.0451057 0
0.781048 0.0420539 0
0.819181 0.0388647 0
0.85803 0.0354772 0
0.896452 0.0323033 0
0.933776 0.0301823 0
0.969055 0.0284428 0
1 0.0276493 0
1 0.0272374 0
1 0.026978 0
1 0.0270237 0
0 0.154452 0
0 0.158892 0
0 0.163699 0
0 0.167666 0
0 0.170809 0
0.0318608 0.172763 0
0.0698253 0.173465 0
0.116701 0.171893 0
0.168276 0.168933 0
0.215122 0.160891 0
0.262959 0.151629 0
0.311574 0.142123 0
0.359136 0.133272 0
0.405493 0.125109 0
0.449424 0.118181 0
0.488701 0.113863 0
0.524742 0.110933 0
0.560037 0.108537 0
0.596277 0.10576 0
0.633463 0.102708 0
0.671595 0.0999619 0
0.709667 0.096849 0
0.747768 0.0937667 0
0.785901 0.0907149 0
0.824796 0.0873426 0
0.86453 0.0841688 0
0.903319 0.0808576 0
0.940612 0.0781262 0
0.976089 0.0761273 0
1 0.0749828 0
1 0.0743267 0
1 0.0741436 0
1 0.0737011 0
0 0.190204 0
0 0.195132 0
0 0.200717 0
0 0.204944 0
0 0.208286 0
0.0208896 0.21091 0
0.0577707 0.212497 0
0.100847 0.21294 0
0.152148 0.211292 0
0.207752 0.208225 0
0.257771 0.199435 0
0.307118 0.190326 0
0.355718 0.181781 0
0.404044 0.17409 0
0.449058 0.167452 0
0.48893 0.163058 0
0.525643 0.160418 0
0.561288 0.158328 0
0.59791 0.155978 0
0.63563 0.153155 0
0.673854 0.15024 0
0.712032 0.147051 0
0.75024 0.143984 0
0.788617 0.140795 0
0.828138 0.13756 0
0.867918 0.133608 0
0.907027 0.129854 0
0.944549 0.126757 0
0.980484 0.124376 0
1 0.123018 0
1 0.122484 0
1 0.12163 0
1 0.121126 0
0 0.227893 0
0 0.233692 0
0 0.239414 0
0 0.244144 0
0 0.247898 0
0.00975052 0.251164 0
0.0461585 0.253864 0
0.0873884 0.255344 0
0.134432 0.255421 0
0.190387 0.253193 0
0.250065 0.249989 0
0.301808 0.241443 0
0.351629 0.233524 0
0.400443 0.22565 0
0.44686 0.218921 0
0.488106 0.214527 0
0.525597 0.21181 0
0.562036 0.209934 0
0.599008 0.207675 0
0.636866 0.204776 0
0.675135 0.201617 0
0.713512 0.198337 0
0.751919 0.19498 0
0.790707 0.191897 0
0.829999 0.188022 0
0.870054 0.183871 0
0.909667 0.179995 0
0.947799 0.176699 0
0.984207 0.174502 0
1 0.172305 0
1 0.170718 0
1 0.169284 0
1 0.168154 0
0 0.267811 0
0 0.273823 0
0 0.280201 0
0 0.285603 0
0 0.28986 0
0 0.294026 0
0.0357824 0.297185 0
0.0764477 0.299474 0
0.121294 0.300847 0
0.17319 0.300465 0
0.23386 0.298131 0
0.295384 0.294987 0
0.347234 0.286915 0
0.396674 0.279179 0
0.443946 0.272312 0
0.48632 0.267781 0
0.524895 0.265003 0
0.5617 0.262592 0
0.599008 0.259846 0
0.637308 0.256504 0
0.675853 0.252888 0
0.714992 0.249683 0
0.753918 0.24622 0
0.792706 0.242634 0
0.83238 0.23859 0
0.872786 0.234226 0
0.912749 0.229709 0
0.951736 0.226062 0
0.988113 0.223087 0
1 0.220249 0
1 0.21767 0
1 0.215091 0
1 0.213413 0
0 0.309163 0
0 0.315587 0
0 0.322667 0
0 0.328878 0
0 0.33373 0
0 0.338033 0
0.0271 0.341802 0
0.0671092 0.344488 0
0.110918 0.346548 0
0.160494 0.347723 0
0.217334 0.346456 0
0.279988 0.343297 0
0.341176 0.340352 0
0.392538 0.332586 0
0.440589 0.325582 0
0.483787 0.320745 0
0.522789 0.317281 0
0.560418 0.314351 0
0.598459 0.311254 0
0.637736 0.307637 0
0.677378 0.304158 0
0.717052 0.300359 0
0.756451 0.296223 0
0.795773 0.292027 0
0.835721 0.287541 0
0.876448 0.28246 0
0.916884 0.277485 0
0.955367 0.272633 0
0.991684 0.268544 0
1 0.26482 0
1 0.261463 0
1 0.258366 0
1 0.255818 0
0 0.352163 0
0 0.359228 0
0 0.366934 0
0 0.37348 0
0 0.378698 0
0 0.383398 0
0.0193179 0.387396 0
0.0592813 0.390463 0
0.102861 0.393164 0
0.150271 0.394507 0
0.203464 0.394324 0
0.263752 0.392004 0
0.326543 0.388586 0
0.387045 0.386053 0
0.437385 0.378576 0
0.481498 0.373053 0
0.52134 0.369406 0
0.559594 0.366323 0
0.598398 0.362966 0
0.638544 0.358968 0
0.678904 0.354421 0
0.719326 0.349767 0
0.759335 0.34493 0
0.798856 0.339757 0
0.839063 0.334096 0
0.879896 0.328038 0
0.920073 0.321889 0
0.958709 0.316258 0
0.994873 0.311208 0
1 0.306493 0
1 0.302464 0
1 0.298726 0
1 0.295918 0
0 0.396689 0
0 0.404334 0
0 0.412024 0
0 0.418662 0
0 0.423941 0
0 0.428733 0
0.0137026 0.433066 0
0.0528878 0.436408 0
0.0952316 0.438666 0
0.141497 0.440009 0
0.192218 0.44036 0
0.249165 0.4392 0
0.311177 0.436591 0
0.373175 0.433371 0
0.431998 0.430732 0
0.478904 0.424887 0
0.519921 0.420401 0
0.558877 0.416815 0
0.598306 0.413077 0
0.638651 0.408164 0
0.67921 0.402518 0
0.719524 0.396689 0
0.759945 0.390692 0
0.800168 0.384649 0
0.840787 0.378073 0
0.8813 0.370916 0
0.921492 0.36376 0
0.96025 0.357336 0
0.996994 0.351736 0
1 0.346792 0
1 0.342107 0
1 0.337881 0
1 0.334783 0
0 0.440833 0
0 0.448188 0
0 0.455894 0
0 0.462486 0
0 0.467765 0
0 0.472984 0
0.0106508 0.477119 0
0.0488594 0.480293 0
0.0906233 0.482765 0
0.13637 0.484443 0
0.186023 0.485176 0
0.240497 0.485008 0
0.299565 0.482734 0
0.361578 0.479255 0
0.42211 0.475868 0
0.476158 0.473838 0
0.519173 0.468894 0
0.55848 0.46392 0
0.597589 0.4589 0
0.638041 0.453285 0
0.678874 0.44686 0
0.719539 0.44004 0
0.760204 0.43328 0
0.800244 0.426352 0
0.841123 0.418906 0
0.882475 0.411063 0
0.923461 0.403372 0
0.9626 0.396536 0
1 0.390631 0
1 0.385199 0
1 0.380133 0
1 0.375662 0
1 0.372671 0
0 0.484047 0
0 0.491386 0
0 0.499016 0
0 0.505776 0
0 0.511177 0
0 0.516136 0
0.00917067 0.520439 0
0.0468757 0.523796 0
0.0877394 0.526299 0
0.132952 0.528115 0
0.181353 0.528832 0
0.234028 0.528359 0
0.290791 0.52636 0
0.35082 0.522713 0
0.411505 0.518227 0
0.467124 0.515175 0
0.515831 0.513191 0
0.556985 0.507408 0
0.597025 0.501198 0
0.637385 0.494514 0
0.678203 0.487388 0
0.719524 0.480278 0
0.760327 0.472755 0
0.800931 0.465202 0
0.841978 0.457465 0
0.883833 0.449302 0
0.925658 0.441489 0
0.966171 0.434318 0
1 0.427955 0
1 0.422446 0
1 0.417288 0
1 0.412772 0
1 0.409735 0
0 0.526421 0
0 0.533822 0
0 0.541894 0
0 0.548821 0
0 0.554177 0
0 0.559045 0
0.00547799 0.56318 0
0.0423285 0.566354 0
0.0826886 0.569024 0
0.127001 0.570489 0
0.174258 0.570413 0
0.225498 0.569177 0
0.28014 0.566918 0
0.337728 0.563348 0
0.398383 0.558618 0
0.454887 0.553933 0
0.504875 0.550713 0
0.551354 0.548241 0
0.593194 0.541741 0
0.634821 0.53434 0
0.676539 0.526619 0
0.717922 0.518868 0
0.759319 0.51104 0
0.800595 0.503243 0
0.842496 0.495216 0
0.885313 0.487098 0
0.927703 0.479225 0
0.96907 0.471931 0
1 0.465385 0
1 0.459815 0
1 0.454673 0
1 0.450248 0
1 0.447074 0
0 0.569909 0
0 0.577874 0
0 0.585565 0
0 0.592264 0
0 0.597498 0
0 0.602213 0
0 0.606058 0
0.033051 0.608606 0
0.0722362 0.610086 0
0.11548 0.610574 0
0.162219 0.610269 0
0.212222 0.608469 0
0.26569 0.605722 0
0.321538 0.60209 0
0.380484 0.597055 0
0.437675 0.591913 0
0.48957 0.587762 0
0.537896 0.584527 0
0.585229 0.581704 0
0.628595 0.574151 0
0.671687 0.565835 0
0.714229 0.557733 0
0.756283 0.549874 0
0.798123 0.542123 0
0.840833 0.534157 0
0.884428 0.526055 0
0.927901 0.517876 0
0.96997 0.510369 0
1 0.504158 0
1 0.498695 0
1 0.493812 0
1 0.489357 0
1 0.486015 0
0 0.614237 0
0 0.621775 0
0 0.629313 0
0 0.635386 0
0 0.639765 0
0 0.643854 0
0 0.647211 0
0.0182345 0.649042 0
0.0565042 0.64979 0
0.0990921 0.649638 0
0.145296 0.648524 0
0.194934 0.64651 0
0.247822 0.643549 0
0.302495 0.639658 0
0.35996 0.634791 0
0.416831 0.629664 0
0.470161 0.625208 0
0.520363 0.621759 0
0.569528 0.618158 0
0.618677 0.614527 0
0.663661 0.606378 0
0.707698 0.597955 0
0.750957 0.589914 0
0.793988 0.582422 0
0.837354 0.574487 0
0.881468 0.566354 0
0.925551 0.558312 0
0.968078 0.551003 0
1 0.544594 0
1 0.539178 0
1 0.534127 0
1 0.529671 0
1 0.526406 0
0 0.657389 0
0 0.664271 0
0 0.67126 0
0 0.676921 0
0 0.680995 0
0 0.684047 0
0 0.686488 0
0 0.687861 0
0.0373541 0.68838 0
0.0792859 0.687877 0
0.125628 0.686488 0
0.175509 0.68394 0
0.228016 0.68069 0
0.281621 0.677012 0
0.338048 0.672465 0
0.394797 0.667582 0
0.448936 0.663371 0
0.50016 0.659571 0
0.550454 0.655818 0
0.601022 0.651972 0
0.652201 0.648005 0
0.69836 0.639887 0
0.743343 0.631922 0
0.787305 0.624155 0
0.831159 0.616403 0
0.875715 0.608347 0
0.920439 0.600229 0
0.963272 0.592889 0
1 0.586694 0
1 0.581094 0
1 0.575906 0
1 0.571252 0
1 0.567864 0
0 0.699062 0
0 0.705287 0
0 0.711513 0
0 0.716838 0
0 0.72018 0
0 0.722789 0
0 0.724788 0
0 0.725933 0
0.0160067 0.726101 0
0.0585946 0.725628 0
0.105104 0.723781 0
0.155215 0.721141 0
0.207828 0.717922 0
0.261799 0.71429 0
0.317235 0.710155 0
0.373175 0.706065 0
0.42707 0.7019 0
0.47892 0.69807 0
0.530495 0.694316 0
0.582681 0.690364 0
0.635416 0.686397 0
0.687541 0.682628 0
0.733883 0.674846 0
0.778744 0.666835 0
0.823545 0.658808 0
0.868513 0.650675 0
0.913176 0.64268 0
0.956603 0.635477 0
0.997284 0.629007 0
1 0.623346 0
1 0.61828 0
1 0.613336 0
1 0.609918 0
0 0.738811 0
0 0.744884 0
0 0.75108 0
0 0.755673 0
0 0.758648 0
0 0.760861 0
0 0.762646 0
0 0.763821 0
0 0.764035 0
0.0378882 0.763195 0
0.0846571 0.761334 0
0.135653 0.758526 0
0.188815 0.755306 0
0.243168 0.751965 0
0.298253 0.748394 0
0.353826 0.744381 0
0.407172 0.740703 0
0.458686 0.737255 0
0.510445 0.733608 0
0.563577 0.729519 0
0.617273 0.72546 0
0.670375 0.721202 0
0.722194 0.71725 0
0.768597 0.70956 0
0.814404 0.701228 0
0.860059 0.692897 0
0.90515 0.684993 0
0.948104 0.677699 0
0.988907 0.671107 0
1 0.665385 0
1 0.660288 0
1 0.655406 0
1 0.651942 0
0 0.77821 0
0 0.783993 0
0 0.789746 0
0 0.794064 0
0 0.796872 0
0 0.798947 0
0 0.800809 0
0 0.801892 0
0 0.801831 0
0.0182803 0.80087 0
0.0659342 0.799054 0
0.117144 0.796414 0
0.171572 0.793164 0
0.226352 0.790036 0
0.281392 0.78648 0
0.336019 0.782895 0
0.388724 0.779522 0
0.439841 0.776318 0
0.491463 0.773083 0
0.544503 0.769039 0
0.599176 0.764385 0
0.653178 0.759823 0
0.705898 0.755535 0
0.757168 0.751568 0
0.803998 0.743618 0
0.850111 0.735256 0
0.895415 0.726925 0
0.938659 0.719326 0
0.979187 0.712963 0
1 0.707271 0
1 0.702022 0
1 0.697246 0
1 0.693675 0
0 0.817304 0
0 0.823087 0
0 0.828763 0
0 0.83299 0
0 0.835615 0
0 0.837858 0
0 0.839429 0
0 0.840299 0
0 0.840131 0
0 0.839124 0
0.0478828 0.837186 0
0.100359 0.834699 0
0.155062 0.831678 0
0.21004 0.82826 0
0.26479 0.824765 0
0.319036 0.821256 0
0.371511 0.81796 0
0.421653 0.815229 0
0.472358 0.81207 0
0.524804 0.808118 0
0.579492 0.803418 0
0.634165 0.798611 0
0.68748 0.794079 0
0.739559 0.789853 0
0.791333 0.78587 0
0.83859 0.777478 0
0.884443 0.768841 0
0.927764 0.761166 0
0.968521 0.754513 0
1 0.749065 0
1 0.744213 0
1 0.739437 0
1 0.736202 0
0 0.856794 0
0 0.862562 0
0 0.868299 0
0 0.872389 0
0 0.875273 0
0 0.877104 0
0 0.87866 0
0 0.87953 0
0 0.87921 0
0 0.877928 0
0.0308995 0.876005 0
0.0835889 0.873198 0
0.13875 0.869673 0
0.193729 0.866133 0
0.248478 0.862547 0
0.302525 0.859007 0
0.354467 0.856138 0
0.403922 0.853559 0
0.453529 0.850538 0
0.504829 0.846906 0
0.558801 0.842374 0
0.614176 0.837308 0
0.668513 0.832639 0
0.721126 0.828122 0
0.773404 0.823636 0
0.825315 0.819287 0
0.8719 0.811276 0
0.916014 0.803555 0
0.957153 0.79707 0
0.996017 0.791638 0
1 0.78677 0
1 0.782071 0
1 0.778881 0
0 0.896345 0
0 0.902556 0
0 0.908217 0
0 0.912505 0
0 0.914885 0
0 0.916503 0
0 0.917784 0
0 0.918364 0
0 0.917861 0
0 0.916487 0
0.015671 0.914137 0
0.068925 0.910918 0
0.124422 0.907149 0
0.179767 0.903365 0
0.233722 0.899855 0
0.287541 0.89659 0
0.338643 0.893523 0
0.387167 0.890852 0
0.436057 0.887907 0
0.486442 0.884428 0
0.539528 0.880186 0
0.594125 0.875547 0
0.648997 0.870863 0
0.702144 0.866331 0
0.755199 0.861799 0
0.807904 0.857328 0
0.85919 0.853254 0
0.904616 0.846204 0
0.946059 0.839597 0
0.984878 0.833967 0
1 0.829084 0
1 0.824323 0
1 0.821164 0
0 0.936095 0
0 0.942107 0
0 0.947951 0
0 0.951537 0
0 0.953613 0
0 0.954879 0
0 0.955978 0
0 0.956207 0
0 0.955566 0
