test_isolated/config/Action 6/Normalization/DJI OSMO Action 6 D-LogM to Rec.709 LUT-11.17.cube
LUT_3D_SIZE 5
0 0 0
0.179919 0 0
0.492454 0 0
0.769909 0 0
1 0 0
0 0.154452 0
0.168276 0.168933 0
0.524742 0.110933 0
0.824796 0.0873426 0
1 0.0737011 0
0 0.484047 0
0.0877394 0.526299 0
0.515831 0.513191 0
0.841978 0.457465 0
1 0.409735 0
0 0.817304 0
0 0.840131 0
0.371511 0.81796 0
0.791333 0.78587 0
1 0.736202 0
0 1 0
0 1 0
0.3122 1 0
0.695537 1 0
1 1 0
0 0 0.198077
0.160403 0 0.163439
0.482918 0 0.0785077
0.765164 0 0.0336156
1 0 0.00958267
0 0.164187 0.157427
0.172946 0.176654 0.174823
0.521141 0.12665 0.140352
0.821439 0.104967 0.131197
1 0.0894636 0.126909
0 0.494804 0.113191
0.110903 0.532753 0.142611
0.517464 0.518914 0.0971237
0.843641 0.460609 0.0603952
1 0.41387 0.0293431
0 0.821225 0.0386206
0 0.839216 0.0376287
0.379721 0.817197 0
0.788327 0.787579 0
1 0.738964 0
0 1 0
0 1 0.00634775
0.335515 1 0.00488289
0.69337 1 0.0121309
1 1 0.0487068
0 0 0.52163
0.0832227 0 0.496849
0.457267 0 0.462852
0.741466 0 0.422019
1 0 0.398108
0 0.1131 0.514183
0.113481 0.132372 0.508995
0.510109 0.131426 0.514427
0.811109 0.109606 0.505669
1 0.0923018 0.500999
0 0.512963 0.494942
0.0691691 0.542 0.527932
0.503578 0.511406 0.506477
0.81738 0.456474 0.465599
1 0.411444 0.433646
0 0.822583 0.444175
0 0.830274 0.454643
0.400046 0.79704 0.43061
0.771466 0.778241 0.408499
1 0.732845 0.396689
0 1 0.402777
0 1 0.421592
0.367514 1 0.418814
0.694575 1 0.419516
0.999817 1 0.426963
0 0 0.790631
0.0237125 0 0.772091
0.405814 0 0.741054
0.72665 0 0.734081
0.986435 0 0.709407
0 0.0766003 0.789822
0.0696117 0.10074 0.788952
0.470588 0.102022 0.788022
0.808408 0.11751 0.814847
1 0.0966049 0.811261
0 0.484001 0.799588
0.0172885 0.506294 0.838178
0.451926 0.472648 0.803601
0.804471 0.453147 0.809247
1 0.409201 0.78146
0 0.841657 0.810025
0 0.846555 0.819745
0.365026 0.800992 0.784009
0.762905 0.774533 0.766613
1 0.734997 0.739467
0 1 0.74786
0 1 0.755154
0.375998 1 0.73962
0.715373 1 0.739361
0.988205 0.999222 0.735363
0 0 1
0 0 1
0.362219 0 0.991577
0.687953 0 0.985473
0.975097 0 0.984405
0 0.0477302 1
0.0335851 0.0756695 1
0.436805 0.0777905 1
0.773068 0.092958 1
1 0.0990921 1
0 0.455009 1
0 0.47155 1
0.408103 0.440284 1
0.757366 0.421683 1
1 0.408286 1
0 0.809903 1
0 0.815106 1
0.313375 0.767773 1
0.719448 0.743435 1
1 0.736706 1
0 1 1
0 1 1
0.326604 1 1
0.694728 1 1
0.98204 0.995712 0.986084
