test_isolated/config/Action 6/Normalization/DJI OSMO Action 6 D-LogM to Rec.709 LUT-11.17.cube
LUT_3D_SIZE 9
0 0 0
0.0561074 0 0
0.179919 0 0
0.339544 0 0
0.492454 0 0
0.626261 0 0
0.769909 0 0
0.916259 0 0
1 0 0
0 0.042771 0
0.0436103 0.0447852 0
0.184787 0.0133364 0
0.362203 0 0
0.519142 0 0
0.659251 0 0
0.805753 0 0
0.952758 0 0
1 0 0
0 0.154452 0
0 0.170809 0
0.168276 0.168933 0
0.359136 0.133272 0
0.524742 0.110933 0
0.671595 0.0999619 0
0.824796 0.0873426 0
0.976089 0.0761273 0
1 0.0737011 0
0 0.309163 0
0 0.33373 0
0.110918 0.346548 0
0.341176 0.340352 0
0.522789 0.317281 0
0.677378 0.304158 0
0.835721 0.287541 0
0.991684 0.268544 0
1 0.255818 0
0 0.484047 0
0 0.511177 0
0.0877394 0.526299 0
0.290791 0.52636 0
0.515831 0.513191 0
0.678203 0.487388 0
0.841978 0.457465 0
1 0.427955 0
1 0.409735 0
0 0.657389 0
0 0.680995 0
0.0373541 0.68838 0
0.228016 0.68069 0
0.448936 0.663371 0
0.652201 0.648005 0
0.831159 0.616403 0
1 0.586694 0
1 0.567864 0
0 0.817304 0
0 0.835615 0
0 0.840131 0
0.155062 0.831678 0
0.371511 0.81796 0
0.579492 0.803418 0
0.791333 0.78587 0
0.968521 0.754513 0
1 0.736202 0
0 0.97499 0
0 0.990997 0
0 0.991363 0
0.104662 0.978317 0
0.316808 0.964324 0
0.511757 0.953582 0
0.72578 0.935683 0
0.926009 0.919676 0
1 0.899748 0
0 1 0
0 1 0
0 1 0
0.10605 1 0
0.3122 1 0
0.497292 1 0
0.695537 1 0
0.88661 1 0
1 1 0
0 0 0.0603952
0.0504921 0 0.0523537
0.174319 0 0.0156252
0.33695 0 0
0.491188 0 0
0.626352 0 0
0.771527 0 0
0.917266 0 0
1 0 0
0 0.0450599 0.0427863
0.0442969 0.0465248 0.0458839
0.183536 0.0178225 0.0237736
0.36257 0 0
0.520897 0 0
0.661616 0 0
0.809674 0 0
0.957107 0 0
1 0 0
0 0.158328 0.00784314
0.0104219 0.174334 0.0232395
0.173266 0.175204 0.0241855
0.362814 0.141115 0.0087129
0.528176 0.120073 3.0518e-05
0.674662 0.109895 0
0.826185 0.0981308 0
0.97644 0.0870832 0
1 0.084947 0
0 0.315435 0
0 0.340337 0
0.123033 0.353597 0.00958267
0.348226 0.34905 0.00390631
0.529198 0.325841 0
0.683238 0.312566 0
0.84152 0.295155 0
0.996506 0.27451 0
1 0.26067 0
0 0.491341 0
0 0.518059 0
0.0985122 0.532586 0.00123598
0.296941 0.532555 0
0.519951 0.518578 0
0.682399 0.4916 0
0.846448 0.461067 0
1 0.431708 0
1 0.413657 0
0 0.663783 0
0 0.685405 0
0.0437018 0.691493 0
0.233936 0.683467 0
0.449775 0.667292 0
0.65481 0.651957 0
0.833875 0.620447 0
1 0.590387 0
1 0.571588 0
0 0.82182 0
0 0.839323 0
0 0.842786 0
0.164019 0.83331 0
0.37612 0.820523 0
0.580392 0.807034 0
0.792676 0.788846 0
0.968917 0.757778 0
1 0.739406 0
0 0.978866 0
0 0.993286 0
0 0.991974 0
0.115663 0.978058 0
0.325002 0.964981 0
0.515267 0.955352 0
0.726375 0.937819 0
0.925536 0.921279 0
1 0.900923 0
0 1 0
0 1 0
0 1 0
0.120073 1 0
0.323613 1 0
0.5037 1 0
0.695903 1 0
0.884459 1 0
1 1 0
0 0 0.198077
0.0184634 0 0.187915
0.160403 0 0.163439
0.326421 0 0.115724
0.482918 0 0.0785077
0.619959 0 0.0550546
0.765164 0 0.0336156
0.910979 0 0.0159762
1 0 0.00958267
0 0.0216983 0.18468
0.0169985 0.0252384 0.185397
0.175555 0.0174411 0.178485
0.355367 0 0.144396
0.514595 0 0.122667
0.655482 0 0.109453
0.803845 0 0.0974594
0.951644 0 0.0888991
1 0 0.0912184
0 0.164187 0.157427
0 0.178119 0.172732
0.172946 0.176654 0.174823
0.356023 0.146212 0.152667
0.521141 0.12665 0.140352
0.667781 0.116854 0.136645
0.821439 0.104967 0.131197
0.973358 0.0927901 0.125399
1 0.0894636 0.126909
0 0.318898 0.116258
0 0.342809 0.141146
0.137972 0.354177 0.155016
0.349874 0.353246 0.149859
0.529534 0.330159 0.142016
0.681422 0.316854 0.13756
0.839506 0.298314 0.128573
0.993835 0.276555 0.114717
1 0.262348 0.1037
0 0.494804 0.113191
0 0.520577 0.136049
0.110903 0.532753 0.142611
0.300801 0.532433 0.122271
0.517464 0.518914 0.0971237
0.679881 0.491249 0.0786603
0.843641 0.460609 0.0603952
1 0.431525 0.0413062
1 0.41387 0.0293431
0 0.665751 0.102205
0 0.685237 0.108461
0.0518196 0.688457 0.0988479
0.23975 0.679805 0.0703288
0.445747 0.66656 0.0303807
0.651026 0.65127 0.0171969
0.829969 0.619928 0.000732433
1 0.590005 0
1 0.571466 0
0 0.821225 0.0386206
0 0.837842 0.0433661
0 0.839216 0.0376287
0.173434 0.828748 0.018143
0.379721 0.817197 0
0.575753 0.805936 0
0.788327 0.787579 0
0.963775 0.757305 0
1 0.738964 0
0 0.977386 0
0 0.990066 0
0 0.986816 0
0.128344 0.972045 0
0.333837 0.959579 0
0.517006 0.95198 0
0.722286 0.936385 0
0.920455 0.919173 0
1 0.899001 0
0 1 0
0 1 0
0 1 0.00634775
0.135821 1 0.00680552
0.335515 1 0.00488289
0.510155 1 0.00875868
0.69337 1 0.0121309
0.878569 1 0.0255283
1 1 0.0487068
0 0 0.37525
0 0 0.365148
0.118502 0 0.339101
0.310109 0 0.314717
0.469566 0 0.276951
0.607462 0 0.253529
0.752773 0 0.231418
0.898955 0 0.213413
1 0 0.207095
0 0 0.363546
0 0 0.368795
0.139071 0 0.360571
0.343023 0 0.347433
0.50277 0 0.324453
0.644388 0 0.31078
0.79263 0 0.297856
0.940917 0 0.288716
1 0 0.291325
0 0.137301 0.354177
0 0.151049 0.365072
0.139956 0.151965 0.353338
0.348409 0.147295 0.351797
0.514336 0.128573 0.339544
0.66154 0.118975 0.335546
0.815213 0.10692 0.329503
0.967422 0.0944228 0.323308
1 0.0904707 0.324865
0 0.329 0.316655
0 0.351873 0.340887
0.121416 0.359228 0.351186
0.347509 0.353292 0.349935
0.519356 0.332509 0.336461
0.670665 0.319173 0.329519
0.827375 0.299886 0.317067
0.981109 0.276844 0.30106
1 0.261753 0.291096
0 0.501259 0.301808
0 0.524834 0.32874
0.109697 0.531914 0.337285
0.310353 0.525307 0.327901
0.509941 0.514946 0.306432
0.670909 0.486809 0.289799
0.831937 0.45745 0.269963
0.992447 0.428565 0.250629
1 0.411337 0.240558
0 0.666194 0.295506
0 0.683055 0.308354
0.0505531 0.68278 0.301549
0.249317 0.669734 0.281651
0.442969 0.659632 0.255146
0.642618 0.646677 0.239582
0.820523 0.61561 0.224109
0.990204 0.586206 0.211398
1 0.568643 0.206577
0 0.818143 0.241657
0 0.832929 0.253544
0 0.83267 0.248035
0.186145 0.81854 0.233814
0.387152 0.807202 0.21677
0.568338 0.80032 0.19765
0.779416 0.782513 0.191821
0.953475 0.753246 0.182727
1 0.735363 0.184237
0 0.972061 0.198428
0 0.983368 0.213657
0 0.978134 0.212268
0.143633 0.961089 0.204562
0.345693 0.948623 0.19762
0.520928 0.943008 0.188937
0.714336 0.931319 0.182773
0.911208 0.914092 0.196521
1 0.893782 0.201602
0 1 0.198276
0 1 0.216907
0 1 0.22269
0.154238 1 0.222553
0.350439 1 0.22826
0.519661 1 0.229984
0.690715 1 0.226688
0.869398 1 0.230365
1 1 0.248096
0 0 0.52163
0 0 0.514443
0.0832227 0 0.496849
0.2748 0 0.475715
0.457267 0 0.462852
0.595804 0 0.442023
0.741466 0 0.422019
0.887388 0 0.40473
1 0 0.398108
0 0 0.517021
0 0 0.523766
0.11017 0 0.517159
0.31519 0 0.503807
0.494362 0 0.499565
0.636103 0 0.48719
0.784482 0 0.475135
0.933562 0 0.466361
1 0 0.467689
0 0.1131 0.514183
0 0.129229 0.517143
0.113481 0.132372 0.508995
0.323293 0.128313 0.506752
0.510109 0.131426 0.514427
0.657801 0.122362 0.511299
0.811109 0.109606 0.505669
0.963638 0.096788 0.499931
1 0.0923018 0.500999
0 0.309895 0.494163
0 0.333913 0.515328
0.0917983 0.340261 0.524193
0.321157 0.333974 0.510155
0.515358 0.334203 0.518486
0.667048 0.31989 0.513756
0.823209 0.298665 0.502892
0.975998 0.274174 0.487907
1 0.258228 0.478828
0 0.512963 0.494942
0 0.536706 0.519844
0.0691691 0.542 0.527932
0.289097 0.528176 0.518471
0.503578 0.511406 0.506477
0.657496 0.485115 0.48719
0.81738 0.456474 0.465599
0.977188 0.428428 0.444877
1 0.411444 0.433646
0 0.675853 0.487266
0 0.690776 0.500267
0.0204013 0.68632 0.49659
0.244114 0.665354 0.481376
0.452293 0.650263 0.468833
0.634653 0.642542 0.45594
0.809735 0.611933 0.441245
0.975723 0.584222 0.425818
1 0.566964 0.418082
0 0.822583 0.444175
0 0.835355 0.456321
0 0.830274 0.454643
0.188937 0.81207 0.442115
0.400046 0.79704 0.43061
0.569619 0.792264 0.420447
0.771466 0.778241 0.408499
0.943572 0.749599 0.398077
1 0.732845 0.396689
0 0.972 0.407568
0 0.980911 0.420951
0 0.972778 0.420996
0.150439 0.953735 0.409827
0.36112 0.938567 0.404547
0.53106 0.933425 0.404135
0.710018 0.925948 0.394858
0.903487 0.909545 0.398886
1 0.889799 0.399084
0 1 0.402777
0 1 0.417884
0 1 0.421592
0.165072 1 0.415732
0.367514 1 0.418814
0.532021 1 0.424796
0.694575 1 0.419516
0.861677 1 0.415091
0.999817 1 0.426963
0 0 0.652033
0 0 0.645655
0.0542153 0 0.630762
0.24715 0 0.610529
0.432471 0 0.598703
0.58822 0 0.594766
0.734157 0 0.575677
0.879759 0 0.558495
0.994247 0 0.551583
0 0 0.652384
0 0 0.661982
0.0855879 0 0.655772
0.29247 0 0.641443
0.473182 0 0.635004
0.631022 0 0.637171
0.780209 0 0.625132
0.92987 0 0.616312
1 0 0.617563
0 0.0950637 0.647501
0 0.112627 0.651194
0.0922103 0.117067 0.644831
0.303273 0.113771 0.641352
0.490852 0.117357 0.647272
0.656352 0.126665 0.661662
0.809934 0.113924 0.656199
0.962982 0.100587 0.650721
1 0.0948959 0.651728
0 0.294408 0.640284
0 0.318502 0.659434
0.0782483 0.324498 0.659632
0.301015 0.31989 0.645274
0.495155 0.319402 0.654093
0.665339 0.321401 0.669718
0.821515 0.29868 0.659541
0.974472 0.273152 0.645167
1 0.256535 0.636683
0 0.500389 0.64477
0 0.522942 0.671519
0.0392004 0.52636 0.68249
0.260655 0.509834 0.675593
0.478294 0.492699 0.654108
0.650568 0.48394 0.654231
0.811154 0.45507 0.634241
0.972366 0.427314 0.614832
1 0.410422 0.604532
0 0.685145 0.660578
0 0.699474 0.675944
0 0.695033 0.674678
0.205112 0.673381 0.657786
0.434653 0.652476 0.641367
0.630884 0.640543 0.634211
0.797757 0.613153 0.612573
0.962356 0.586099 0.594263
1 0.569314 0.583352
0 0.83357 0.618082
0 0.845808 0.630091
0 0.838621 0.627146
0.169253 0.81532 0.612528
0.401434 0.793912 0.601465
0.580682 0.78558 0.597787
0.766583 0.776608 0.58706
0.936187 0.748882 0.576364
1 0.733288 0.571466
0 0.979721 0.580179
0 0.986755 0.590875
0 0.975738 0.589899
0.146883 0.952316 0.580697
0.367529 0.93434 0.573434
0.545602 0.926528 0.575006
0.71458 0.920577 0.572152
0.897871 0.90724 0.568307
1 0.887984 0.566659
0 1 0.570733
0 1 0.583963
0 1 0.586175
0.169467 1 0.581018
0.377096 1 0.578515
0.546517 1 0.583688
0.703334 1 0.584009
0.857679 1 0.575784
0.993255 1 0.582513
0 0 0.790631
0 0 0.785489
0.0237125 0 0.772091
0.218265 0 0.75259
0.405814 0 0.741054
0.563912 0 0.737865
0.72665 0 0.734081
0.872053 0 0.716625
0.986435 0 0.709407
0 0 0.796445
0 0 0.808118
0.0592966 0 0.803296
0.26717 0 0.787243
0.45066 0 0.779202
0.609293 0 0.77911
0.775494 0 0.782712
0.925582 0 0.77377
1 0 0.775204
0 0.0766003 0.789822
0 0.0952316 0.794949
0.0696117 0.10074 0.788952
0.281758 0.098146 0.783795
0.470588 0.102022 0.788022
0.635645 0.111406 0.800946
0.808408 0.11751 0.814847
0.961761 0.103258 0.809583
1 0.0966049 0.811261
0 0.277195 0.786068
0 0.301015 0.80174
0.0620279 0.307683 0.795407
0.278767 0.303929 0.785458
0.473121 0.303044 0.795605
0.641062 0.304112 0.810727
0.818448 0.297581 0.824094
0.97232 0.271229 0.810666
1 0.25417 0.803265
0 0.484001 0.799588
0 0.505226 0.827771
0.0172885 0.506294 0.838178
0.242191 0.48838 0.823255
0.451926 0.472648 0.803601
0.623331 0.464225 0.807004
0.804471 0.453147 0.809247
0.96698 0.425925 0.791302
1 0.409201 0.78146
0 0.66656 0.82359
0 0.680217 0.843229
0 0.675669 0.846021
0.170611 0.654459 0.833799
0.405341 0.632486 0.818357
0.60383 0.620996 0.797574
0.789532 0.611734 0.793729
0.953964 0.585336 0.774075
1 0.568673 0.762493
0 0.841657 0.810025
0 0.853742 0.82324
0 0.846555 0.819745
0.12752 0.823529 0.80174
0.365026 0.800992 0.784009
0.563821 0.787228 0.77438
0.762905 0.774533 0.766613
0.92311 0.750286 0.747951
1 0.734997 0.739467
0 0.989807 0.765347
0 0.995972 0.773846
0 0.984573 0.769421
0.115862 0.959014 0.754314
0.354498 0.936126 0.743511
0.549371 0.923156 0.742657
0.725963 0.913375 0.741833
0.892409 0.904692 0.735195
1 0.885908 0.730892
0 1 0.74786
0 1 0.757671
0 1 0.755154
0.156069 1 0.74461
0.375998 1 0.73962
0.552972 1 0.739315
0.715373 1 0.739361
0.858503 1 0.73518
0.988205 0.999222 0.735363
0 0 0.928237
0 0 0.925643
0 0 0.913146
0.18996 0 0.89456
0.379858 0 0.883268
0.540154 0 0.881148
0.70367 0 0.876493
0.864897 0 0.873426
0.978973 0 0.866056
0 0 0.939437
0 0 0.952438
0.0340276 0 0.949767
0.243168 0 0.933043
0.428565 0 0.9234
0.588174 0 0.921416
0.754757 0 0.922728
0.922301 0 0.93051
1 0 0.932448
0 0.058793 0.932891
0 0.0784772 0.938582
0.0477913 0.0850385 0.932219
0.260533 0.0827649 0.924956
0.450355 0.0869917 0.928084
0.615076 0.0961471 0.939513
0.786847 0.102266 0.952209
0.961089 0.10573 0.968612
1 0.0972915 0.970138
0 0.260288 0.924331
0 0.284566 0.937957
0.043595 0.292149 0.930816
0.25745 0.28867 0.924086
0.451133 0.286976 0.934203
0.617533 0.286946 0.949462
0.791379 0.279637 0.962585
0.969512 0.269154 0.97644
1 0.251545 0.970703
0 0.466636 0.949432
0 0.486183 0.976364
0.000808728 0.48574 0.982376
0.223651 0.468269 0.960052
0.426078 0.453483 0.948104
0.596857 0.445014 0.956024
0.776883 0.434546 0.961425
0.960937 0.424353 0.967254
1 0.408118 0.958526
0 0.645579 0.981826
0 0.658656 1
0 0.653864 1
0.148821 0.632746 1
0.387411 0.611231 0.975433
0.577661 0.601846 0.958022
0.763607 0.592767 0.953658
0.945235 0.584298 0.950759
1 0.567941 0.938308
0 0.823911 0.982986
0 0.836042 0.99971
0 0.829541 0.997818
0.0907912 0.806317 0.980285
0.33019 0.783001 0.961456
0.534356 0.768612 0.948974
0.737896 0.756619 0.924331
0.915312 0.74992 0.919783
1 0.735286 0.908614
0 0.995926 0.957687
0 1 0.965637
0 0.991073 0.958404
0.079057 0.96614 0.938857
0.317906 0.943542 0.921355
0.518425 0.929625 0.911696
0.712077 0.9149 0.901213
0.889387 0.902129 0.893294
1 0.885985 0.881285
0 1 0.932219
0 1 0.938231
0 1 0.929564
0.122698 1 0.909468
0.349004 1 0.894743
0.538689 1 0.887068
0.716762 1 0.881712
0.867445 1 0.879881
0.983261 0.997269 0.876326
0 0 1
0 0 1
0 0 1
0.171008 0 1
0.362219 0 0.991577
0.523857 0 0.990845
0.687953 0 0.985473
0.850141 0 0.981949
0.975097 0 0.984405
0 0 1
0 0 1
0.0174258 0 1
0.227573 0 1
0.414343 0 1
0.574807 0 1
0.741848 0 1
0.909453 0 1
1 0 1
0 0.0477302 1
0 0.0682994 1
0.0335851 0.0756695 1
0.247303 0.0737011 1
0.436805 0.0777905 1
0.601297 0.0866865 1
0.773068 0.092958 1
0.94612 0.095964 1
1 0.0990921 1
0 0.250416 1
0 0.274998 1
0.0308537 0.282856 1
0.24329 0.279026 1
0.435767 0.276326 1
0.600824 0.27538 1
0.772717 0.267597 1
0.948638 0.257115 1
1 0.250751 1
0 0.455009 1
0 0.473213 1
0 0.47155 1
0.20911 0.454841 1
0.408103 0.440284 1
0.577615 0.431754 1
0.757366 0.421683 1
0.940826 0.411826 1
1 0.408286 1
0 0.630381 1
0 0.643168 1
0 0.638102 1
0.137255 0.617197 1
0.373007 0.597116 1
0.558846 0.58854 1
0.744518 0.579355 1
0.925887 0.571008 1
1 0.568933 1
0 0.809903 1
0 0.821912 1
0 0.815106 1
0.0710613 0.79176 1
0.313375 0.767773 1
0.52166 0.753582 1
0.719448 0.743435 1
0.897307 0.737041 1
1 0.736706 1
0 0.985031 1
0 0.990814 1
0 0.980301 1
0.0510719 0.955062 1
0.290288 0.932464 1
0.492241 0.917937 1
0.689219 0.902296 1
0.871611 0.889433 1
0.998276 0.885939 1
0 1 1
0 1 1
0 1 1
0.102998 1 1
0.326604 1 1
0.514687 1 1
0.694728 1 1
0.858457 1 0.989868
0.98204 0.995712 0.986084
