test_isolated/config/Mavic 3/Normalization/DJI Mavic 3 D-Log to Rec.709 vivid V1.cube
# DaVinci Resolve Cube (3D LUT).
#
# DJI Mavic3 vivid lut 20220429
#
LUT_3D_SIZE	33
0.0070506149 0.0070506149 0.0070506149
0.0081089958 0.0069482523 0.0074033713
0.0094165179 0.0068217936 0.0078391660
0.0112193797 0.0066474275 0.0084400565
0.0144739224 0.0063326603 0.0095247896
0.0218232266 0.0056571169 0.0118370554
0.0530100649 0.0046960347 0.0142306632
0.0905881040 0.0036424248 0.0183902073
0.1330837497 0.0025644825 0.0220354908
0.1762153161 0.0022293501 0.0190199618
0.2218767822 0.0032539871 0.0148709943
0.2749061497 0.0048732116 0.0154510616
0.3353148221 0.0060308043 0.0150897412
0.4049035949 0.0072932400 0.0125374287
0.4830891939 0.0099151987 0.0154295745
0.5715735900 0.0099093147 0.0342204849
0.6745522737 0.0052538122 0.0626294177
0.7823690125 0.0052359305 0.0695954242
0.8660839917 0.0048624699 0.0334736618
0.9249414691 0.0058171621 0.0079792730
0.9745802507 0.0121501972 0.0058504598
0.9928177433 0.0136504223 0.0052891915
0.9945052040 0.0137894470 0.0052368437
0.9945052040 0.0137894470 0.0052368437
0.9945052040 0.0137894470 0.0052368437
0.9945052040 0.0137894470 0.0052368437
0.9945052040 0.0137894470 0.0052368437
0.9945052040 0.0137894470 0.0052368437
0.9945052040 0.0137894470 0.0052368437
0.9945052040 0.0137894470 0.0052368437
0.9945052040 0.0137894470 0.0052368437
0.9945052040 0.0137894470 0.0052368437
0.9945052040 0.0137894470 0.0052368437
0.0069835039 0.0084297665 0.0070711757
0.0080084664 0.0083260978 0.0073994552
0.0092747034 0.0081980257 0.0078050111
0.0110206398 0.0080214348 0.0083642071
0.0141724202 0.0077026515 0.0093736730
0.0212998986 0.0070168750 0.0115268755
0.0520983124 0.0059494608 0.0138348167
0.0896671768 0.0047738364 0.0179337801
0.1324477547 0.0035834213 0.0216460496
0.1758242688 0.0030959422 0.0188492149
0.2216267372 0.0038656645 0.0147827168
0.2747195856 0.0051544194 0.0154534529
0.3351939684 0.0060622151 0.0150911524
0.4048186352 0.0072936027 0.0125450006
0.4830334229 0.0099129056 0.0154235219
0.5715239413 0.0099107243 0.0342043826
0.6745106542 0.0052539107 0.0626220655
0.7823414996 0.0052359329 0.0695967737
0.8660697131 0.0048625808 0.0334840321
0.9249321584 0.0058165916 0.0079802958
0.9745737751 0.0121496654 0.0058506575
0.9928167482 0.0136503403 0.0052892223
0.9945052040 0.0137894470 0.0052368437
0.9945052040 0.0137894470 0.0052368437
0.9945052040 0.0137894470 0.0052368437
0.9945052040 0.0137894470 0.0052368437
0.9945052040 0.0137894470 0.0052368437
0.9945052040 0.0137894470 0.0052368437
0.9945052040 0.0137894470 0.0052368437
0.9945052040 0.0137894470 0.0052368437
0.9945052040 0.0137894470 0.0052368437
0.9945052040 0.0137894470 0.0052368437
0.9945052040 0.0137894470 0.0052368437
0.0069005950 0.0101335682 0.0070965766
0.0078842725 0.0100282860 0.0073946172
0.0090995060 0.0098982205 0.0077628161
0.0107751168 0.0097188812 0.0082705029
0.0137999448 0.0093951363 0.0091869839
0.0206533799 0.0086967180 0.0111436797
0.0509719349 0.0074979413 0.0133457885
0.0885294648 0.0061715805 0.0173699106
0.1316620475 0.0048422167 0.0211649345
0.1753411695 0.0041665288 0.0186382744
0.2213178321 0.0046213297 0.0146736590
0.2744891047 0.0055018229 0.0154564072
0.3350446660 0.0061010200 0.0150928958
0.4047136761 0.0072940507 0.0125543548
0.4829645235 0.0099100727 0.0154160445
0.5714626055 0.0099124657 0.0341844900
0.6744592376 0.0052540323 0.0626129827
0.7823075103 0.0052359360 0.0695984409
0.8660520734 0.0048627177 0.0334968434
0.9249206560 0.0058158867 0.0079815594
0.9745657752 0.0121490084 0.0058509017
0.9928155189 0.0136502390 0.0052892605
0.9945052040 0.0137894470 0.0052368437
0.9945052040 0.0137894470 0.0052368437
0.9945052040 0.0137894470 0.0052368437
0.9945052040 0.0137894470 0.0052368437
0.9945052040 0.0137894470 0.0052368437
0.9945052040 0.0137894470 0.0052368437
0.9945052040 0.0137894470 0.0052368437
0.9945052040 0.0137894470 0.0052368437
0.9945052040 0.0137894470 0.0052368437
0.9945052040 0.0137894470 0.0052368437
0.9945052040 0.0137894470 0.0052368437
0.0067862771 0.0124828356 0.0071316002
0.0077130292 0.0123753286 0.0073879464
0.0088579371 0.0122425147 0.0077046361
0.0104365803 0.0120593857 0.0081413000
0.0132863615 0.0117287996 0.0089295698
0.0197619350 0.0110129503 0.0106153146
0.0494188421 0.0096330459 0.0126714976
0.0869607437 0.0080988439 0.0165924256
0.1305786841 0.0065778923 0.0205015545
0.1746750536 0.0056426949 0.0183474214
0.2208919018 0.0056632701 0.0145232858
0.2741713086 0.0059808364 0.0154604805
0.3348388021 0.0061545257 0.0150952997
0.4045689544 0.0072946684 0.0125672528
0.4828695223 0.0099061666 0.0154057344
0.5713780333 0.0099148669 0.0341570613
0.6743883424 0.0052542001 0.0626004590
0.7822606445 0.0052359402 0.0696007397
0.8660277511 0.0048629066 0.0335145083
0.9249047960 0.0058149148 0.0079833017
0.9745547446 0.0121481025 0.0058512385
0.9928138238 0.0136500994 0.0052893130
0.9945052040 0.0137894470 0.0052368437
0.9945052040 0.0137894470 0.0052368437
0.9945052040 0.0137894470 0.0052368437
0.9945052040 0.0137894470 0.0052368437
0.9945052040 0.0137894470 0.0052368437
0.9945052040 0.0137894470 0.0052368437
0.9945052040 0.0137894470 0.0052368437
0.9945052040 0.0137894470 0.0052368437
0.9945052040 0.0137894470 0.0052368437
0.9945052040 0.0137894470 0.0052368437
0.9945052040 0.0137894470 0.0052368437
0.0065799094 0.0167237547 0.0071948252
0.0074038991 0.0166122316 0.0073759042
0.0084218547 0.0164744561 0.0075996089
0.0098254510 0.0162844859 0.0079080617
0.0123592361 0.0159415500 0.0084648834
0.0181526906 0.0151942340 0.0096615051
0.0466151848 0.0134873564 0.0114542614
0.0841288740 0.0115779575 0.0151889025
0.1286229866 0.0097111498 0.0193040148
0.1734725751 0.0083074834 0.0178223711
0.2201230084 0.0075441904 0.0142518307
0.2735976203 0.0068455559 0.0154678339
0.3344671747 0.0062511147 0.0150996392
0.4043077015 0.0072957834 0.0125905364
0.4826980252 0.0098991153 0.0153871224
0.5712253628 0.0099192014 0.0341075466
0.6742603617 0.0052545029 0.0625778510
0.7821760419 0.0052359477 0.0696048895
0.8659838443 0.0048632475 0.0335463970
0.9248761654 0.0058131603 0.0079864470
0.9745348320 0.0121464672 0.0058518465
0.9928107639 0.0136498473 0.0052894079
0.9945052040 0.0137894470 0.0052368437
0.9945052040 0.0137894470 0.0052368437
0.9945052040 0.0137894470 0.0052368437
0.9945052040 0.0137894470 0.0052368437
0.9945052040 0.0137894470 0.0052368437
0.9945052040 0.0137894470 0.0052368437
0.9945052040 0.0137894470 0.0052368437
0.9945052040 0.0137894470 0.0052368437
0.9945052040 0.0137894470 0.0052368437
0.9945052040 0.0137894470 0.0052368437
0.9945052040 0.0137894470 0.0052368437
0.0061320910 0.0260666884 0.0073023157
0.0067382409 0.0259470861 0.0073256837
0.0074870777 0.0257993297 0.0073545524
0.0085196026 0.0255955975 0.0073943577
0.0103835261 0.0252278181 0.0074662147
0.0147304923 0.0244166324 0.0076379165
0.0406316176 0.0220187716 0.0088766274
0.0780531717 0.0193081345 0.0122063911
0.1243957270 0.0166828631 0.0167451016
0.1708430538 0.0142666196 0.0166965606
0.2184263732 0.0118345763 0.0136598400
0.2723328326 0.0089104669 0.0154798457
0.3336457326 0.0065577999 0.0151148114
0.4037350579 0.0073161244 0.0126432243
0.4823233355 0.0098837869 0.0153465563
0.5708936983 0.0099286166 0.0339999867
0.6739841904 0.0052552486 0.0625290364
0.7819936088 0.0052359679 0.0696141116
0.8658891998 0.0048639828 0.0336151699
0.9248144542 0.0058093786 0.0079932265
0.9744919071 0.0121429420 0.0058531571
0.9928041679 0.0136493040 0.0052896124
0.9945052040 0.0137894470 0.0052368437
0.9945052040 0.0137894470 0.0052368437
0.9945052040 0.0137894470 0.0052368437
0.9945052040 0.0137894470 0.0052368437
0.9945052040 0.0137894470 0.0052368437
0.9945052040 0.0137894470 0.0052368437
0.9945052040 0.0137894470 0.0052368437
0.9945052040 0.0137894470 0.0052368437
0.9945052040 0.0137894470 0.0052368437
0.9945052040 0.0137894470 0.0052368437
0.9945052040 0.0137894470 0.0052368437
0.0052152504 0.0530771729 0.0058513306
0.0056653568 0.0529768037 0.0058678678
0.0062214176 0.0528528078 0.0058882978
0.0069881356 0.0526818376 0.0059164675
0.0083722220 0.0523732004 0.0059673198
0.0116539936 0.0516794775 0.0060925576
0.0340272723 0.0489103392 0.0071864258
0.0695212866 0.0452871534 0.0096515793
0.1166752730 0.0406615706 0.0137420814
0.1643266310 0.0363973210 0.0151538121
0.2133701849 0.0323625596 0.0122828661
0.2686249742 0.0237393250 0.0152825409
0.3311196574 0.0126467956 0.0154696189
0.4022406689 0.0083658370 0.0128727253
0.4814133020 0.0098508924 0.0152534812
0.5701938983 0.0099484073 0.0337734103
0.6735058010 0.0052617625 0.0624428666
0.7816850504 0.0052362163 0.0696451922
0.8657310519 0.0048652323 0.0337320278
0.9247115817 0.0058030745 0.0080045367
0.9744200810 0.0121370433 0.0058553500
0.9927931414 0.0136483956 0.0052899543
0.9945052040 0.0137894470 0.0052368437
0.9945052040 0.0137894470 0.0052368437
0.9945052040 0.0137894470 0.0052368437
0.9945052040 0.0137894470 0.0052368437
0.9945052040 0.0137894470 0.0052368437
0.9945052040 0.0137894470 0.0052368437
0.9945052040 0.0137894470 0.0052368437
0.9945052040 0.0137894470 0.0052368437
0.9945052040 0.0137894470 0.0052368437
0.9945052040 0.0137894470 0.0052368437
0.9945052040 0.0137894470 0.0052368437
0.0052633091 0.0796379193 0.0056927264
0.0056346602 0.0795766095 0.0056918623
0.0060934267 0.0795008674 0.0056907949
0.0067259917 0.0793964312 0.0056893230
0.0078679038 0.0792079022 0.0056866660
0.0105889136 0.0787849677 0.0056880434
0.0298317121 0.0771413655 0.0060926652
0.0628093398 0.0746990171 0.0074170574
0.1087914019 0.0708571249 0.0105229362
0.1564115230 0.0666769276 0.0129153224
0.2071145591 0.0623040477 0.0115201085
0.2625962784 0.0535595108 0.0143260709
0.3264817183 0.0387819266 0.0159898522
0.3995197200 0.0197355564 0.0136632583
0.4797421957 0.0102691730 0.0150468771
0.5688647206 0.0099840587 0.0333373971
0.6725856285 0.0052748901 0.0622734178
0.7811471472 0.0052369329 0.0697198821
0.8655016930 0.0048670484 0.0339018310
0.9245546035 0.0057934357 0.0080227271
0.9743094988 0.0121279619 0.0058587258
0.9927762153 0.0136470013 0.0052904791
0.9945052040 0.0137894470 0.0052368437
0.9945052040 0.0137894470 0.0052368437
0.9945052040 0.0137894470 0.0052368437
0.9945052040 0.0137894470 0.0052368437
0.9945052040 0.0137894470 0.0052368437
0.9945052040 0.0137894470 0.0052368437
0.9945052040 0.0137894470 0.0052368437
0.9945052040 0.0137894470 0.0052368437
0.9945052040 0.0137894470 0.0052368437
0.9945052040 0.0137894470 0.0052368437
0.9945052040 0.0137894470 0.0052368437
0.0052221999 0.1098157639 0.0057518901
0.0054920904 0.1097952433 0.0057425671
0.0058255127 0.1097698922 0.0057310494
0.0062852482 0.1097349371 0.0057151684
0.0071151670 0.1096718358 0.0056864999
0.0090723632 0.1095374708 0.0056246546
0.0218696078 0.1094066540 0.0055185970
0.0505691822 0.1088960632 0.0061015627
0.0961447072 0.1075273133 0.0082066050
0.1465950043 0.1049081009 0.0109155484
0.1986744648 0.1017854981 0.0109605663
0.2542726987 0.0963606216 0.0122745481
0.3186446822 0.0842861549 0.0169894364
0.3948505228 0.0570496261 0.0157414905
0.4764698934 0.0313808865 0.0147901240
0.5665655589 0.0111856258 0.0322972249
0.6707780865 0.0053034087 0.0619324474
0.7799553551 0.0052387415 0.0699018995
0.8650538858 0.0048705302 0.0342276845
0.9243315447 0.0057798668 0.0080498525
0.9742071789 0.0121195593 0.0058618491
0.9927569971 0.0136454180 0.0052910751
0.9945052040 0.0137894470 0.0052368437
0.9945052040 0.0137894470 0.0052368437
0.9945052040 0.0137894470 0.0052368437
0.9945052040 0.0137894470 0.0052368437
0.9945052040 0.0137894470 0.0052368437
0.9945052040 0.0137894470 0.0052368437
0.9945052040 0.0137894470 0.0052368437
0.9945052040 0.0137894470 0.0052368437
0.9945052040 0.0137894470 0.0052368437
0.9945052040 0.0137894470 0.0052368437
0.9945052040 0.0137894470 0.0052368437
0.0056918147 0.1440618287 0.0062031550
0.0058232070 0.1440445442 0.0061984857
0.0059855289 0.1440231909 0.0061927174
0.0062093446 0.1439937481 0.0061847638
0.0066133787 0.1439405978 0.0061704058
0.0075741718 0.1438330542 0.0061362059
0.0142683766 0.1440512145 0.0058950134
0.0370435122 0.1445360150 0.0059060430
0.0771764857 0.1456187006 0.0068623995
0.1253121294 0.1462491687 0.0088467347
0.1802598732 0.1456893969 0.0099626503
0.2407996162 0.1416195017 0.0101343350
0.3085346575 0.1329602467 0.0138161416
0.3857543983 0.1153304707 0.0155583213
0.4704658825 0.0886461870 0.0143463190
0.5621315517 0.0493708252 0.0278071404
0.6674998097 0.0056299702 0.0609196650
0.7782890459 0.0052437737 0.0703336591
0.8642999436 0.0048760925 0.0347471518
0.9239684581 0.0057578212 0.0080945905
0.9740889383 0.0121098497 0.0058654575
0.9927367512 0.0136437500 0.0052917032
0.9945052040 0.0137894470 0.0052368437
0.9945052040 0.0137894470 0.0052368437
0.9945052040 0.0137894470 0.0052368437
0.9945052040 0.0137894470 0.0052368437
0.9945052040 0.0137894470 0.0052368437
0.9945052040 0.0137894470 0.0052368437
0.9945052040 0.0137894470 0.0052368437
0.9945052040 0.0137894470 0.0052368437
0.9945052040 0.0137894470 0.0052368437
0.9945052040 0.0137894470 0.0052368437
0.9945052040 0.0137894470 0.0052368437
0.0038304319 0.1878724052 0.0052471937
0.0038364137 0.1878700953 0.0052468386
0.0038438037 0.1878672415 0.0052463998
0.0038539933 0.1878633067 0.0052457949
0.0038723876 0.1878562035 0.0052447028
0.0039324256 0.1878445981 0.0052411979
0.0051872162 0.1880350682 0.0051701657
0.0118056401 0.1885097093 0.0051325173
0.0387859803 0.1897259411 0.0054274914
0.0807853650 0.1936394311 0.0061949552
0.1384750935 0.1972314520 0.0076631768
0.2070455804 0.1966956602 0.0085324928
0.2929845717 0.1860851399 0.0088829423
0.3733904841 0.1731842640 0.0119713578
0.4618558906 0.1518879092 0.0115619736
0.5537137679 0.1287213700 0.0196179930
0.6568650600 0.0634852393 0.0483915519
0.7746672056 0.0052749827 0.0720417380
0.8630082955 0.0048851833 0.0355906871
0.9233185836 0.0057181404 0.0081740967
0.9738434247 0.0120896894 0.0058729491
0.9927038773 0.0136410417 0.0052927228
0.9945052040 0.0137894470 0.0052368437
0.9945052040 0.0137894470 0.0052368437
0.9945052040 0.0137894470 0.0052368437
0.9945052040 0.0137894470 0.0052368437
0.9945052040 0.0137894470 0.0052368437
0.9945052040 0.0137894470 0.0052368437
0.9945052040 0.0137894470 0.0052368437
0.9945052040 0.0137894470 0.0052368437
0.9945052040 0.0137894470 0.0052368437
0.9945052040 0.0137894470 0.0052368437
0.9945052040 0.0137894470 0.0052368437
0.0040785126 0.2353928740 0.0050572858
0.0040785208 0.2353927155 0.0050572905
0.0040785309 0.2353925197 0.0050572965
0.0040785448 0.2353922497 0.0050573046
0.0040785700 0.2353917622 0.0050573193
0.0040816809 0.2353910853 0.0050570398
0.0042599699 0.2354111208 0.0050389461
0.0060379829 0.2355931651 0.0049380331
0.0224311353 0.2362854286 0.0048593628
0.0682967534 0.2383771844 0.0053480871
0.1266930449 0.2426411217 0.0065985500
0.1915330969 0.2453659162 0.0078294988
0.2730995477 0.2406074282 0.0086034041
0.3613727293 0.2301279894 0.0092921958
0.4504895474 0.2144467196 0.0099967325
0.5471304884 0.1913634849 0.0126222283
0.6446651072 0.1633637943 0.0320519251
0.7614991662 0.0731868280 0.0632420491
0.8611859617 0.0118804940 0.0387573298
0.9235730111 0.0066303529 0.0083708846
0.9747900257 0.0141695915 0.0058916465
0.9929099767 0.0174243330 0.0053654320
0.9945367766 0.0176377477 0.0053157227
0.9945354627 0.0174788418 0.0053124295
0.9945346851 0.0173847951 0.0053104804
0.9945341010 0.0173141472 0.0053090163
0.9945336815 0.0172634174 0.0053079650
0.9945333942 0.0172286735 0.0053072449
0.9945332083 0.0172061918 0.0053067790
0.9945330962 0.0171926339 0.0053064980
0.9945330196 0.0171833609 0.0053063058
0.9945329332 0.0171729174 0.0053060894
0.9945328951 0.0171683116 0.0053059940
0.0043769157 0.2914436761 0.0044120027
0.0043769423 0.2914445156 0.0044119894
0.0043769752 0.2914455527 0.0044119729
0.0043770205 0.2914469828 0.0044119503
0.0043771023 0.2914495643 0.0044119094
0.0043772753 0.2914551410 0.0044118194
0.0043773693 0.2914651388 0.0044115656
0.0043773853 0.2914875189 0.0044109144
0.0062574041 0.2916697930 0.0043521585
0.0336040032 0.2927004361 0.0042930453
0.0972219898 0.2954237696 0.0049459359
0.1558627785 0.3013311481 0.0061487354
0.2392229169 0.3020658398 0.0081499743
0.3403072332 0.2931542624 0.0088089295
0.4384441138 0.2795276663 0.0086390263
0.5350460453 0.2615671220 0.0117921753
0.6367908579 0.2364294946 0.0157876879
0.7363242176 0.2130782317 0.0239589668
0.8462259583 0.1620550546 0.0285467614
0.9271279342 0.1131030509 0.0114253276
0.9807571203 0.1038712856 0.0080412878
0.9938925812 0.1080995653 0.0075986081
0.9946431392 0.1071302105 0.0075136621
0.9946425440 0.1065843250 0.0074868872
0.9946421917 0.1062612486 0.0074710407
0.9946419271 0.1060185539 0.0074591369
0.9946417371 0.1058442832 0.0074505892
0.9946416069 0.1057249282 0.0074447350
0.9946415227 0.1056476972 0.0074409469
0.9946414719 0.1056011222 0.0074386625
0.9946414372 0.1055692671 0.0074371000
0.9946413981 0.1055333906 0.0074353403
0.9946413808 0.1055175684 0.0074345643
0.0068945852 0.3531893727 0.0042943616
0.0068945039 0.3531906907 0.0042943650
0.0068944035 0.3531923189 0.0042943693
0.0068942651 0.3531945640 0.0042943752
0.0068940152 0.3531986168 0.0042943858
0.0068934844 0.3532072333 0.0042944085
0.0068930459 0.3532148606 0.0042944331
0.0068921221 0.3532309124 0.0042944848
0.0069050254 0.3532599019 0.0042944035
0.0113400598 0.3534114562 0.0042270588
0.0691665905 0.3544130937 0.0041609025
0.1439345803 0.3576966104 0.0056079637
0.2167627639 0.3622205849 0.0076785930
0.3150657376 0.3598566810 0.0092100322
0.4209964224 0.3501999164 0.0103635624
0.5215403467 0.3362344885 0.0129091434
0.6255854436 0.3159409598 0.0181319981
0.7314455856 0.2903782685 0.0134483705
0.8278733247 0.2737892407 0.0079145586
0.9256328654 0.2237336659 0.0079697599
0.9866887444 0.1905792301 0.0124713624
0.9946879984 0.1896285462 0.0130365927
0.9947594582 0.1884261132 0.0131211973
0.9947586422 0.1880083339 0.0131209197
0.9947581592 0.1877610758 0.0131207554
0.9947577964 0.1875753357 0.0131206320
0.9947575359 0.1874419621 0.0131205433
0.9947573575 0.1873506169 0.0131204826
0.9947572421 0.1872915101 0.0131204434
0.9947571724 0.1872558652 0.0131204197
0.9947571248 0.1872314857 0.0131204035
0.9947570712 0.1872040285 0.0131203852
0.9947570475 0.1871919194 0.0131203772
0.0077671138 0.4224994653 0.0050555224
0.0077671673 0.4225009558 0.0050555507
0.0077672335 0.4225027970 0.0050555856
0.0077673247 0.4225053359 0.0050556339
0.0077674893 0.4225099190 0.0050557209
0.0077678407 0.4225197061 0.0050559067
0.0077682292 0.4225308353 0.0050561178
0.0077686456 0.4225430912 0.0050563501
0.0077694153 0.4225717063 0.0050568886
0.0077711788 0.4226315395 0.0050580177
0.0097244577 0.4228236185 0.0050361284
0.0925483113 0.4247602836 0.0052880805
0.1710820959 0.4294955117 0.0071908079
0.2688653837 0.4321710090 0.0092179209
0.3969045052 0.4245530913 0.0124838468
0.5080534786 0.4134844871 0.0179476475
0.6142027154 0.3968187256 0.0235654775
0.7268054435 0.3738099819 0.0379971167
0.8250568767 0.3582757376 0.0120560367
0.9001383636 0.3520346493 0.0061366237
0.9741253280 0.3240874225 0.0051457864
0.9937070370 0.3137586389 0.0052215377
0.9943458688 0.3115596226 0.0052685703
0.9943567495 0.3110098398 0.0052844342
0.9943631891 0.3106844568 0.0052938230
0.9943680266 0.3104400294 0.0053008759
0.9943715002 0.3102645144 0.0053059404
0.9943738792 0.3101443073 0.0053094089
0.9943754186 0.3100665250 0.0053116533
0.9943763469 0.3100196174 0.0053130068
0.9943769819 0.3099875349 0.0053139325
0.9943776970 0.3099514022 0.0053149751
0.9943780124 0.3099354670 0.0053154349
0.0095997554 0.4962377267 0.0062701782
0.0095999180 0.4962392889 0.0062702371
0.0096001190 0.4962412190 0.0062703099
0.0096003960 0.4962438801 0.0062704103
0.0096008962 0.4962486841 0.0062705914
0.0096019669 0.4962589657 0.0062709793
0.0096033361 0.4962719699 0.0062714744
0.0096050427 0.4962880413 0.0062720907
0.0096071336 0.4963089938 0.0062728534
0.0096125648 0.4963710265 0.0062748803
0.0096258376 0.4965113878 0.0062797663
0.0272963766 0.4970458904 0.0063349901
0.1269680471 0.4997215652 0.0071946599
0.2117903169 0.5057165747 0.0099280163
0.3537994443 0.5028368591 0.0101188136
0.4903212460 0.4937137621 0.0192178286
0.5966400758 0.4830376356 0.0303779016
0.7091253559 0.4671599034 0.0289537706
0.8142218399 0.4479705916 0.0338146232
0.8942474996 0.4402920939 0.0128313420
0.9561089103 0.4359499986 0.0070352248
0.9876027188 0.4303540519 0.0062883292
0.9891459695 0.4288145771 0.0062365529
0.9891501103 0.4282558989 0.0062263840
0.9891525610 0.4279252513 0.0062203657
0.9891544019 0.4276768691 0.0062158447
0.9891557238 0.4274985143 0.0062125984
0.9891566292 0.4273763623 0.0062103750
0.9891572150 0.4272973215 0.0062089363
0.9891575683 0.4272496550 0.0062080687
0.9891578100 0.4272170533 0.0062074753
0.9891580821 0.4271803361 0.0062068070
0.9891582021 0.4271641430 0.0062065122
0.0127258984 0.5737020156 0.0078677149
0.0127260268 0.5737036253 0.0078678052
0.0127261853 0.5737056140 0.0078679167
0.0127264039 0.5737083560 0.0078680704
0.0127267985 0.5737133059 0.0078683480
0.0127276443 0.5737239139 0.0078689428
0.0127287821 0.5737381290 0.0078697464
0.0127302557 0.5737565899 0.0078707845
0.0127322179 0.5737812794 0.0078721607
0.0127344030 0.5738090233 0.0078736791
0.0127437589 0.5739274178 0.0078802066
0.0127673600 0.5742125064 0.0078974795
0.0455831434 0.5752289430 0.0080231003
0.1647274258 0.5793013667 0.0088337816
0.2761946809 0.5849626386 0.0083623814
0.4433915266 0.5785267269 0.0096731581
0.5744977049 0.5697790858 0.0153181845
0.6869771568 0.5589630619 0.0162978496
0.7976037631 0.5453182103 0.0139838870
0.8878213526 0.5304246906 0.0133404142
0.9542061153 0.5227548735 0.0166121783
0.9906447330 0.5192853148 0.0156588929
0.9929265939 0.5183744528 0.0153118201
0.9928953402 0.5178384433 0.0151534839
0.9928768430 0.5175212120 0.0150597743
0.9928629480 0.5172829081 0.0149893798
0.9928529704 0.5171117902 0.0149388318
0.9928461369 0.5169945947 0.0149042125
0.9928417152 0.5169187609 0.0148818113
0.9928390486 0.5168730285 0.0148683021
0.9928372248 0.5168417498 0.0148590624
0.9928351708 0.5168065223 0.0148486562
0.9928342649 0.5167909863 0.0148440669
0.0166383323 0.6562030967 0.0100148897
0.0166385047 0.6562047343 0.0100149386
0.0166387177 0.6562067573 0.0100149989
0.0166390115 0.6562095467 0.0100150820
0.0166395417 0.6562145821 0.0100152321
0.0166406780 0.6562253747 0.0100155537
0.0166421991 0.6562399141 0.0100159859
0.0166442474 0.6562594409 0.0100165667
0.0166471476 0.6562870014 0.0100173870
0.0166507919 0.6563214855 0.0100184144
0.0166548649 0.6563607080 0.0100195748
0.0166813241 0.6566236907 0.0100272427
0.0168837555 0.6570924594 0.0100411803
0.0962200624 0.6587899535 0.0096301093
0.2100960464 0.6645330857 0.0095067056
0.3562072300 0.6681093376 0.0067210133
0.5276991202 0.6612205260 0.0078294783
0.6642217972 0.6510753440 0.0091045008
0.7786579153 0.6406583850 0.0097159778
0.8775169207 0.6293394475 0.0109494748
0.9481850568 0.6184698379 0.0133639170
0.9866520612 0.6132546356 0.0178630130
0.9917912626 0.6130259044 0.0184974481
0.9918083017 0.6126759544 0.0184627928
0.9918183861 0.6124688403 0.0184422824
0.9918259615 0.6123132564 0.0184268751
0.9918314011 0.6122015369 0.0184158116
0.9918351266 0.6121250222 0.0184082344
0.9918375373 0.6120755118 0.0184033314
0.9918389911 0.6120456541 0.0184003746
0.9918399854 0.6120252328 0.0183983523
0.9918411052 0.6120022334 0.0183960747
0.9918415991 0.6119920903 0.0183950702
0.0196627207 0.7382015176 0.0119538844
0.0196628571 0.7382030878 0.0119539428
0.0196630257 0.7382050275 0.0119540150
0.0196632580 0.7382077021 0.0119541145
0.0196636776 0.7382125304 0.0119542941
0.0196645776 0.7382228905 0.0119546794
0.0196658376 0.7382375125 0.0119552185
0.0196675598 0.7382574554 0.0119559552
0.0196700532 0.7382863329 0.0119570217
0.0196733242 0.7383242980 0.0119584202
0.0196773695 0.7383713522 0.0119601489
0.0196866808 0.7384751022 0.0119641322
0.0197245700 0.7389028019 0.0119802856
0.0228160362 0.7397785183 0.0117194803
0.1377468946 0.7425115561 0.0112760369
0.2746041925 0.7487553537 0.0111988007
0.4573118436 0.7480521906 0.0064516109
0.6137606107 0.7435957926 0.0079753155
0.7463243288 0.7336365713 0.0082043344
