test_isolated/config/Mavic 3/Normalization/DJI Mavic 3 D-Log to Rec.709 vivid V1.cube
# DaVinci Resolve Cube (3D LUT).
#
# DJI Mavic3 vivid lut 20220429
#
LUT_3D_SIZE 5
0.0070506149 0.0070506149 0.0070506149
0.1330837497 0.0025644825 0.0220354908
0.6745522737 0.0052538122 0.0626294177
0.9945052040 0.0137894470 0.0052368437
0.9945052040 0.0137894470 0.0052368437
0.0052221999 0.1098157639 0.0057518901
0.0961447072 0.1075273133 0.0082066050
0.6707780865 0.0053034087 0.0619324474
0.9945052040 0.0137894470 0.0052368437
0.9945052040 0.0137894470 0.0052368437
0.0127258984 0.5737020156 0.0078677149
0.0127322179 0.5737812794 0.0078721607
0.5744977049 0.5697790858 0.0153181845
0.9928768430 0.5175212120 0.0150597743
0.9928342649 0.5167909863 0.0148440669
0.0595804356 0.9697542749 0.0108007006
0.0596022011 0.9697691531 0.0107996538
0.2758188386 0.9742710053 0.0091176693
0.9723777014 0.9745265747 0.0065019028
0.9819895945 0.9748421931 0.0068293282
0.0668808289 0.9742958081 0.0104972967
0.0668808289 0.9742958081 0.0104972967
0.2834869101 0.9778049595 0.0088910874
0.9699336335 0.9800508296 0.0064850111
0.9804821266 0.9803364612 0.0067135209
0.0128632427 0.0044414719 0.1116577317
0.1312872098 0.0023507536 0.1064334515
0.6624519808 0.0122218674 0.1031220518
0.9945052040 0.0137894470 0.0052368437
0.9945052040 0.0137894470 0.0052368437
0.0070046052 0.1059995381 0.0919673875
0.1022996961 0.1019276637 0.0974788487
0.6605210126 0.0119333644 0.0995601470
0.9945052040 0.0137894470 0.0052368437
0.9945052040 0.0137894470 0.0052368437
0.0127086818 0.5734987625 0.0078950995
0.0127188316 0.5736162345 0.0078744239
0.5766945178 0.5693470772 0.0154732115
0.9928369183 0.5168589797 0.0148652097
0.9927947331 0.5161350065 0.0146509565
0.0595664688 0.9697447297 0.0108013720
0.0595932953 0.9697630652 0.0108000822
0.2751908839 0.9742757755 0.0090969396
0.9722984695 0.9745567318 0.0065008785
0.9819543072 0.9748686840 0.0068276981
0.0668808289 0.9742958081 0.0104972967
0.0668808289 0.9742958081 0.0104972967
0.2826856571 0.9777784153 0.0088679899
0.9698302168 0.9800485612 0.0064843574
0.9804299228 0.9803320412 0.0067116686
0.1271295255 0.0358137783 0.5106157497
0.1797178842 0.0379486951 0.5091749342
0.6915368902 0.0109864199 0.5130215882
0.9889299396 0.0135241174 0.5252739432
0.9889433546 0.0135229204 0.5251525806
0.1223493154 0.0546758667 0.5078941575
0.1763228918 0.0531105995 0.5069179110
0.6909001195 0.0109792466 0.5122027250
0.9890253968 0.0135165100 0.5245055412
0.9890453802 0.0135149544 0.5243487361
0.0208822547 0.6044508165 0.5472682649
0.0208797377 0.6044553426 0.5474349085
0.5662156228 0.5685767466 0.5797556482
0.9906700985 0.5105849607 0.5113247124
0.9906816313 0.5098581834 0.5111037222
0.0255480226 0.9816158310 0.5110372072
0.0254645658 0.9816045911 0.5105646663
0.2758099346 0.9819064614 0.4987507321
0.9805869993 0.9774010678 0.4217426110
0.9870111535 0.9770508054 0.4192917046
0.0255399826 0.9842500180 0.5114362884
0.0254555873 0.9842283316 0.5109634160
0.2767402589 0.9838208124 0.4990853636
0.9791570038 0.9825640006 0.4240249959
0.9861447983 0.9823356205 0.4213903104
0.1699718058 0.0032052927 0.9597252364
0.2120690955 0.0033405962 0.9603122496
0.6428016939 0.0065733240 0.9829147301
0.9941619513 0.0107118391 0.9888480835
0.9941593447 0.0107126359 0.9887818230
0.1819976596 0.0032398300 0.9599026621
0.2216915066 0.0033761004 0.9604862193
0.6458453486 0.0066067454 0.9830936291
0.9941578801 0.0107130837 0.9887445834
0.9941552398 0.0107138907 0.9886774667
0.0058944552 0.5682841826 0.9771121541
0.0058881707 0.5679105413 0.9772196742
0.5993719498 0.5344204094 0.9879631734
0.9941394128 0.4515251268 0.9916840123
0.9941391616 0.4510747296 0.9916537673
0.0696361192 0.9890495960 0.9774638892
0.0696262181 0.9890520069 0.9773681978
0.2635331031 0.9890071370 0.9816634253
0.9794280887 0.9828981482 0.9850464433
0.9878758179 0.9826650084 0.9851522302
0.0695020959 0.9907730993 0.9762859620
0.0694915650 0.9907736645 0.9761857058
0.2565441412 0.9905759375 0.9806097608
0.9770656909 0.9888896513 0.9846780025
0.9878358237 0.9888745376 0.9842125119
0.1691012932 0.0031953618 0.9677585390
0.2112400861 0.0033277377 0.9682205819
0.6395046990 0.0064887842 0.9886877697
0.9943292001 0.0106607200 0.9930991927
0.9943270327 0.0106613813 0.9930441891
0.1812809499 0.0032297680 0.9678789648
0.2209759358 0.0033630831 0.9683441251
0.6425421231 0.0065217573 0.9888710718
0.9943259606 0.0106617085 0.9930169804
0.9943237513 0.0106623826 0.9929609103
0.0058578233 0.5668328677 0.9782258880
0.0058525576 0.5664413344 0.9782482024
0.6024975303 0.5330758107 0.9883317900
0.9942364003 0.4525491077 0.9931267366
0.9942380127 0.4520691358 0.9931119081
0.0706120972 0.9889210149 0.9861019045
0.0706085290 0.9889228657 0.9860694661
0.2833302869 0.9887900138 0.9881339728
0.9798337011 0.9827165126 0.9898302657
0.9883845532 0.9824784445 0.9895019643
0.0705619251 0.9907091383 0.9856058571
0.0705579188 0.9907094133 0.9855698649
0.2758875278 0.9904738206 0.9876688625
0.9780066855 0.9888303663 0.9892933375
0.9888056309 0.9888056309 0.9888056309
