config/Mavic 4 Pro/Normalization/DJI Mavic 4 Pro D-Log M to Rec.709 V1.cube
# DaVinci Resolve Cube (3D LUT).
#
#Generated by LUT Editor.
#Not-Clipped.
#
LUT_3D_SIZE 5
0.0000000000 0.0000000000 0.0000000000
0.1831543394 0.0009153935 0.0009769290
0.4996230292 0.0055860271 0.0090933976
0.8408987586 0.0165781175 0.0298868766
1.0000000000 0.0801787508 0.1178293109
0.0055266005 0.1756857949 0.0002508085
0.1709037056 0.1812204062 0.0000000000
0.5397145618 0.1480986734 0.0000000000
0.8826467223 0.0196484066 0.0000000000
1.0000000000 0.0674090647 0.0541254733
0.0226199708 0.4824786120 0.0010167873
0.1674282932 0.4873203799 0.0000052949
0.4559729186 0.4909610657 0.0000000000
0.8424544009 0.4416503750 0.0000000000
1.0000000000 0.1409658276 0.0000000000
0.0166896799 0.8052092340 0.0158741793
0.1197389323 0.8051850200 0.0147696292
0.3969374828 0.8026767654 0.0109521814
0.7494705906 0.7890931534 0.0006836312
1.0000000000 0.6750119956 0.0000000000
0.0065981877 1.0000000000 0.0499058089
0.0473205326 1.0000000000 0.0490053655
0.2915552081 1.0000000000 0.0457177053
0.6354097497 1.0000000000 0.0353662107
0.9886657645 1.0000000000 0.0017107602
0.0022514095 0.0102869470 0.1768957184
0.1930683442 0.0031440970 0.1757833426
0.5003354037 0.0039649629 0.1883444071
0.8364158349 0.0232009909 0.2017141283
1.0000000000 0.0987741234 0.2283091641
0.0000000000 0.1841132738 0.1865886184
0.1783811715 0.1783374384 0.1781958879
0.5492391472 0.1382250255 0.1510419430
0.8627825578 0.1009563435 0.1446655475
1.0000000000 0.1497179992 0.1963416447
0.0000000000 0.5068925575 0.1121712858
0.0523150502 0.5083114204 0.0974395545
0.4741203881 0.4897911503 0.0775509783
0.8581942755 0.4210274862 0.0338244971
1.0000000000 0.2140657543 0.0163638949
0.0000000000 0.8136884736 0.0609191877
0.0000000000 0.8141131277 0.0592092460
0.3548017790 0.8089563200 0.0520944125
0.7572362028 0.7882569045 0.0276847192
1.0000000000 0.6673100725 0.0000000000
0.0000000000 1.0000000000 0.0816761764
0.0372523685 1.0000000000 0.0807195294
0.2327058494 1.0000000000 0.0771673331
0.6193979343 1.0000000000 0.0667979728
0.9892551228 1.0000000000 0.0124517433
0.0071742648 0.0532355194 0.5013672584
0.2136239444 0.0407114346 0.4917737920
0.5291373627 0.0127502481 0.4879204435
0.8441111930 0.0042421255 0.4858045067
1.0000000000 0.0764305925 0.4554696829
0.0000000000 0.1819814675 0.5552641758
0.1991068886 0.1667849807 0.5388085408
0.5389895338 0.1447509406 0.5202106646
0.8576046311 0.1099543592 0.4807167568
1.0000000000 0.1289749768 0.4340787114
0.0000000000 0.5026324683 0.5064074611
0.0472093684 0.5031388057 0.5056541605
0.4797136788 0.4796238523 0.4793324931
0.8626822026 0.4074806125 0.4210223230
1.0000000000 0.2571397649 0.3450861562
0.0000000000 0.8202279943 0.3594705794
0.0000000000 0.8225862399 0.3423388791
0.2758076948 0.8164835158 0.3286752700
0.7709029192 0.7842572071 0.2842253517
1.0000000000 0.6588875296 0.1646999657
0.0000000000 1.0000000000 0.1668629263
0.0000000000 1.0000000000 0.1659705316
0.0523230586 1.0000000000 0.1630422337
0.5467907164 1.0000000000 0.1525436644
0.9908234446 1.0000000000 0.0958256110
0.0022391821 0.1653705434 0.8607865795
0.2260312513 0.1520076416 0.8528914831
0.5548315444 0.1178458682 0.8376788598
0.8559045472 0.0435166770 0.8175253151
1.0000000000 0.0237881061 0.7670634681
0.0000298557 0.2273204057 0.8659171304
0.2173453734 0.2152932871 0.8594665361
0.5503001744 0.1858644747 0.8422820177
0.8555859876 0.1371707528 0.8217868129
1.0000000000 0.1098553070 0.7645404962
0.0000000000 0.4828920383 0.8889234701
0.0305657533 0.4680291936 0.9000223081
0.5006917736 0.4400113481 0.8801757252
0.8570176785 0.3823424998 0.8429582435
1.0000000000 0.2733475912 0.7478929947
0.0000000000 0.8080753863 0.8116921246
0.0000000000 0.8107251573 0.8143221576
0.2527179704 0.8044168767 0.8062303169
0.7702216112 0.7701247765 0.7698073947
1.0000000000 0.6430344263 0.6699542625
0.0000000000 1.0000000000 0.5573271165
0.0000000000 1.0000000000 0.5429609166
0.0000000000 1.0000000000 0.5298949061
0.3833812030 1.0000000000 0.5158259265
0.9937661791 1.0000000000 0.4568592600
0.0147506473 0.3369954649 1.0000000000
0.2054261652 0.3294153264 1.0000000000
0.5482996481 0.3054383749 1.0000000000
0.8603682635 0.2450550108 1.0000000000
1.0000000000 0.0787739350 0.9997197300
0.0307948577 0.3362879071 1.0000000000
0.2216618946 0.3286607521 1.0000000000
0.5503639813 0.3052192595 1.0000000000
0.8621617168 0.2443618001 1.0000000000
1.0000000000 0.0789819538 0.9997080183
0.0000000000 0.4952795871 1.0000000000
0.1537179842 0.4892224204 1.0000000000
0.5171323368 0.4674199007 1.0000000000
0.8501569912 0.4105395097 1.0000000000
1.0000000000 0.3055316604 1.0000000000
0.0000000000 0.7672450836 1.0000000000
0.0000000000 0.7601978267 1.0000000000
0.2928373888 0.7487168368 1.0000000000
0.7924016448 0.7074001690 1.0000000000
1.0000000000 0.6208516195 1.0000000000
0.0000000000 1.0000000000 1.0000000000
0.0000000000 1.0000000000 1.0000000000
0.0000000000 1.0000000000 1.0000000000
0.3471171253 1.0000000000 1.0000000000
1.0000000000 1.0000000000 1.0000000000
