config/Mavic 4 Pro/Normalization/DJI Mavic 4 Pro D-Log M to Rec.709 V1.cube
# DaVinci Resolve Cube (3D LUT).
#
#Generated by LUT Editor.
#Not-Clipped.
#
LUT_3D_SIZE	33
0.0000000000 0.0000000000 0.0000000000
0.0015789500 0.0000883130 0.0000245040
0.0078357927 0.0004461581 0.0000652839
0.0211660399 0.0004352942 0.0001477271
0.0454684919 0.0003137761 0.0002545299
0.0755682745 0.0003234761 0.0003138018
0.1094933720 0.0004337108 0.0002306664
0.1451943436 0.0006276399 0.0005397296
0.1831543394 0.0009153935 0.0009769290
0.2222614055 0.0013290287 0.0018925490
0.2623571063 0.0018741970 0.0029476189
0.3034361410 0.0024332219 0.0039975828
0.3446268514 0.0029347287 0.0049476110
0.3849361253 0.0034972427 0.0059524517
0.4242199593 0.0041653600 0.0070137776
0.4626548899 0.0048580030 0.0080129069
0.4996230292 0.0055860271 0.0090933976
0.5369401197 0.0063806129 0.0102988544
0.5777533105 0.0072823675 0.0117459460
0.6219648123 0.0083118383 0.0134786636
0.6685961838 0.0094908924 0.0155537297
0.7159914764 0.0108332517 0.0180385334
0.7626104334 0.0124151253 0.0212331739
0.8023300636 0.0142212843 0.0253544317
0.8408987586 0.0165781175 0.0298868766
0.8776167966 0.0190807887 0.0353402450
0.9114782052 0.0222265295 0.0414264251
0.9414337013 0.0261049690 0.0485120501
0.9663218113 0.0313239487 0.0565119064
0.9851763343 0.0365414165 0.0649614459
0.9986452380 0.0416568756 0.0739415964
1.0000000000 0.0526437436 0.0880223367
1.0000000000 0.0801787508 0.1178293109
0.0006489685 0.0014434029 0.0000076812
0.0014332096 0.0014814468 0.0000002991
0.0082846285 0.0012421263 0.0000262783
0.0225186212 0.0008530441 0.0000877025
0.0477249836 0.0003153327 0.0001460895
0.0775849784 0.0002608287 0.0001548369
0.1111302863 0.0003693460 0.0000573994
0.1473684904 0.0006648044 0.0004327681
0.1855478101 0.0009103167 0.0008334975
0.2245331298 0.0012479234 0.0016408173
0.2636987455 0.0017577870 0.0027093963
0.3045818222 0.0022899603 0.0037500068
0.3457211493 0.0027760469 0.0046656226
0.3863972908 0.0033297267 0.0055166274
0.4258143020 0.0039846664 0.0064679208
0.4640088500 0.0046665606 0.0074921964
0.5008535141 0.0054047007 0.0086038908
0.5380273684 0.0061877454 0.0098289384
0.5786989176 0.0070794494 0.0112962776
0.6227887889 0.0080991773 0.0130491369
0.6692919643 0.0092673855 0.0151429057
0.7165566443 0.0105977266 0.0176455015
0.7630132998 0.0121646891 0.0207396550
0.8027021634 0.0140445552 0.0247218687
0.8411846439 0.0163750726 0.0292926177
0.8778327620 0.0188515509 0.0346492036
0.9116643735 0.0219574662 0.0409466063
0.9415698862 0.0258063102 0.0480462530
0.9664013676 0.0310744139 0.0559927604
0.9852258336 0.0362693052 0.0644785452
0.9986820402 0.0414158888 0.0735428536
1.0000000000 0.0524806612 0.0876615733
1.0000000000 0.0800037095 0.1175450295
0.0008124636 0.0072895630 0.0000161528
0.0011875862 0.0073161126 0.0000125380
0.0070865012 0.0075277525 0.0000004699
0.0216106362 0.0069440775 0.0000000000
0.0498064347 0.0058571035 0.0000000000
0.0837976734 0.0046943888 0.0000000000
0.1220025648 0.0030802825 0.0000040714
0.1625705487 0.0011476335 0.0000185570
0.1997592545 0.0009891052 0.0000868290
0.2384951081 0.0008617307 0.0002542080
0.2778797529 0.0010327610 0.0004999929
0.3178088930 0.0014910931 0.0007801580
0.3577159920 0.0019700946 0.0014595804
0.3970367045 0.0024832931 0.0023841782
0.4352135435 0.0030613629 0.0033959632
0.4723926624 0.0036700269 0.0044815645
0.5082660758 0.0043068072 0.0056401603
0.5448156234 0.0049943720 0.0068677264
0.5850332381 0.0058180454 0.0082583917
0.6286245223 0.0068025530 0.0099275619
0.6744283087 0.0079783882 0.0119299167
0.7209319299 0.0093859272 0.0143371340
0.7662601962 0.0110459291 0.0171961303
0.8053938907 0.0128999895 0.0203186482
0.8434000228 0.0151090116 0.0251334764
0.8796374029 0.0175048721 0.0307042067
0.9130235687 0.0201233600 0.0373363594
0.9424801904 0.0242812197 0.0440727134
0.9669998135 0.0291947341 0.0520824241
0.9856436398 0.0346253317 0.0608945170
0.9989528289 0.0396401322 0.0702587979
1.0000000000 0.0512170443 0.0848758652
1.0000000000 0.0786435133 0.1152099340
0.0013469878 0.0189744947 0.0000336736
0.0019816753 0.0190131114 0.0000279142
0.0067191007 0.0192546464 0.0000035618
0.0184057446 0.0196303933 0.0000000000
0.0448661448 0.0191996169 0.0000000000
0.0805157810 0.0176208215 0.0000000000
0.1209364127 0.0154171105 0.0000000000
0.1652013155 0.0123103158 0.0000000000
0.2092379030 0.0090982955 0.0000000000
0.2552789926 0.0050049121 0.0000000000
0.2982074081 0.0025340348 0.0000000000
0.3379546051 0.0020992991 0.0000000000
0.3769846598 0.0019920556 0.0000185338
0.4152613507 0.0019320273 0.0002639159
0.4525144371 0.0018765508 0.0004663758
0.4886395299 0.0020402933 0.0006070313
0.5230769581 0.0028578644 0.0006860229
0.5584739562 0.0035295738 0.0008501586
0.5974201779 0.0043435869 0.0023170044
0.6395747707 0.0053326213 0.0040902197
0.6838749898 0.0064942482 0.0060939974
0.7288787322 0.0078815985 0.0084201220
0.7720717137 0.0094992382 0.0112075141
0.8102046644 0.0112620996 0.0143232294
0.8472899073 0.0133281026 0.0179766104
0.8827214563 0.0157505015 0.0228474078
0.9153721847 0.0185751190 0.0293468375
0.9442111147 0.0222988606 0.0372521814
0.9682106326 0.0270674108 0.0453167274
0.9863933562 0.0324547431 0.0540098281
0.9992793968 0.0377838025 0.0635720362
1.0000000000 0.0492063397 0.0797759943
1.0000000000 0.0761004230 0.1103222847
0.0018132220 0.0426511318 0.0000589776
0.0022708707 0.0426860503 0.0000547951
0.0062245254 0.0429640770 0.0000266601
0.0178803033 0.0435197820 0.0000000000
0.0413791618 0.0441425930 0.0000000000
0.0728865159 0.0438950435 0.0000000000
0.1121877263 0.0422736719 0.0000000000
0.1562618627 0.0392586199 0.0000000000
0.2049558682 0.0320628657 0.0000000000
0.2545705640 0.0243659828 0.0000000000
0.3020552067 0.0185211719 0.0000000000
0.3485366012 0.0137912136 0.0000000000
0.3931118599 0.0093197206 0.0000000000
0.4341887660 0.0059969202 0.0000000000
0.4716794586 0.0043752627 0.0000000000
0.5066904210 0.0038616615 0.0000000000
0.5409495311 0.0036622861 0.0000000000
0.5759171206 0.0034444805 0.0000211123
0.6144223316 0.0031854001 0.0001668687
0.6558605287 0.0027479481 0.0001919606
0.6975350789 0.0043936863 0.0000291933
0.7403528492 0.0057507166 0.0006042423
0.7805196444 0.0073128727 0.0030649800
0.8172270963 0.0091011846 0.0058482737
0.8530127557 0.0111627810 0.0093787806
0.8871613573 0.0135802460 0.0137323940
0.9186788941 0.0164005510 0.0187982146
0.9466324595 0.0196624553 0.0259701258
0.9698411906 0.0242894060 0.0351625128
0.9874576736 0.0297946719 0.0443314047
0.9998582224 0.0351890274 0.0541401869
1.0000000000 0.0479371649 0.0727061566
1.0000000000 0.0728681789 0.1033111200
0.0018167553 0.0711068817 0.0001034260
0.0024640799 0.0711540055 0.0000961564
0.0071861883 0.0715113168 0.0000431551
0.0170982471 0.0721106285 0.0000010027
0.0401764741 0.0728752865 0.0000000000
0.0687357014 0.0736388735 0.0000000000
0.1046489507 0.0735641397 0.0000000000
0.1460841470 0.0721147991 0.0000000000
0.1929731958 0.0682618170 0.0000000000
0.2418045333 0.0627924309 0.0000000000
0.2933092819 0.0551299631 0.0000000000
0.3430138178 0.0477498924 0.0000000000
0.3903649875 0.0405008287 0.0000000000
0.4357509245 0.0314505716 0.0000000000
0.4783220222 0.0230321693 0.0000000000
0.5186845090 0.0164547439 0.0000000000
0.5575885446 0.0107913799 0.0000000000
0.5940696538 0.0076743339 0.0000000000
0.6315300424 0.0067923551 0.0000000000
0.6712297094 0.0059972218 0.0000000000
0.7122059592 0.0054858074 0.0000000000
0.7538991555 0.0047202186 0.0000000000
0.7912783880 0.0043966334 0.0000000000
0.8260132126 0.0065344994 0.0000000000
0.8602612602 0.0083226031 0.0008664000
0.8928779597 0.0109070524 0.0037730218
0.9230383384 0.0136977621 0.0078679133
0.9497180512 0.0169417101 0.0138424050
0.9719009924 0.0207506577 0.0208024290
0.9887548084 0.0260668711 0.0314527780
1.0000000000 0.0321308820 0.0417093709
1.0000000000 0.0475788390 0.0637692194
1.0000000000 0.0707380906 0.0946937378
0.0028920128 0.1042198124 0.0001485185
0.0031173178 0.1042577402 0.0001427660
0.0069946712 0.1045366428 0.0000981955
0.0176950563 0.1050755705 0.0000290539
0.0383581238 0.1057921040 0.0000000141
0.0675673660 0.1066295266 0.0000000000
0.1012491383 0.1074552527 0.0000000000
0.1392903493 0.1076018483 0.0000000000
0.1814522981 0.1065309405 0.0000000000
0.2276766185 0.1037278624 0.0000000000
0.2769586419 0.0990796646 0.0000000000
0.3288855733 0.0921489352 0.0000000000
0.3806025126 0.0832882559 0.0000000000
0.4285548233 0.0749716988 0.0000000000
0.4732997226 0.0664368598 0.0000000000
0.5155882279 0.0576077316 0.0000000000
0.5567843057 0.0480952673 0.0000000000
0.5978082910 0.0376599891 0.0000000000
0.6419151557 0.0243979763 0.0000000000
0.6859588413 0.0148771762 0.0000000000
0.7268336092 0.0111150391 0.0000000000
0.7660683389 0.0097399413 0.0000000000
0.8006066132 0.0085944822 0.0000000000
0.8348138350 0.0076844213 0.0000000000
0.8681514868 0.0071191376 0.0000000000
0.8995846254 0.0077559285 0.0000000000
0.9282112473 0.0102320236 0.0005070857
0.9535306391 0.0138129888 0.0024639077
0.9743459720 0.0174604480 0.0078294373
0.9902784988 0.0219453324 0.0157081122
1.0000000000 0.0279838412 0.0259622031
1.0000000000 0.0467667771 0.0523677805
1.0000000000 0.0696251910 0.0837648633
0.0023709312 0.1396230155 0.0002142503
0.0026354589 0.1396528589 0.0002090087
0.0079526998 0.1398931579 0.0001543253
0.0180739382 0.1403332609 0.0000690674
0.0410795268 0.1409251008 0.0000148028
0.0677920098 0.1415888331 0.0000000000
0.1012732306 0.1424424733 0.0000000000
0.1358387335 0.1435954281 0.0000000000
0.1747280346 0.1440243338 0.0000000000
0.2171790005 0.1433019393 0.0000000000
0.2631573658 0.1412424730 0.0000000000
0.3124519067 0.1375571205 0.0000000000
0.3635503503 0.1314906203 0.0000000000
0.4144513239 0.1235225852 0.0000000000
0.4629653948 0.1147148028 0.0000000000
0.5082702329 0.1055052311 0.0000000000
0.5507535206 0.0965818884 0.0000000000
0.5927343163 0.0867735874 0.0000000000
0.6382303169 0.0751860536 0.0000000000
0.6852918043 0.0600464627 0.0000000000
0.7324531899 0.0423178854 0.0000000000
0.7750313510 0.0231682983 0.0000000000
0.8103387707 0.0158747974 0.0000000000
0.8433329503 0.0135029222 0.0000000000
0.8753583123 0.0117870600 0.0000000000
0.9056742967 0.0104077939 0.0000000000
0.9334321776 0.0095546227 0.0000000000
0.9578150114 0.0091061033 0.0000000000
0.9771230424 0.0137637675 0.0002297980
0.9920002500 0.0180072277 0.0019965784
1.0000000000 0.0232203338 0.0103708827
1.0000000000 0.0457756028 0.0389975076
1.0000000000 0.0684972391 0.0706454013
0.0055266005 0.1756857949 0.0002508085
0.0060727226 0.1757081793 0.0002447193
0.0106854916 0.1758822470 0.0001971706
0.0221814994 0.1762183943 0.0001066612
0.0451641530 0.1766810699 0.0000145914
0.0719876715 0.1775067912 0.0000000000
0.1009790334 0.1787626065 0.0000000000
0.1347189435 0.1800395116 0.0000000000
0.1709037056 0.1812204062 0.0000000000
0.2103121109 0.1817898261 0.0000000000
0.2533045505 0.1814644109 0.0000000000
0.2995207608 0.1799618493 0.0000000000
0.3482032466 0.1771979923 0.0000000000
0.3979215301 0.1723572641 0.0000000000
0.4467161041 0.1657306701 0.0000000000
0.4940834036 0.1574950868 0.0000000000
0.5397145618 0.1480986734 0.0000000000
0.5854238648 0.1377227601 0.0000000000
0.6322917109 0.1266984378 0.0000000000
0.6801112138 0.1145338904 0.0000000000
0.7283580147 0.0990073631 0.0000000000
0.7718375666 0.0778496122 0.0000000000
0.8128742637 0.0529173112 0.0000000000
0.8502124070 0.0310512832 0.0000000000
0.8826467223 0.0196484066 0.0000000000
0.9116755427 0.0168626359 0.0000000000
0.9381344531 0.0146662110 0.0000000000
0.9613538877 0.0126086912 0.0000000000
0.9800283998 0.0108943244 0.0000000000
0.9938979761 0.0129803954 0.0000000000
1.0000000000 0.0217222276 0.0000000000
1.0000000000 0.0449174540 0.0213708337
1.0000000000 0.0674090647 0.0541254733
0.0102658040 0.2119649194 0.0002762495
0.0109722465 0.2119883342 0.0002698185
0.0164022763 0.2121898625 0.0002204507
0.0291686671 0.2126638451 0.0001389934
0.0484596317 0.2135503491 0.0000541378
0.0733814560 0.2147575169 0.0000000000
0.1020406638 0.2160938363 0.0000000000
0.1341232335 0.2174831388 0.0000000000
0.1695542332 0.2188738906 0.0000000000
0.2065648074 0.2201494202 0.0000000000
0.2466850432 0.2208787566 0.0000000000
0.2900751258 0.2207986230 0.0000000000
0.3362848329 0.2196889957 0.0000000000
0.3838806303 0.2172001434 0.0000000000
0.4316494250 0.2131355661 0.0000000000
0.4783951305 0.2078560264 0.0000000000
0.5240959861 0.2010394351 0.0000000000
0.5707998227 0.1923137960 0.0000000000
0.6217663311 0.1807450718 0.0000000000
0.6738129188 0.1673974962 0.0000000000
0.7222839940 0.1532245288 0.0000000000
0.7659004272 0.1354648679 0.0000000000
0.8082937505 0.1129880028 0.0000000000
0.8487994671 0.0854695126 0.0000000000
0.8859774573 0.0542003077 0.0000000000
0.9173788648 0.0310047117 0.0000000000
0.9428682997 0.0234182461 0.0000000000
0.9647888957 0.0194074149 0.0000000000
0.9823021875 0.0167761603 0.0000000000
0.9955225274 0.0148252716 0.0000000000
1.0000000000 0.0191310298 0.0000000000
1.0000000000 0.0441397999 0.0065091400
1.0000000000 0.0666152617 0.0366645045
0.0143802238 0.2499498952 0.0003284629
0.0149049280 0.2499917795 0.0003237445
0.0190445773 0.2503221447 0.0002865600
0.0320755110 0.2509638804 0.0002020032
0.0507845630 0.2518790739 0.0000694907
0.0739539994 0.2530133354 0.0000038997
0.1031288758 0.2542775629 0.0000000000
0.1343647519 0.2556184696 0.0000000000
0.1684917839 0.2569932487 0.0000000000
0.2048624326 0.2583462551 0.0000000000
0.2426869092 0.2595954081 0.0000000000
0.2835030097 0.2604047778 0.0000000000
0.3273253454 0.2605464497 0.0000000000
0.3727304605 0.2598640274 0.0000000000
0.4189367647 0.2578718710 0.0000000000
0.4645951916 0.2546633684 0.0000000000
0.5093464123 0.2501184631 0.0000000000
0.5553748951 0.2439103819 0.0000000000
0.6066064581 0.2351824609 0.0000000000
0.6611081004 0.2235184012 0.0000000000
0.7127051573 0.2068670394 0.0000000000
0.7594954642 0.1888079197 0.0000000000
0.8028742267 0.1697620833 0.0000000000
0.8443300827 0.1459063002 0.0000000000
0.8830712590 0.1165033160 0.0000000000
0.9177695942 0.0811968978 0.0000000000
0.9465034577 0.0470871485 0.0000000000
0.9681475705 0.0320484569 0.0000000000
0.9846078767 0.0255359178 0.0000000000
0.9970040201 0.0208321980 0.0000000000
1.0000000000 0.0289957946 0.0000000000
1.0000000000 0.0431564423 0.0004728226
1.0000000000 0.0659782681 0.0183837849
0.0153362355 0.2892010704 0.0004149717
0.0159829227 0.2892405836 0.0004096448
0.0213281686 0.2895529944 0.0003675669
0.0345491549 0.2901614114 0.0002848270
0.0512409733 0.2910381735 0.0001608510
0.0758072710 0.2921383735 0.0000443068
0.1032492042 0.2934113376 0.0000005422
0.1348720769 0.2948013393 0.0000000000
0.1681367224 0.2962213967 0.0000000000
0.2035582705 0.2976598765 0.0000000000
0.2406646318 0.2990601669 0.0000000000
0.2795389208 0.3003698727 0.0000000000
0.3212092549 0.3013078153 0.0000000000
0.3644394825 0.3016702721 0.0000000000
0.4086537410 0.3012292396 0.0000000000
0.4529559281 0.2995396012 0.0000000000
0.4967144787 0.2967595892 0.0000000000
0.5415993168 0.2926417499 0.0000000000
0.5919985223 0.2864002187 0.0000000000
0.6455897405 0.2771267057 0.0000000000
0.6979028824 0.2620961703 0.0000000000
0.7492770922 0.2433852424 0.0000000000
0.7967693346 0.2227417242 0.0000000000
0.8394595629 0.2016467284 0.0000000000
0.8791140709 0.1765270075 0.0000000000
0.9149586267 0.1446446835 0.0000000000
0.9459979151 0.1048613169 0.0000000000
0.9702065806 0.0622049072 0.0000000000
0.9868166854 0.0394944372 0.0000000000
0.9982561066 0.0367350351 0.0000000000
1.0000000000 0.0432448958 0.0000000000
1.0000000000 0.0479493177 0.0000000000
1.0000000000 0.0668028529 0.0033960689
0.0168202922 0.3292884204 0.0005113024
0.0174125099 0.3293247349 0.0005064356
0.0226393180 0.3296123524 0.0004679238
0.0345220343 0.3301731388 0.0003928265
0.0536976643 0.3309929005 0.0002565882
0.0767624061 0.3320290681 0.0001167062
0.1040070490 0.3332306889 0.0000314382
0.1347184818 0.3345445600 0.0000000000
0.1679810026 0.3359495651 0.0000000000
0.2026391507 0.3373901717 0.0000000000
0.2391188332 0.3388356723 0.0000000000
0.2772019387 0.3402307112 0.0000000000
0.3171598635 0.3415509485 0.0000000000
0.3585358842 0.3425670643 0.0000000000
0.4008786082 0.3430928068 0.0000000000
0.4436416721 0.3427907988 0.0000000000
0.4861626113 0.3414475292 0.0000000000
0.5297429420 0.3390564563 0.0000000000
0.5790926148 0.3350283835 0.0000000000
0.6295210608 0.3263937472 0.0000000000
0.6824403207 0.3145969753 0.0000000000
0.7355040970 0.2986149294 0.0000000000
0.7866359721 0.2780468540 0.0000000000
0.8336867540 0.2547922831 0.0000000000
0.8748352273 0.2314022125 0.0000000000
0.9115608754 0.2038722843 0.0000000000
0.9434967826 0.1691099189 0.0000000000
0.9691492579 0.1245472154 0.0000000000
0.9879303196 0.0746683797 0.0000000000
0.9993237011 0.0578096055 0.0000000000
1.0000000000 0.0602203905 0.0000000000
1.0000000000 0.0637189077 0.0000000000
1.0000000000 0.0676093766 0.0000000000
0.0174438891 0.3690709659 0.0006247522
0.0181371178 0.3691035012 0.0006193599
0.0246320629 0.3693615331 0.0005766304
0.0386057200 0.3698673725 0.0004930193
0.0550395048 0.3706018618 0.0003676563
0.0773948653 0.3715405487 0.0002086159
0.1052076889 0.3726554221 0.0000395579
0.1349922220 0.3739045179 0.0000000000
0.1677015203 0.3752654221 0.0000000000
0.2020799996 0.3766811250 0.0000000000
0.2377887137 0.3781187575 0.0000000000
0.2755374837 0.3795389419 0.0000000000
0.3145767148 0.3808806570 0.0000000000
0.3545730956 0.3821641628 0.0000000000
0.3951730392 0.3832142319 0.0000000000
0.4363148836 0.3838507875 0.0000000000
0.4775321591 0.3836655666 0.0000000000
0.5197851881 0.3826425068 0.0000000000
0.5653839392 0.3783435234 0.0000000000
0.6147191698 0.3717742720 0.0000000000
0.6677367307 0.3626453919 0.0000000000
0.7216261605 0.3502319220 0.0000000000
0.7741913501 0.3333670271 0.0000000000
0.8243711178 0.3109041907 0.0000000000
0.8696602727 0.2846948218 0.0000000000
0.9078796049 0.2583680560 0.0000000000
0.9406171779 0.2277273014 0.0000000000
0.9670010400 0.1887256249 0.0000000000
0.9868953466 0.1393719984 0.0000000000
1.0000000000 0.0905087217 0.0000000000
1.0000000000 0.0805549606 0.0000000000
1.0000000000 0.0808342731 0.0000000000
1.0000000000 0.0831723195 0.0000000000
0.0186859157 0.4080622985 0.0007414935
0.0193278504 0.4080919114 0.0007365022
0.0256598814 0.4083270241 0.0006969061
0.0386490194 0.4087892239 0.0006192109
0.0550835086 0.4094671296 0.0004960538
0.0786955208 0.4103370637 0.0003210833
0.1050838295 0.4113495131 0.0001465426
0.1355126319 0.4125092108 0.0000264899
0.1673960574 0.4137710936 0.0000000000
0.2017336243 0.4151163037 0.0000000000
0.2368585904 0.4164937862 0.0000000000
0.2739324980 0.4178909124 0.0000000000
0.3126565394 0.4192806354 0.0000000000
0.3518512740 0.4205822767 0.0000000000
0.3913791709 0.4218316315 0.0000000000
0.4309078034 0.4229217548 0.0000000000
0.4703128616 0.4232610321 0.0000000000
0.5091493652 0.4212482692 0.0000000000
0.5530833403 0.4180418525 0.0000000000
0.6013908668 0.4133519912 0.0000000000
0.6540255823 0.4065702511 0.0000000000
0.7083228627 0.3969426425 0.0000000000
0.7618959184 0.3836002969 0.0000000000
0.8133899744 0.3653075785 0.0000000000
0.8614662220 0.3407367287 0.0000000000
0.9035119857 0.3117101634 0.0000000000
0.9374432300 0.2821628889 0.0000000000
0.9645848315 0.2467959494 0.0000000000
0.9852573448 0.2027462011 0.0000000000
0.9995732147 0.1477239516 0.0000000000
1.0000000000 0.1047045369 0.0000000000
1.0000000000 0.1003627157 0.0000000000
1.0000000000 0.0997436791 0.0000000000
0.0193628310 0.4458904121 0.0008789391
0.0197358596 0.4459168663 0.0008743342
0.0257925180 0.4461285054 0.0008334635
0.0402370952 0.4465470798 0.0007482591
0.0566642157 0.4471594616 0.0006238861
0.0788951535 0.4479515890 0.0004584551
0.1055973228 0.4488851680 0.0002408801
0.1353532920 0.4499497657 0.0000527199
0.1673715935 0.4511241663 0.0000042154
0.2009948870 0.4523811577 0.0000000000
0.2361668898 0.4537170994 0.0000000000
0.2726735017 0.4550954017 0.0000000000
0.3108432604 0.4564831165 0.0000000000
0.3497401529 0.4578323760 0.0000000000
0.3886655262 0.4591094867 0.0000000000
0.4256578341 0.4587406155 0.0000000000
0.4622547707 0.4581153812 0.0000000000
0.4999067445 0.4570278570 0.0000000000
0.5425308089 0.4549372488 0.0000000000
0.5896505266 0.4516633932 0.0000000000
0.6415135471 0.4467020522 0.0000000000
0.6958951745 0.4393706098 0.0000000000
0.7500794765 0.4289360508 0.0000000000
0.8024509527 0.4142228706 0.0000000000
0.8518834999 0.3939745146 0.0000000000
0.8967182549 0.3669516884 0.0000000000
0.9338871529 0.3344814799 0.0000000000
0.9619384968 0.3012322146 0.0000000000
0.9833864233 0.2606660706 0.0000000000
0.9984733834 0.2109881718 0.0000000000
1.0000000000 0.1526989184 0.0000000000
1.0000000000 0.1230664805 0.0000000000
1.0000000000 0.1187557530 0.0000000000
0.0226199708 0.4824786120 0.0010167873
0.0232553490 0.4825028276 0.0010119012
0.0283034796 0.4826921192 0.0009730739
0.0410717415 0.4830703468 0.0008936524
0.0564974887 0.4836262431 0.0007767985
0.0796614060 0.4843445399 0.0006075441
0.1063142932 0.4852116953 0.0003978056
0.1354582072 0.4862119994 0.0001756951
0.1674282932 0.4873203799 0.0000052949
0.2006652796 0.4885175805 0.0000000000
0.2354352230 0.4897786010 0.0000000000
0.2716998525 0.4910709872 0.0000000000
0.3090854008 0.4919923608 0.0000000000
0.3464237674 0.4918690403 0.0000000000
0.3835676366 0.4916451805 0.0000000000
0.4201121246 0.4913379611 0.0000000000
0.4559729186 0.4909610657 0.0000000000
0.4923803638 0.4904117544 0.0000000000
0.5335119049 0.4892701636 0.0000000000
0.5794739874 0.4870924946 0.0000000000
0.6303314746 0.4835604238 0.0000000000
0.6843547455 0.4780687362 0.0000000000
0.7388576544 0.4700886621 0.0000000000
0.7917606449 0.4584903900 0.0000000000
0.8424544009 0.4416503750 0.0000000000
0.8889806831 0.4186019209 0.0000000000
0.9286153114 0.3874245535 0.0000000000
0.9590228608 0.3531231819 0.0000000000
0.9813126087 0.3158751137 0.0000000000
0.9971869562 0.2698895172 0.0000000000
1.0000000000 0.2148460661 0.0000000000
1.0000000000 0.1577463478 0.0000000000
1.0000000000 0.1409658276 0.0000000000
0.0227826926 0.5195925726 0.0011821594
0.0233727596 0.5196143883 0.0011775545
0.0280641436 0.5197876608 0.0011409382
0.0409206670 0.5201306605 0.0010591777
0.0581038424 0.5206352808 0.0009326242
0.0799930449 0.5212925073 0.0007683205
0.1058954554 0.5220877477 0.0005635989
0.1358405825 0.5230126015 0.0003014241
0.1669949206 0.5240497795 0.0000993003
0.2000710441 0.5244289546 0.0000090872
0.2335530006 0.5245454223 0.0000000000
0.2687905222 0.5245974973 0.0000000000
0.3049026125 0.5245953110 0.0000000000
0.3418157163 0.5245241444 0.0000000000
0.3786819718 0.5243966681 0.0000000000
0.4149337989 0.5241763282 0.0000000000
0.4503647338 0.5238697201 0.0000000000
0.4864854433 0.5234611369 0.0000000000
0.5256215648 0.5228541827 0.0000000000
0.5704756016 0.5215521206 0.0000000000
0.6205155920 0.5188875063 0.0000000000
0.6741555065 0.5146148606 0.0000000000
0.7287593090 0.5081599678 0.0000000000
0.7822082904 0.4987118155 0.0000000000
0.8334634571 0.4849797196 0.0000000000
0.8808669701 0.4657897147 0.0000000000
0.9220718363 0.4385293660 0.0000000000
0.9551774742 0.4041035597 0.0000000000
0.9790154924 0.3680188032 0.0000000000
0.9957285186 0.3260335342 0.0000000000
1.0000000000 0.2750520437 0.0000000000
1.0000000000 0.2164981989 0.0000000000
1.0000000000 0.1681068372 0.0000000000
0.0212713919 0.5588981913 0.0024734981
0.0218286159 0.5589059520 0.0024686449
0.0262605460 0.5589679790 0.0024300704
0.0367580924 0.5590634309 0.0023532584
0.0530843518 0.5591915810 0.0022389581
0.0753211843 0.5593457483 0.0020779794
0.1022879260 0.5594616356 0.0018680315
0.1309370640 0.5596040361 0.0016298681
0.1623443612 0.5597389201 0.0013328454
0.1949366929 0.5598603188 0.0010158138
0.2287264273 0.5599553217 0.0006339900
0.2634026735 0.5600282759 0.0002617252
0.2996119633 0.5600507386 0.0000259920
0.3363403645 0.5600263032 0.0000818515
0.3730427558 0.5599577455 0.0000846528
0.4092898836 0.5598162443 0.0001269683
0.4447749847 0.5595613013 0.0000257162
0.4811071413 0.5591545481 0.0000000000
0.5198625088 0.5585938183 0.0000000000
